;FLAVOR:Marlin
;TIME:852
;Filament used: 1.64103m
;Layer height: 0.2
;MINX:137.9
;MINY:137.9
;MINZ:0.2
;MAXX:162.1
;MAXY:162.1
;MAXZ:20.5
;Generated with Cura_SteamEngine 4.5.0
M140 S80
M105
M190 S80
M104 S235
M105
M109 S235
M82 ;absolute extrusion mode
G28 ;Home
G1 Z15.0 F6000 ;Move the platform down 15mm
;Prime the extruder
G92 E0
G1 F200 E3
G92 E0
G92 E0
G92 E0
G1 F2400 E-1
;LAYER_COUNT:100
;LAYER:0
M107
G1 F600 Z0.7
G0 F7200 X138.538 Y138.511 Z0.7
;TYPE:SKIRT
G1 F600 Z0.2
G1 F2400 E0
G1 F1800 X138.856 Y138.254 E0.0136
G1 X139.219 Y138.063 E0.02724
G1 X139.611 Y137.947 E0.04084
G1 X140.271 Y137.901 E0.06284
G1 X159.323 Y137.9 E0.69652
G1 X160.428 Y137.956 E0.73332
G1 X160.818 Y138.08 E0.74693
G1 X161.177 Y138.277 E0.76055
G1 X161.491 Y138.54 E0.77417
G1 X161.747 Y138.859 E0.78777
G1 X161.937 Y139.221 E0.80137
G1 X162.053 Y139.614 E0.815
G1 X162.099 Y140.271 E0.83691
G1 X162.1 Y159.29 E1.46948
G1 X162.091 Y160.017 E1.49366
G1 X162.046 Y160.424 E1.50728
G1 X161.923 Y160.814 E1.52088
G1 X161.726 Y161.174 E1.53453
G1 X161.464 Y161.488 E1.54813
G1 X161.146 Y161.745 E1.56173
G1 X160.783 Y161.936 E1.57538
G1 X160.391 Y162.053 E1.58898
G1 X159.729 Y162.099 E1.61105
G1 X140.68 Y162.1 E2.24463
G1 X139.982 Y162.091 E2.26784
G1 X139.575 Y162.046 E2.28146
G1 X139.185 Y161.922 E2.29507
G1 X138.826 Y161.726 E2.30868
G1 X138.511 Y161.463 E2.32233
G1 X138.254 Y161.145 E2.33593
G1 X138.064 Y160.782 E2.34955
G1 X137.947 Y160.39 E2.36316
G1 X137.901 Y159.715 E2.38566
G1 X137.9 Y140.646 E3.0199
G1 X137.909 Y139.981 E3.04202
G1 X137.955 Y139.574 E3.05564
G1 X138.078 Y139.183 E3.06928
G1 X138.087 Y139.168 E3.06986
G0 F1620 X138.275 Y138.824
G0 X138.538 Y138.511
G0 F7200 X138.928 Y138.697
G1 F1800 X139.236 Y138.495 E3.08211
G1 X139.58 Y138.364 E3.09435
G1 X140.282 Y138.301 E3.11779
G1 X159.317 Y138.3 E3.7509
G1 X160.381 Y138.355 E3.78634
G1 X160.728 Y138.478 E3.79858
G1 X161.041 Y138.673 E3.81085
G1 X161.304 Y138.93 E3.82308
G1 X161.506 Y139.238 E3.83533
G1 X161.636 Y139.582 E3.84756
G1 X161.699 Y140.282 E3.87093
G1 X161.7 Y159.285 E4.50298
G1 X161.691 Y160.012 E4.52716
G1 X161.646 Y160.378 E4.53942
G1 X161.524 Y160.725 E4.55166
G1 X161.33 Y161.038 E4.56391
G1 X161.073 Y161.302 E4.57616
G1 X160.766 Y161.504 E4.58838
G1 X160.422 Y161.636 E4.60064
G1 X159.718 Y161.699 E4.62415
G1 X140.685 Y161.7 E5.25719
G1 X139.987 Y161.691 E5.2804
G1 X139.622 Y161.646 E5.29264
G1 X139.274 Y161.524 E5.3049
G1 X138.961 Y161.33 E5.31715
G1 X138.698 Y161.073 E5.32938
G1 X138.495 Y160.765 E5.34165
G1 X138.364 Y160.421 E5.35389
G1 X138.301 Y159.704 E5.37783
G1 X138.3 Y140.651 E6.01154
G1 X138.309 Y139.986 E6.03366
G1 X138.354 Y139.62 E6.04592
G1 X138.455 Y139.334 E6.05601
G0 F1620 X138.476 Y139.273
G0 X138.671 Y138.96
G0 X138.928 Y138.697
G0 F7200 X139.065 Y139.115
G1 F1800 X139.314 Y138.911 E6.06672
G1 X139.605 Y138.773 E6.07743
G1 X140.294 Y138.701 E6.10047
G1 X159.312 Y138.7 E6.73301
G1 X160.328 Y138.755 E6.76685
G1 X160.627 Y138.876 E6.77758
G1 X160.886 Y139.067 E6.78828
G1 X161.09 Y139.316 E6.79899
G1 X161.227 Y139.607 E6.80969
G1 X161.299 Y140.293 E6.83263
G1 X161.3 Y159.28 E7.46414
G1 X161.291 Y160.007 E7.48832
G1 X161.247 Y160.326 E7.49903
G1 X161.126 Y160.624 E7.50973
G1 X160.936 Y160.884 E7.52044
G1 X160.688 Y161.089 E7.53114
G1 X160.397 Y161.226 E7.54184
G1 X159.706 Y161.299 E7.56495
G1 X140.69 Y161.3 E8.19742
G1 X139.992 Y161.291 E8.22064
G1 X139.673 Y161.247 E8.23135
G1 X139.375 Y161.126 E8.24205
G1 X139.116 Y160.935 E8.25275
G1 X138.911 Y160.687 E8.26345
G1 X138.774 Y160.396 E8.27415
G1 X138.709 Y160.026 E8.28665
G1 X138.7 Y140.656 E8.9309
G1 X138.709 Y139.991 E8.95302
G1 X138.732 Y139.828 E8.95849
G0 F1620 X138.753 Y139.673
G0 X138.874 Y139.374
G0 X139.065 Y139.115
G0 F7200 X139.456 Y139.299
G1 F1800 X139.689 Y139.168 E8.96738
G1 X139.984 Y139.109 E8.97739
G1 X159.306 Y139.1 E9.62004
G1 X160.268 Y139.154 E9.65209
G1 X160.507 Y139.273 E9.66097
G1 X160.701 Y139.457 E9.66986
G1 X160.832 Y139.691 E9.67878
G1 X160.891 Y139.985 E9.68875
G1 X160.9 Y159.275 E10.33034
G1 X160.891 Y160.002 E10.35452
G1 X160.848 Y160.266 E10.36342
G1 X160.729 Y160.506 E10.37233
G1 X160.545 Y160.7 E10.38122
G1 X160.312 Y160.832 E10.39013
G1 X160.016 Y160.891 E10.40017
G1 X140.695 Y160.9 E11.04279
G1 X139.997 Y160.891 E11.066
G1 X139.733 Y160.848 E11.0749
G1 X139.494 Y160.729 E11.08378
G1 X139.299 Y160.545 E11.0927
G1 X139.168 Y160.312 E11.10159
G1 X139.109 Y160.015 E11.11166
G1 X139.1 Y140.662 E11.75534
G1 X139.109 Y139.997 E11.77746
G1 X139.11 Y139.995 E11.77754
G0 F1620 X139.152 Y139.733
G0 X139.272 Y139.493
G0 X139.456 Y139.299
G0 F7200 X139.666 Y139.645
G1 F1800 X139.835 Y139.54 E11.78416
G1 X140.316 Y139.5 E11.80021
G1 X159.3 Y139.5 E12.43162
G1 X160.193 Y139.552 E12.46137
G1 X160.355 Y139.667 E12.46798
G1 X160.46 Y139.836 E12.4746
G1 X160.5 Y140.316 E12.49062
G1 X160.5 Y159.27 E13.12103
G1 X160.491 Y159.997 E13.14521
G1 X160.449 Y160.192 E13.15184
G1 X160.334 Y160.354 E13.15845
G1 X160.165 Y160.46 E13.16509
G1 X159.684 Y160.5 E13.18114
G1 X140.701 Y160.5 E13.81252
G1 X140.003 Y160.491 E13.83574
G1 X139.808 Y160.449 E13.84237
G1 X139.645 Y160.334 E13.84901
G1 X139.54 Y160.165 E13.85562
G1 X139.5 Y159.672 E13.87207
G1 X139.5 Y140.667 E14.50418
G1 X139.504 Y140.405 E14.5129
G0 F1620 X139.509 Y140.002
G0 X139.551 Y139.808
G0 X139.666 Y139.645
G1 F2400 E13.5129
;MESH:xyzCalibration_cube.stl
G0 F7200 X139.335 Y139.645
G0 X139.335 Y159.25
G0 X140.75 Y159.25
;TYPE:WALL-INNER
G1 F2400 E14.5129
G1 F1800 X140.75 Y140.75 E15.28204
G1 X159.25 Y140.75 E16.05118
G1 X159.25 Y159.25 E16.82032
G1 X141.39 Y159.25 E17.56285
G0 F1620 X140.75 Y159.25
G0 F7200 X140.25 Y159.75
;TYPE:WALL-OUTER
G1 F1800 X140.25 Y140.25 E18.37357
G1 X159.75 Y140.25 E19.18428
G1 X159.75 Y159.75 E19.995
G1 X140.89 Y159.75 E20.77911
G0 F1620 X140.25 Y159.75
G0 F7200 X140.25 Y159.55
G0 X140.8 Y159.2
G0 X141.24 Y158.76
;TYPE:SKIN
G1 F1800 X141.24 Y141.24 E21.5075
G1 X158.76 Y141.24 E22.2359
G1 X158.76 Y158.76 E22.9643
G1 X141.88 Y158.76 E23.66609
G0 F1620 X141.24 Y158.76
G0 F7200 X141.715 Y158.284
G1 F1800 X142.02 Y158.284 E23.67877
G1 X142.728 Y158.284 E23.7082
G1 X141.714 Y157.271 E23.76779
G1 X141.714 Y156.564 E23.79719
G1 X143.435 Y158.284 E23.89835
G1 X144.142 Y158.284 E23.92774
G1 X141.714 Y155.856 E24.0705
G1 X141.714 Y155.149 E24.09989
G1 X144.849 Y158.284 E24.28422
G1 X145.556 Y158.284 E24.31361
G1 X141.714 Y154.442 E24.5395
G1 X141.714 Y153.735 E24.5689
G1 X146.263 Y158.284 E24.83636
G1 X146.97 Y158.284 E24.86575
G1 X141.714 Y153.028 E25.17479
G1 X141.714 Y152.321 E25.20418
G1 X147.677 Y158.284 E25.55478
G1 X148.384 Y158.284 E25.58418
G1 X141.714 Y151.614 E25.97635
G1 X141.714 Y150.907 E26.00574
G1 X149.092 Y158.284 E26.43951
G1 X149.799 Y158.284 E26.4689
G1 X141.714 Y150.2 E26.94424
G1 X141.714 Y149.492 E26.97368
G1 X150.506 Y158.284 E27.49061
G1 X151.213 Y158.284 E27.52001
G1 X141.714 Y148.785 E28.07851
G1 X141.714 Y148.078 E28.1079
G1 X151.92 Y158.284 E28.70798
G1 X152.627 Y158.284 E28.73737
G1 X141.714 Y147.371 E29.37901
G1 X141.714 Y146.664 E29.40841
G1 X153.334 Y158.284 E30.09162
G1 X154.041 Y158.284 E30.12101
G1 X141.714 Y145.957 E30.84579
G1 X141.714 Y145.25 E30.87519
G1 X154.748 Y158.284 E31.64154
G1 X155.456 Y158.284 E31.67097
G1 X141.714 Y144.543 E32.47892
G1 X141.714 Y143.836 E32.50831
G1 X156.163 Y158.284 E33.35783
G1 X156.87 Y158.284 E33.38722
G1 X141.714 Y143.129 E34.27831
G1 X141.714 Y142.421 E34.30774
G1 X157.577 Y158.284 E35.24043
G1 X158.284 Y158.284 E35.26982
G1 X141.714 Y141.714 E36.24407
G1 X142.422 Y141.715 E36.27351
G1 X158.284 Y157.577 E37.20613
G1 X158.284 Y156.87 E37.23553
G1 X143.129 Y141.715 E38.12658
G1 X143.836 Y141.715 E38.15598
G1 X158.284 Y156.163 E39.00546
G1 X158.284 Y155.456 E39.03486
G1 X144.543 Y141.715 E39.84277
G1 X145.251 Y141.715 E39.87221
G1 X158.284 Y154.748 E40.6385
G1 X158.284 Y154.041 E40.66789
G1 X145.958 Y141.715 E41.39262
G1 X146.665 Y141.715 E41.42201
G1 X158.284 Y153.334 E42.10516
G1 X158.284 Y152.627 E42.13456
G1 X147.372 Y141.715 E42.77614
G1 X148.079 Y141.715 E42.80553
G1 X158.284 Y151.92 E43.40555
G1 X158.284 Y151.213 E43.43494
G1 X148.786 Y141.715 E43.99339
G1 X149.493 Y141.715 E44.02278
G1 X158.284 Y150.506 E44.53966
G1 X158.284 Y149.799 E44.56905
G1 X150.2 Y141.715 E45.04436
G1 X150.907 Y141.715 E45.07375
G1 X158.284 Y149.092 E45.50749
G1 X158.284 Y148.384 E45.53693
G1 X151.615 Y141.715 E45.92904
G1 X152.322 Y141.715 E45.95843
G1 X158.284 Y147.677 E46.30898
G1 X158.284 Y146.97 E46.33837
G1 X153.029 Y141.715 E46.64734
G1 X153.736 Y141.715 E46.67674
G1 X158.284 Y146.263 E46.94414
G1 X158.284 Y145.556 E46.97354
G1 X154.443 Y141.715 E47.19937
G1 X155.15 Y141.715 E47.22877
G1 X158.284 Y144.849 E47.41303
G1 X158.284 Y144.142 E47.44243
G1 X155.857 Y141.715 E47.58512
G1 X156.564 Y141.715 E47.61452
G1 X158.284 Y143.435 E47.71565
G1 X158.284 Y142.728 E47.74504
G1 X157.271 Y141.715 E47.8046
G1 X157.978 Y141.715 E47.834
G1 X158.284 Y141.715 E47.84672
G0 F7200 X158.284 Y142.02
G1 F1800 X157.978 Y141.715 E47.86468
G1 F2400 E46.86468
G0 F7200 X157.978 Y139.335
G0 X139.347 Y139.347
G0 X139.335 Y157.978
G0 X141.714 Y157.978
G1 F2400 E47.86468
G1 F1800 X142.02 Y158.284 E47.88267
G1 F2400 E46.88267
;MESH:NONMESH
G0 F600 X142.02 Y158.284 Z0.4
G0 F7200 X140.75 Y159.25
;TIME_ELAPSED:46.680974
;LAYER:1
M140 S80
M106 S127.5
;TYPE:WALL-INNER
;MESH:xyzCalibration_cube.stl
G1 F2400 E47.88267
G1 F3600 X140.75 Y140.75 E48.65181
G1 X159.25 Y140.75 E49.42095
G1 X159.25 Y159.25 E50.19009
G1 X141.39 Y159.25 E50.93263
G0 F3240 X140.75 Y159.25
G0 F7200 X140.25 Y159.75
;TYPE:WALL-OUTER
G1 F2250 X140.25 Y140.25 E51.74334
G1 X159.75 Y140.25 E52.55406
G1 X159.75 Y159.75 E53.36477
G1 X140.89 Y159.75 E54.14888
G0 F2025 X140.25 Y159.75
G0 F7200 X140.25 Y159.55
G0 X140.8 Y159.2
G0 X141.24 Y158.76
;TYPE:SKIN
G1 F2250 X141.24 Y141.24 E54.87728
G1 X158.76 Y141.24 E55.60567
G1 X158.76 Y158.76 E56.33407
G1 X141.88 Y158.76 E57.03586
G0 F2025 X141.24 Y158.76
G1 F2400 E56.03586
G0 F7200 X139.335 Y158.76
G0 X139.335 Y141.714
G0 X141.714 Y141.714
G1 F2400 E57.03586
G1 F2250 X141.715 Y141.834 E57.04085
G1 X141.715 Y142.541 E57.07024
G1 X142.542 Y141.714 E57.11887
G1 X143.249 Y141.714 E57.14826
G1 X141.715 Y143.248 E57.23845
G1 X141.715 Y143.955 E57.26785
G1 X143.956 Y141.714 E57.39961
G1 X144.663 Y141.714 E57.429
G1 X141.715 Y144.662 E57.60234
G1 X141.715 Y145.369 E57.63173
G1 X145.37 Y141.714 E57.84663
G1 X146.077 Y141.714 E57.87602
G1 X141.715 Y146.076 E58.13249
G1 X141.715 Y146.784 E58.16193
G1 X146.784 Y141.714 E58.45999
G1 X147.491 Y141.714 E58.48939
G1 X141.715 Y147.491 E58.82902
G1 X141.715 Y148.198 E58.85842
G1 X148.198 Y141.714 E59.23962
G1 X148.906 Y141.714 E59.26906
G1 X141.715 Y148.905 E59.69186
G1 X141.715 Y149.612 E59.72125
G1 X149.613 Y141.714 E60.18563
G1 X150.32 Y141.714 E60.21502
G1 X141.715 Y150.319 E60.72096
G1 X141.715 Y151.026 E60.75035
G1 X151.027 Y141.714 E61.29786
G1 X151.734 Y141.714 E61.32726
G1 X141.715 Y151.733 E61.91634
G1 X141.715 Y152.44 E61.94573
G1 X152.441 Y141.714 E62.57638
G1 X153.148 Y141.714 E62.60577
G1 X141.715 Y153.148 E63.27802
G1 X141.715 Y153.855 E63.30741
G1 X153.855 Y141.714 E64.02123
G1 X154.562 Y141.714 E64.05062
G1 X141.715 Y154.562 E64.806
G1 X141.715 Y155.269 E64.8354
G1 X155.27 Y141.714 E65.63238
G1 X155.977 Y141.714 E65.66177
G1 X141.715 Y155.976 E66.50032
G1 X141.715 Y156.683 E66.52972
G1 X156.684 Y141.714 E67.40984
G1 X157.391 Y141.714 E67.43923
G1 X141.715 Y157.39 E68.36092
G1 X141.715 Y158.097 E68.39031
G1 X158.098 Y141.714 E69.35357
G1 X158.284 Y141.715 E69.3613
G1 X158.284 Y142.235 E69.38292
G1 X142.235 Y158.284 E70.32654
G1 X142.943 Y158.284 E70.35598
G1 X158.284 Y142.943 E71.25797
G1 X158.284 Y143.65 E71.28736
G1 X143.65 Y158.284 E72.14779
G1 X144.357 Y158.284 E72.17718
G1 X158.284 Y144.357 E72.99604
G1 X158.284 Y145.064 E73.02543
G1 X145.064 Y158.284 E73.80271
G1 X145.771 Y158.284 E73.83211
G1 X158.284 Y145.771 E74.56782
G1 X158.284 Y146.478 E74.59722
G1 X146.478 Y158.284 E75.29137
G1 X147.185 Y158.284 E75.32076
G1 X158.284 Y147.185 E75.97334
G1 X158.284 Y147.892 E76.00273
G1 X147.892 Y158.284 E76.61374
G1 X148.599 Y158.284 E76.64313
G1 X158.284 Y148.599 E77.21258
G1 X158.284 Y149.307 E77.24201
G1 X149.307 Y158.284 E77.76982
G1 X150.014 Y158.284 E77.79922
G1 X158.284 Y150.014 E78.28546
G1 X158.284 Y150.721 E78.31486
G1 X150.721 Y158.284 E78.75953
G1 X151.428 Y158.284 E78.78892
G1 X158.284 Y151.428 E79.19203
G1 X158.284 Y152.135 E79.22143
G1 X152.135 Y158.284 E79.58296
G1 X152.842 Y158.284 E79.61236
G1 X158.284 Y152.842 E79.93233
G1 X158.284 Y153.549 E79.96172
G1 X153.549 Y158.284 E80.24012
G1 X154.256 Y158.284 E80.26951
G1 X158.284 Y154.256 E80.50634
G1 X158.284 Y154.963 E80.53574
G1 X154.963 Y158.284 E80.731
G1 X155.67 Y158.284 E80.76039
G1 X158.284 Y155.67 E80.91409
G1 X158.284 Y156.378 E80.94352
G1 X156.378 Y158.284 E81.05559
G1 X157.085 Y158.284 E81.08498
G1 X158.284 Y157.085 E81.15548
G1 X158.284 Y157.792 E81.18487
G1 X158.284 Y158.284 E81.20533
G0 F7200 X157.792 Y158.284
G1 F2250 X158.284 Y157.792 E81.23425
G1 F2400 E80.23425
G0 F7200 X160.665 Y157.792
G0 X160.653 Y139.347
G0 X141.835 Y139.335
G0 X141.835 Y141.714
G1 F2400 E81.23425
G1 F2250 X141.715 Y141.834 E81.24131
G1 F2400 E80.24131
;MESH:NONMESH
G0 F600 X141.715 Y141.834 Z0.6
G0 F7200 X139.335 Y141.834
G0 X139.335 Y159.25
G0 X140.75 Y159.25
;TIME_ELAPSED:69.005108
;LAYER:2
M106 S255
;TYPE:WALL-INNER
;MESH:xyzCalibration_cube.stl
G1 F2400 E81.24131
G1 F5400 X140.75 Y140.75 E82.01045
G1 X159.25 Y140.75 E82.77959
G1 X159.25 Y159.25 E83.54873
G1 X141.39 Y159.25 E84.29126
G0 F4860 X140.75 Y159.25
G0 F7200 X140.25 Y159.75
;TYPE:WALL-OUTER
G1 F2700 X140.25 Y140.25 E85.10198
G1 X159.75 Y140.25 E85.91269
G1 X159.75 Y159.75 E86.72341
G1 X140.89 Y159.75 E87.50752
G0 F2430 X140.25 Y159.75
G0 F7200 X140.25 Y159.55
G0 X140.8 Y159.2
G0 X141.24 Y158.76
;TYPE:SKIN
G1 F2700 X141.24 Y141.24 E88.23591
G1 X158.76 Y141.24 E88.96431
G1 X158.76 Y158.76 E89.69271
G1 X141.88 Y158.76 E90.3945
G0 F2430 X141.24 Y158.76
G0 F7200 X141.715 Y158.284
G1 F2700 X142.02 Y158.284 E90.40718
G1 X142.728 Y158.284 E90.43661
G1 X141.714 Y157.271 E90.4962
G1 X141.714 Y156.564 E90.5256
G1 X143.435 Y158.284 E90.62676
G1 X144.142 Y158.284 E90.65615
G1 X141.714 Y155.856 E90.79891
G1 X141.714 Y155.149 E90.8283
G1 X144.849 Y158.284 E91.01263
G1 X145.556 Y158.284 E91.04202
G1 X141.714 Y154.442 E91.26791
G1 X141.714 Y153.735 E91.29731
G1 X146.263 Y158.284 E91.56477
G1 X146.97 Y158.284 E91.59417
G1 X141.714 Y153.028 E91.9032
G1 X141.714 Y152.321 E91.93259
G1 X147.677 Y158.284 E92.28319
G1 X148.384 Y158.284 E92.31259
G1 X141.714 Y151.614 E92.70476
G1 X141.714 Y150.907 E92.73415
G1 X149.092 Y158.284 E93.16792
G1 X149.799 Y158.284 E93.19731
G1 X141.714 Y150.2 E93.67265
G1 X141.714 Y149.492 E93.70209
G1 X150.506 Y158.284 E94.21902
G1 X151.213 Y158.284 E94.24842
G1 X141.714 Y148.785 E94.80692
G1 X141.714 Y148.078 E94.83631
G1 X151.92 Y158.284 E95.43639
G1 X152.627 Y158.284 E95.46578
G1 X141.714 Y147.371 E96.10742
G1 X141.714 Y146.664 E96.13682
G1 X153.334 Y158.284 E96.82003
G1 X154.041 Y158.284 E96.84942
G1 X141.714 Y145.957 E97.5742
G1 X141.714 Y145.25 E97.6036
G1 X154.748 Y158.284 E98.36995
G1 X155.456 Y158.284 E98.39938
G1 X141.714 Y144.543 E99.20733
G1 X141.714 Y143.836 E99.23672
G1 X156.163 Y158.284 E100.08624
G1 X156.87 Y158.284 E100.11563
G1 X141.714 Y143.129 E101.00672
G1 X141.714 Y142.421 E101.03615
G1 X157.577 Y158.284 E101.96884
G1 X158.284 Y158.284 E101.99823
G1 X141.714 Y141.714 E102.97248
G1 X142.422 Y141.715 E103.00192
G1 X158.284 Y157.577 E103.93454
G1 X158.284 Y156.87 E103.96394
G1 X143.129 Y141.715 E104.85499
G1 X143.836 Y141.715 E104.88439
G1 X158.284 Y156.163 E105.73387
G1 X158.284 Y155.456 E105.76327
G1 X144.543 Y141.715 E106.57119
G1 X145.251 Y141.715 E106.60062
G1 X158.284 Y154.748 E107.36691
G1 X158.284 Y154.041 E107.3963
G1 X145.958 Y141.715 E108.12103
G1 X146.665 Y141.715 E108.15042
G1 X158.284 Y153.334 E108.83357
G1 X158.284 Y152.627 E108.86297
G1 X147.372 Y141.715 E109.50455
G1 X148.079 Y141.715 E109.53394
G1 X158.284 Y151.92 E110.13396
G1 X158.284 Y151.213 E110.16335
