;FLAVOR:Repetier
;TIME:1362
;MINX:-41
;MINY:-51.318
;MINZ:0.2
;MAXX:60.994
;MAXY:25.554
;MAXZ:25
;Generated with Cura_SteamEngine 4.5.0
M82 ;absolute extrusion mode
M2100 T6441
M82 ;absolute extrusion mode
G21
G90
M82
M107 T0
M190 S40
M109 S210 T0
G28
G92 E0
G0 E3 F200
G92 E0
M107
M82
G0 F6000 X130 Y0 Z.3
G3 X0 Y130 I-130 K0 E30 F600
G0 F6000 Z15
G92 E0
G92 E0
G92 E0
G1 F5400 E-8
;LAYER_COUNT:100
;LAYER:0
M106 S255
M202 X5000 Y5000
G1 F600 Z0.22
G0 F3200 X-10.603 Y0.701 Z0.22
M201 X3000 Y3000
;TYPE:SKIRT
G1 F600 Z0.2
G1 F5400 E0
G1 F2400 X-10.6 Y19.418 E1.24506
G1 X-10.609 Y20.212 E1.29788
G1 X-10.657 Y20.867 E1.34157
G1 X-10.785 Y21.512 E1.38531
G1 X-10.989 Y22.136 E1.42898
G1 X-11.268 Y22.731 E1.4727
G1 X-11.617 Y23.287 E1.51636
G1 X-12.031 Y23.797 E1.56006
G1 X-12.504 Y24.253 E1.60376
G1 X-13.029 Y24.648 E1.64747
G1 X-13.598 Y24.977 E1.69119
G1 X-14.203 Y25.234 E1.73491
G1 X-14.834 Y25.416 E1.7786
G1 X-15.483 Y25.519 E1.82231
G1 X-16.179 Y25.552 E1.86866
G1 X-34.963 Y25.554 E3.11818
G1 X-35.661 Y25.545 E3.16461
G1 X-36.316 Y25.496 E3.20831
G1 X-36.96 Y25.369 E3.25197
G1 X-37.584 Y25.164 E3.29566
G1 X-38.179 Y24.884 E3.33941
G1 X-38.735 Y24.535 E3.38307
G1 X-39.245 Y24.121 E3.42677
G1 X-39.701 Y23.648 E3.47047
G1 X-40.096 Y23.122 E3.51423
G1 X-40.424 Y22.553 E3.55792
G1 X-40.681 Y21.949 E3.60158
G1 X-40.862 Y21.317 E3.64531
G1 X-40.966 Y20.668 E3.68904
G1 X-40.998 Y19.958 E3.73631
G1 X-41 Y1.167 E4.9863
G1 X-40.991 Y0.491 E5.03127
G1 X-40.942 Y-.164 E5.07496
G1 X-40.814 Y-.808 E5.11864
G1 X-40.609 Y-1.433 E5.16239
G1 X-40.329 Y-2.027 E5.20607
G1 X-39.98 Y-2.583 E5.24974
G1 X-39.565 Y-3.093 E5.29348
G1 X-39.092 Y-3.549 E5.33719
G1 X-38.567 Y-3.943 E5.38085
G1 X-37.997 Y-4.271 E5.4246
G1 X-37.393 Y-4.528 E5.46826
G1 X-36.761 Y-4.709 E5.51199
G1 X-36.112 Y-4.812 E5.5557
G1 X-35.42 Y-4.844 E5.60178
G1 X-16.709 Y-4.847 E6.84644
G1 X-15.933 Y-4.836 E6.89807
G1 X-15.278 Y-4.787 E6.94176
G1 X-14.633 Y-4.659 E6.9855
G1 X-14.009 Y-4.453 E7.02922
G1 X-13.415 Y-4.173 E7.0729
G1 X-12.859 Y-3.823 E7.1166
G1 X-12.35 Y-3.408 E7.16029
G1 X-11.895 Y-2.934 E7.204
G1 X-11.501 Y-2.408 E7.24771
G1 X-11.173 Y-1.839 E7.2914
G1 X-10.918 Y-1.233 E7.33514
G1 X-10.737 Y-.602 E7.3788
G1 X-10.635 Y0.047 E7.4225
G1 X-10.622 Y0.301 E7.43942
G0 F2160 X-10.603 Y0.701
G1 F5400 E-0.56058
G1 F600 Z0.22
;MESH:four_square_cons.stl
G0 F3200 X-35.2 Y19.754 Z0.22
;TYPE:WALL-OUTER
G1 F600 Z0.2
G1 F5400 E7.43942
G1 F2400 X-35.2 Y0.954 E8.69
G1 X-16.8 Y0.953 E9.91398
G1 X-16.4 Y0.953 E9.94058
G1 X-16.4 Y1.353 E9.9578
G1 X-16.4 Y19.754 E11.18184
G1 X-34.8 Y19.754 E12.40581
G0 F2160 X-35.2 Y19.754
G0 F3200 X-35.2 Y19.354
G0 X-34.41 Y18.964
;TYPE:SKIN
G1 F2400 X-34.41 Y1.744 E13.55129
G1 X-17.19 Y1.743 E14.69677
G1 X-17.19 Y18.964 E15.84231
G1 X-34.01 Y18.964 E16.96118
G0 F2160 X-34.41 Y18.964
G0 F3200 X-33.688 Y18.244
G1 F2400 X-32.668 Y18.243 E17.02903
G1 X-31.536 Y18.243 E17.10434
G1 X-33.689 Y16.09 E17.30688
G1 X-33.689 Y14.959 E17.38211
G1 X-30.405 Y18.243 E17.69105
G1 X-29.274 Y18.243 E17.76628
G1 X-33.689 Y13.828 E18.18162
G1 X-33.689 Y12.696 E18.25692
G1 X-28.142 Y18.243 E18.77875
G1 X-27.011 Y18.243 E18.85398
G1 X-33.689 Y11.565 E19.48221
G1 X-33.689 Y10.434 E19.55744
G1 X-25.88 Y18.243 E20.29207
G1 X-24.748 Y18.243 E20.36737
G1 X-33.689 Y9.302 E21.20848
G1 X-33.689 Y8.171 E21.28372
G1 X-23.617 Y18.243 E22.23123
G1 X-22.485 Y18.243 E22.30653
G1 X-33.689 Y7.039 E23.36053
G1 X-33.689 Y5.908 E23.43577
G1 X-21.354 Y18.243 E24.59617
G1 X-20.223 Y18.243 E24.6714
G1 X-33.689 Y4.777 E25.9382
G1 X-33.689 Y3.645 E26.0135
G1 X-19.091 Y18.243 E27.38679
G1 X-17.96 Y18.243 E27.46203
G1 X-33.689 Y2.514 E28.94171
G1 X-33.689 Y2.463 E28.94511
G1 X-32.608 Y2.463 E29.01702
G1 X-17.908 Y17.163 E30.3999
G1 X-17.908 Y16.032 E30.47514
G1 X-31.477 Y2.463 E31.75162
G1 X-30.346 Y2.463 E31.82686
G1 X-17.908 Y14.9 E32.9969
G1 X-17.908 Y13.769 E33.07214
G1 X-29.214 Y2.463 E34.13574
G1 X-28.083 Y2.463 E34.21097
G1 X-17.908 Y12.638 E35.16817
G1 X-17.908 Y11.506 E35.24347
G1 X-26.952 Y2.463 E36.09423
G1 X-25.82 Y2.463 E36.16953
G1 X-17.908 Y10.375 E36.91384
G1 X-17.908 Y9.244 E36.98908
G1 X-24.689 Y2.463 E37.62699
G1 X-23.557 Y2.463 E37.70229
G1 X-17.908 Y8.112 E38.23372
G1 X-17.908 Y6.981 E38.30895
G1 X-22.426 Y2.463 E38.73398
G1 X-21.295 Y2.463 E38.80921
G1 X-17.908 Y5.849 E39.12779
G1 X-17.908 Y4.718 E39.20303
G1 X-20.163 Y2.463 E39.41516
G1 X-19.032 Y2.463 E39.4904
G1 X-17.908 Y2.462 E39.56517
G0 F3200 X-17.908 Y3.587
G1 F2400 X-19.032 Y2.463 E39.67091
G1 F5400 E31.67091
G1 F600 Z0.22
G0 F3200 X-33.689 Y17.222 Z0.22
M104 S210
G1 F600 Z0.2
G1 F5400 E39.67091
G1 F2400 X-32.668 Y18.243 E39.76695
G1 F5400 E31.76695
G1 F600 Z0.22
;MESH:NONMESH
G0 F3200 X-34.6 Y18.954 Z0.22
;TIME_ELAPSED:18.500826
;LAYER:1
M140 S40
;MESH:four_square_cons.stl
G0 F5200 X-34.6 Y18.954 Z0.42
;TYPE:WALL-INNER
G1 F600 Z0.4
G1 F5400 E39.76695
G1 F3900 X-34.6 Y1.554 E40.92441
G1 X-17.599 Y1.553 E42.05532
G1 X-17.2 Y1.553 E42.08186
G1 X-17.2 Y1.952 E42.09902
G1 X-17.2 Y18.954 E43.23
G1 X-34.2 Y18.954 E44.36084
G0 F3510 X-34.6 Y18.954
G0 F5200 X-35.4 Y19.754
;TYPE:WALL-OUTER
G1 F2550 X-35.4 Y0.754 E45.62473
G1 X-16.8 Y0.753 E46.86201
G1 X-16.4 Y0.753 E46.88862
G1 X-16.4 Y1.153 E46.90583
G1 X-16.4 Y19.754 E48.14317
G1 X-35 Y19.754 E49.38045
G0 F2295 X-35.4 Y19.754
G0 F5200 X-35.4 Y19.354
G0 X-34.52 Y18.874
G0 X-33.81 Y18.164
;TYPE:SKIN
G1 F2550 X-33.81 Y2.344 E50.4328
G1 X-17.99 Y2.343 E51.48515
G1 X-17.99 Y18.164 E52.53757
G1 X-33.41 Y18.164 E53.56331
G0 F2295 X-33.81 Y18.164
G1 F5400 E45.56331
G1 F600 Z0.42
G0 F5200 X-33.089 Y3.063 Z0.42
G1 F600 Z0.4
G1 F5400 E53.56331
G1 F2550 X-33.089 Y3.673 E53.60389
G1 X-32.478 Y3.063 E53.66132
G1 X-31.347 Y3.063 E53.73655
G1 X-33.089 Y4.804 E53.90038
G1 X-33.089 Y5.936 E53.97568
G1 X-30.216 Y3.063 E54.24596
G1 X-29.084 Y3.063 E54.32126
G1 X-33.089 Y7.067 E54.69798
G1 X-33.089 Y8.198 E54.77321
G1 X-27.953 Y3.063 E55.25633
G1 X-26.821 Y3.063 E55.33163
G1 X-33.089 Y9.33 E55.92124
G1 X-33.089 Y10.461 E55.99647
G1 X-25.689 Y3.062 E56.69257
G1 X-24.558 Y3.062 E56.76781
G1 X-33.089 Y11.593 E57.57035
G1 X-33.089 Y12.724 E57.64558
G1 X-23.427 Y3.062 E58.55453
G1 X-22.295 Y3.062 E58.62983
G1 X-33.089 Y13.855 E59.64521
G1 X-33.089 Y14.987 E59.72051
G1 X-21.164 Y3.062 E60.84234
G1 X-20.033 Y3.062 E60.91758
G1 X-33.089 Y16.118 E62.14581
G1 X-33.089 Y17.249 E62.22104
G1 X-18.901 Y3.062 E63.55572
G1 X-18.709 Y3.062 E63.56849
G1 X-18.709 Y4.001 E63.63095
G1 X-32.151 Y17.443 E64.89549
G1 X-31.02 Y17.443 E64.97072
G1 X-18.709 Y5.132 E66.12887
G1 X-18.709 Y6.264 E66.20417
G1 X-29.888 Y17.443 E67.25582
G1 X-28.757 Y17.443 E67.33106
G1 X-18.709 Y7.395 E68.27631
G1 X-18.709 Y8.527 E68.35161
G1 X-27.625 Y17.443 E69.19037
G1 X-26.494 Y17.443 E69.26561
G1 X-18.709 Y9.658 E69.99797
G1 X-18.709 Y10.789 E70.07321
G1 X-25.363 Y17.443 E70.69917
G1 X-24.231 Y17.443 E70.77448
G1 X-18.709 Y11.921 E71.29395
G1 X-18.709 Y13.052 E71.36919
G1 X-23.1 Y17.443 E71.78226
G1 X-21.969 Y17.443 E71.8575
G1 X-18.709 Y14.183 E72.16418
G1 X-18.709 Y15.315 E72.23948
G1 X-20.837 Y17.443 E72.43967
G1 X-19.706 Y17.443 E72.5149
G1 X-18.709 Y16.446 E72.6087
G1 X-18.709 Y17.443 E72.67502
G1 F5400 E64.67502
G1 F600 Z0.42
;MESH:NONMESH
G0 F5200 X-35.6 Y19.754 Z0.42
;TIME_ELAPSED:30.713231
;LAYER:2
;MESH:four_square_cons.stl
G0 F7200 X-35.6 Y19.754 Z0.62
;TYPE:WALL-OUTER
G1 F600 Z0.6
G1 F5400 E72.67502
G1 F2700 X-35.6 Y0.554 E73.95221
G1 X-16.4 Y0.554 E75.22939
G1 X-16.4 Y19.754 E76.50658
G1 X-35.2 Y19.754 E77.75717
G0 F2430 X-35.6 Y19.754
G0 F7200 X-35.6 Y19.354
G0 X-34.81 Y18.964
;TYPE:SKIN
G1 F2700 X-34.81 Y1.344 E78.92925
G1 X-17.19 Y1.344 E80.10134
G1 X-17.19 Y18.964 E81.27343
G1 X-34.41 Y18.964 E82.41891
G0 F2430 X-34.81 Y18.964
G0 F7200 X-34.088 Y18.244
G1 F2700 X-33.799 Y18.243 E82.43813
G1 X-34.088 Y17.954 E82.46532
G1 X-34.088 Y16.822 E82.54062
G1 X-32.668 Y18.243 E82.67425
G1 X-31.536 Y18.243 E82.74955
G1 X-34.088 Y15.691 E82.98963
G1 X-34.088 Y14.56 E83.06486
G1 X-30.405 Y18.243 E83.41134
G1 X-29.274 Y18.243 E83.48657
G1 X-34.088 Y13.428 E83.93949
G1 X-34.088 Y12.297 E84.01472
G1 X-28.142 Y18.243 E84.57409
G1 X-27.011 Y18.243 E84.64932
G1 X-34.088 Y11.165 E85.31513
G1 X-34.088 Y10.034 E85.39036
G1 X-25.88 Y18.243 E86.16257
G1 X-24.748 Y18.243 E86.23787
G1 X-34.088 Y8.903 E87.11652
G1 X-34.088 Y7.771 E87.19182
G1 X-23.617 Y18.243 E88.17692
G1 X-22.485 Y18.243 E88.25222
G1 X-34.088 Y6.64 E89.34376
G1 X-34.088 Y5.509 E89.41899
G1 X-21.354 Y18.243 E90.61693
G1 X-20.223 Y18.243 E90.69216
G1 X-34.088 Y4.377 E91.99654
G1 X-34.088 Y3.246 E92.07178
G1 X-19.091 Y18.243 E93.4826
G1 X-17.96 Y18.243 E93.55784
G1 X-34.088 Y2.114 E95.07511
G1 X-34.088 Y2.064 E95.07843
G1 X-33.008 Y2.064 E95.15027
G1 X-17.908 Y17.163 E96.57074
G1 X-17.908 Y16.032 E96.64598
G1 X-31.877 Y2.064 E97.96005
G1 X-30.745 Y2.064 E98.03535
G1 X-17.908 Y14.9 E99.24293
G1 X-17.908 Y13.769 E99.31816
G1 X-29.614 Y2.064 E100.41934
G1 X-28.482 Y2.064 E100.49465
G1 X-17.908 Y12.638 E101.48938
G1 X-17.908 Y11.506 E101.56468
G1 X-27.351 Y2.064 E102.45298
G1 X-26.22 Y2.064 E102.52821
G1 X-17.908 Y10.375 E103.31011
G1 X-17.908 Y9.244 E103.38534
G1 X-25.088 Y2.064 E104.06079
G1 X-23.957 Y2.064 E104.13602
G1 X-17.908 Y8.112 E104.70503
G1 X-17.908 Y6.981 E104.78027
G1 X-22.826 Y2.064 E105.24287
G1 X-21.694 Y2.064 E105.31817
G1 X-17.908 Y5.849 E105.67429
G1 X-17.908 Y4.718 E105.74953
G1 X-20.563 Y2.064 E105.99924
G1 X-19.432 Y2.064 E106.07448
G1 X-17.908 Y3.587 E106.2178
G1 X-17.908 Y2.455 E106.2931
G1 X-18.3 Y2.064 E106.32993
G1 X-17.908 Y2.064 E106.35601
G1 F5400 E98.35601
G1 F600 Z0.62
;MESH:NONMESH
G0 F7200 X-34.8 Y18.954 Z0.62
;TIME_ELAPSED:42.833878
;LAYER:3
;MESH:four_square_cons.stl
G0 X-34.8 Y18.954 Z0.82
;TYPE:WALL-INNER
G1 F600 Z0.8
G1 F5400 E106.35601
G1 X-34.8 Y1.354 E107.52676
G1 X-17.2 Y1.354 E108.69752
G1 X-17.2 Y18.954 E109.86828
G1 X-34.4 Y18.954 E111.01243
G0 F4860 X-34.8 Y18.954
G0 F7200 X-35.6 Y19.754
;TYPE:WALL-OUTER
G1 F2700 X-35.6 Y0.554 E112.28962
G1 X-16.4 Y0.554 E113.5668
G1 X-16.4 Y19.754 E114.84399
G1 X-35.2 Y19.754 E116.09457
G0 F2430 X-35.6 Y19.754
G0 F7200 X-35.6 Y19.354
G0 X-34.72 Y18.874
G0 X-34.01 Y18.164
;TYPE:SKIN
G1 F2700 X-34.01 Y2.144 E117.16023
G1 X-17.99 Y2.144 E118.22588
G1 X-17.99 Y18.164 E119.29154
G1 X-33.61 Y18.164 E120.33059
G0 F2430 X-34.01 Y18.164
G1 F5400 E112.33059
G1 F600 Z0.82
G0 F7200 X-33.289 Y2.863 Z0.82
G1 F600 Z0.8
G1 F5400 E120.33059
G1 F2700 X-33.289 Y3.873 E120.39777
G1 X-32.279 Y2.863 E120.49279
G1 X-31.148 Y2.863 E120.56802
G1 X-33.289 Y5.004 E120.76943
G1 X-33.289 Y6.136 E120.84473
G1 X-30.016 Y2.863 E121.15264
G1 X-28.885 Y2.863 E121.22787
G1 X-33.289 Y7.267 E121.64217
G1 X-33.289 Y8.399 E121.71747
G1 X-27.753 Y2.863 E122.23827
G1 X-26.622 Y2.863 E122.3135
G1 X-33.289 Y9.53 E122.94069
G1 X-33.289 Y10.661 E123.01593
G1 X-25.491 Y2.863 E123.74951
G1 X-24.359 Y2.863 E123.82481
G1 X-33.289 Y11.793 E124.66489
G1 X-33.289 Y12.924 E124.74013
G1 X-23.228 Y2.863 E125.68661
G1 X-22.097 Y2.863 E125.76184
G1 X-33.289 Y14.055 E126.81472
G1 X-33.289 Y15.187 E126.89002
G1 X-20.965 Y2.863 E128.04938
G1 X-19.834 Y2.863 E128.12462
G1 X-33.289 Y16.318 E129.39038
G1 X-33.289 Y17.444 E129.46528
G1 X-33.283 Y17.444 E129.46568
G1 X-18.709 Y2.87 E130.83671
G1 X-18.709 Y4.001 E130.91195
G1 X-32.152 Y17.444 E132.17658
G1 X-31.02 Y17.444 E132.25188
G1 X-18.709 Y5.132 E133.41008
G1 X-18.709 Y6.264 E133.48538
G1 X-29.889 Y17.444 E134.53712
G1 X-28.758 Y17.444 E134.61236
G1 X-18.709 Y7.395 E135.5577
G1 X-18.709 Y8.527 E135.63301
G1 X-27.626 Y17.444 E136.47186
G1 X-26.495 Y17.444 E136.5471
G1 X-18.709 Y9.658 E137.27956
G1 X-18.709 Y10.789 E137.35479
G1 X-25.363 Y17.444 E137.9808
G1 X-24.232 Y17.444 E138.05604
G1 X-18.709 Y11.921 E138.57561
G1 X-18.709 Y13.052 E138.65084
G1 X-23.101 Y17.444 E139.06402
G1 X-21.969 Y17.444 E139.13932
G1 X-18.709 Y14.183 E139.44605
G1 X-18.709 Y15.315 E139.52135
G1 X-20.838 Y17.444 E139.72163
G1 X-19.707 Y17.444 E139.79686
G1 X-18.709 Y16.446 E139.89075
G1 X-18.709 Y17.443 E139.95707
G1 F5400 E131.95707
G1 F600 Z0.82
;MESH:NONMESH
G0 F7200 X-35.6 Y19.754 Z0.82
;TIME_ELAPSED:54.391879
;LAYER:4
;MESH:four_square_cons.stl
G0 X-35.6 Y19.754 Z1.02
;TYPE:WALL-OUTER
G1 F600 Z1
G1 F5400 E139.95707
G1 F2700 X-35.6 Y0.554 E141.23426
G1 X-16.4 Y0.554 E142.51145
G1 X-16.4 Y19.754 E143.78864
G1 X-35.2 Y19.754 E145.03922
G0 F2430 X-35.6 Y19.754
G0 F7200 X-35.6 Y19.354
G1 F5400 E137.03922
G1 F600 Z1.02
G0 F7200 X-19.39 Y18.49 Z1.02
;TYPE:FILL
G1 F600 Z1
G1 F5400 E145.03922
G1 X-18.786 Y18.06 E145.08854
G1 X-18.238 Y17.458 E145.14269
G1 X-17.885 Y16.856 E145.18911
G1 X-17.849 Y16.764 E145.19568
G1 F5400 E137.19568
G1 F600 Z1.02
G0 F7200 X-35.04 Y2.323 Z1.02
G1 F600 Z1
G1 F5400 E145.19568
G1 X-34.737 Y1.806 E145.23555
G1 X-34.189 Y1.204 E145.2897
G1 X-34.063 Y1.114 E145.3
G1 F5400 E137.3
G1 F600 Z1.02
G0 F7200 X-32.46 Y1.344 Z1.02
;TYPE:SKIN
G1 F600 Z1
G1 F5400 E145.3
G1 F2700 X-19.54 Y1.344 E146.15944
G1 X-19.54 Y3.693 E146.3157
G1 X-17.19 Y3.682 E146.47202
G1 X-17.19 Y16.614 E147.33226
G1 X-19.54 Y16.614 E147.48858
G1 X-19.54 Y18.964 E147.64491
G1 X-32.46 Y18.964 E148.50435
G1 X-32.46 Y16.614 E148.66067
G1 X-34.81 Y16.614 E148.81699
G1 X-34.81 Y3.693 E149.6765
G1 X-32.46 Y3.682 E149.83283
G1 X-32.46 Y1.744 E149.96174
G0 F2430 X-32.46 Y1.344
G1 F5400 E141.96174
G1 F600 Z1.02
G0 F7200 X-17.908 Y4.405 Z1.02
G1 F600 Z1
G1 F5400 E149.96174
G1 F2700 X-18.219 Y4.408 E149.98243
G1 X-17.908 Y4.718 E150.01164
G1 X-17.908 Y5.849 E150.08688
G1 X-19.345 Y4.413 E150.22201
G0 F7200 X-20.259 Y4.417
G1 F2700 X-20.259 Y3.499 E150.28308
G1 X-20.259 Y2.368 E150.35831
G1 X-20.563 Y2.064 E150.38691
G1 X-20.259 Y2.064 E150.40713
G0 F7200 X-20.259 Y3.499
G1 F2700 X-21.694 Y2.064 E150.54213
G1 X-22.826 Y2.064 E150.61743
G1 X-17.908 Y6.981 E151.08004
G1 X-17.908 Y8.112 E151.15527
G1 X-23.957 Y2.064 E151.72428
G1 X-25.088 Y2.064 E151.79951
G1 X-17.908 Y9.244 E152.47496
G1 X-17.908 Y10.375 E152.5502
G1 X-26.22 Y2.064 E153.33209
G1 X-27.351 Y2.064 E153.40733
G1 X-17.908 Y11.506 E154.29562
G1 X-17.908 Y12.638 E154.37092
G1 X-28.482 Y2.064 E155.36566
G1 X-29.614 Y2.064 E155.44096
G1 X-17.908 Y13.769 E156.54214
G1 X-17.908 Y14.9 E156.61738
G1 X-30.745 Y2.064 E157.82495
G1 X-31.739 Y2.064 E157.89108
G1 X-31.739 Y2.201 E157.90019
G1 X-18.047 Y15.893 E159.18825
G1 X-19.178 Y15.893 E159.26348
G1 X-31.739 Y3.332 E160.44514
G1 X-31.739 Y4.398 E160.51606
G1 X-31.804 Y4.399 E160.52038
G1 X-20.259 Y15.944 E161.60646
G1 X-20.259 Y17.075 E161.6817
G1 X-32.929 Y4.405 E162.87361
G1 X-34.056 Y4.41 E162.94858
G1 X-20.259 Y18.207 E164.24652
G1 X-20.259 Y18.244 E164.24898
G1 X-21.353 Y18.244 E164.32175
G1 X-34.089 Y5.508 E165.51988
G1 X-34.089 Y6.639 E165.59511
G1 X-22.485 Y18.244 E166.68679
G1 X-23.616 Y18.244 E166.76203
G1 X-34.089 Y7.771 E167.74726
G1 X-34.089 Y8.902 E167.8225
G1 X-24.748 Y18.244 E168.70129
G1 X-25.879 Y18.244 E168.77652
G1 X-34.089 Y10.033 E169.54892
G1 X-34.089 Y11.165 E169.62422
G1 X-27.01 Y18.244 E170.29017
G1 X-28.142 Y18.244 E170.36547
G1 X-34.089 Y12.296 E170.92497
G1 X-34.089 Y13.427 E171.00021
G1 X-29.273 Y18.244 E171.45331
G1 X-30.404 Y18.244 E171.52855
G1 X-31.739 Y16.909 E171.65414
G1 X-31.739 Y18.04 E171.72937
G1 X-31.536 Y18.244 E171.74851
G1 X-31.739 Y18.244 E171.76202
G1 F5400 E163.76202
G1 F600 Z1.02
G0 F7200 X-31.739 Y15.894 Z1.02
G1 F600 Z1
G1 F5400 E171.76202
G1 F2700 X-31.739 Y16.909 E171.82954
G0 F7200 X-32.754 Y15.894
G1 F2700 X-34.089 Y14.559 E171.95512
G1 X-34.089 Y15.69 E172.03036
G1 X-33.885 Y15.894 E172.04955
G1 X-34.089 Y15.894 E172.06312
G1 F5400 E164.06312
G1 F600 Z1.02
;MESH:NONMESH
G0 F7200 X-18.792 Y2.945 Z1.02
;TIME_ELAPSED:67.095135
;LAYER:5
;MESH:four_square_cons.stl
G0 X-18.792 Y2.945 Z1.22
;TYPE:WALL-INNER
G1 F600 Z1.2
G1 F5400 E172.06312
G1 F1200 X-18.792 Y2.362 E172.1019
G1 X-18.208 Y2.362 E172.14075
G1 X-18.208 Y2.945 E172.1691
G1 X-18.792 Y2.945 E172.19744
G0 F7200 X-19.192 Y3.746
;TYPE:WALL-OUTER
G1 F600 X-19.592 Y3.746 E172.22405
G1 X-19.592 Y3.346 E172.24126
G1 X-19.592 Y1.562 E172.35993
G1 X-17.408 Y1.562 E172.50521
G1 X-17.408 Y3.744 E172.65036
G1 X-18.792 Y3.746 E172.74242
