;FLAVOR:Repetier
;TIME:2380
;MINX:-90.401
;MINY:-52.211
;MINZ:0.2
;MAXX:90.401
;MAXY:52.228
;MAXZ:20.4
;Generated with Cura_SteamEngine 4.5.0
M82 ;absolute extrusion mode
M2100 T6441
M82 ;absolute extrusion mode
G21
G90
M82
M107 T0
M190 S40
M109 S210 T0
G28
G92 E0
G0 E3 F200
G92 E0
M107
M82
G0 F6000 X130 Y0 Z.3
G3 X0 Y130 I-130 K0 E30 F600
G0 F6000 Z15
G92 E0
G92 E0
G92 E0
G1 F5400 E-4.5
;LAYER_COUNT:102
;LAYER:0
M106 S255
M202 X5000 Y5000
G1 F600 Z0.22
G0 F4800 X-.847 Y-7.278 Z0.22
M201 X3000 Y3000
;TYPE:SKIRT
G1 F600 Z0.2
G1 F5400 E0
G1 F2400 X1.813 Y-7.292 E0.17695
G1 X4.481 Y-7.381 E0.35452
G1 X7.171 Y-7.547 E0.5338
G1 X9.823 Y-7.786 E0.71093
G1 X12.478 Y-8.102 E0.88879
G1 X15.104 Y-8.49 E1.06536
G1 X17.784 Y-8.963 E1.24639
G1 X20.38 Y-9.497 E1.4227
G1 X22.96 Y-10.105 E1.59902
G1 X25.563 Y-10.796 E1.77817
G1 X28.133 Y-11.557 E1.95646
G1 X30.698 Y-12.396 E2.13598
G1 X33.202 Y-13.295 E2.31296
G1 X35.683 Y-14.265 E2.49016
G1 X38.143 Y-15.309 E2.66793
G1 X40.588 Y-16.427 E2.84677
G1 X42.989 Y-17.61 E3.02482
G1 X45.346 Y-18.855 E3.20213
G1 X47.698 Y-20.184 E3.38184
G1 X49.977 Y-21.557 E3.55883
G1 X52.207 Y-22.989 E3.73512
G1 X54.436 Y-24.511 E3.91466
G1 X56.605 Y-26.083 E4.09285
G1 X58.735 Y-27.722 E4.27163
G1 X60.797 Y-29.402 E4.44856
G1 X62.816 Y-31.145 E4.62599
G1 X64.79 Y-32.95 E4.80392
G1 X66.729 Y-34.826 E4.98339
G1 X68.588 Y-36.727 E5.16026
G1 X70.407 Y-38.699 E5.33872
G1 X72.174 Y-40.727 E5.51765
G1 X73.862 Y-42.775 E5.69419
G1 X75.507 Y-44.892 E5.87253
G1 X77.1 Y-47.066 E6.05181
G1 X78.037 Y-48.409 E6.16074
G1 X78.789 Y-49.506 E6.24922
G1 X79.192 Y-50.024 E6.29287
G1 X79.689 Y-50.519 E6.33954
G1 X80.102 Y-50.87 E6.37559
G1 X80.634 Y-51.256 E6.41931
G1 X81.208 Y-51.575 E6.46299
G1 X81.994 Y-51.878 E6.51903
G1 X82.896 Y-52.104 E6.58089
G1 X83.728 Y-52.18 E6.63646
G1 X84.779 Y-52.153 E6.7064
G1 X85.426 Y-52.042 E6.75006
G1 X86.17 Y-51.809 E6.80193
G1 X87.057 Y-51.417 E6.86643
G1 X87.615 Y-51.069 E6.91018
G1 X88.163 Y-50.634 E6.95672
G1 X88.787 Y-50.029 E7.01454
G1 X89.325 Y-49.355 E7.0719
G1 X89.662 Y-48.791 E7.11561
G1 X89.927 Y-48.19 E7.1593
G1 X90.141 Y-47.515 E7.2064
G1 X90.291 Y-46.875 E7.25013
G1 X90.368 Y-46.079 E7.30333
G1 X90.388 Y-45.147 E7.36534
G1 X90.401 Y-41.733 E7.59244
G1 X90.4 Y-38.784 E7.78861
G1 X90.383 Y-37.432 E7.87855
G1 X90.296 Y-34.149 E8.09702
G1 X90.264 Y-33.335 E8.1512
G1 X90.219 Y-32.644 E8.19727
G1 X89.959 Y-29.388 E8.41455
G1 X89.877 Y-28.517 E8.47274
G1 X89.796 Y-27.833 E8.51856
G1 X89.367 Y-24.629 E8.73359
G1 X89.238 Y-23.758 E8.79216
G1 X89.111 Y-23.022 E8.84185
G1 X88.521 Y-19.89 E9.05385
G1 X88.345 Y-19.019 E9.11296
G1 X88.192 Y-18.349 E9.15868
G1 X87.412 Y-15.154 E9.37745
G1 X87.21 Y-14.373 E9.43111
G1 X87.011 Y-13.675 E9.4794
G1 X86.072 Y-10.559 E9.69588
G1 X85.819 Y-9.76 E9.75163
G1 X85.573 Y-9.043 E9.80205
G1 X84.495 Y-6.052 E10.01354
G1 X84.174 Y-5.199 E10.07417
G1 X83.926 Y-4.585 E10.11822
G1 X82.662 Y-1.588 E10.33459
G1 X82.301 Y-.766 E10.39431
G1 X82.009 Y-.14 E10.44026
G1 X80.588 Y2.781 E10.65634
G1 X80.201 Y3.551 E10.71366
G1 X79.883 Y4.146 E10.75854
G1 X78.316 Y6.976 E10.97372
G1 X77.852 Y7.789 E11.03599
G1 X77.537 Y8.309 E11.07643
G1 X75.778 Y11.121 E11.29707
G1 X75.311 Y11.847 E11.35449
G1 X74.952 Y12.375 E11.39697
G1 X73.06 Y15.071 E11.61606
G1 X72.545 Y15.782 E11.67446
G1 X72.137 Y16.318 E11.71927
G1 X70.138 Y18.863 E11.93454
G1 X69.563 Y19.578 E11.99558
G1 X69.135 Y20.081 E12.03951
G1 X66.999 Y22.523 E12.25532
G1 X66.411 Y23.177 E12.31383
G1 X65.925 Y23.693 E12.36098
G1 X63.653 Y26.027 E12.57765
G1 X63.038 Y26.641 E12.63546
G1 X62.577 Y27.08 E12.67781
G1 X60.161 Y29.312 E12.8966
G1 X59.496 Y29.908 E12.95601
G1 X59.024 Y30.313 E12.99738
G1 X56.444 Y32.451 E13.22027
G1 X55.83 Y32.947 E13.27278
G1 X55.264 Y33.381 E13.32022
G1 X52.678 Y35.302 E13.53451
G1 X51.925 Y35.847 E13.59634
G1 X51.384 Y36.218 E13.63998
G1 X48.672 Y38.017 E13.85647
G1 X47.94 Y38.488 E13.91437
G1 X47.33 Y38.861 E13.96193
G1 X44.534 Y40.508 E14.17779
G1 X43.786 Y40.936 E14.23512
G1 X43.183 Y41.261 E14.28068
G1 X40.269 Y42.776 E14.49916
G1 X39.519 Y43.153 E14.555
G1 X38.894 Y43.447 E14.60094
G1 X35.967 Y44.776 E14.81478
G1 X35.122 Y45.146 E14.87614
G1 X34.466 Y45.414 E14.92328
G1 X31.477 Y46.584 E15.1368
G1 X30.632 Y46.901 E15.19683
G1 X30.015 Y47.115 E15.24027
G1 X26.942 Y48.132 E15.45559
G1 X26.047 Y48.414 E15.51801
G1 X25.451 Y48.587 E15.5593
G1 X22.273 Y49.454 E15.77842
G1 X21.437 Y49.671 E15.83588
G1 X20.775 Y49.824 E15.88107
G1 X17.596 Y50.513 E16.09745
G1 X16.736 Y50.686 E16.1558
G1 X16.058 Y50.807 E16.20162
G1 X12.806 Y51.33 E16.42072
G1 X11.982 Y51.451 E16.47612
G1 X11.337 Y51.53 E16.51935
G1 X8.015 Y51.886 E16.74159
G1 X7.207 Y51.961 E16.79557
G1 X6.523 Y52.008 E16.84118
G1 X3.261 Y52.182 E17.05848
G1 X2.378 Y52.218 E17.11726
G1 X1.733 Y52.228 E17.16018
G1 X-1.556 Y52.228 E17.37896
G1 X-2.408 Y52.216 E17.43564
G1 X-3.139 Y52.189 E17.4843
G1 X-6.371 Y52.016 E17.6996
G1 X-7.237 Y51.959 E17.75733
G1 X-7.872 Y51.9 E17.79976
G1 X-11.148 Y51.552 E18.0189
G1 X-12.024 Y51.445 E18.07761
G1 X-12.694 Y51.348 E18.12264
G1 X-15.942 Y50.825 E18.34148
G1 X-16.741 Y50.686 E18.39543
G1 X-17.447 Y50.544 E18.44333
G1 X-20.585 Y49.866 E18.65689
G1 X-21.494 Y49.656 E18.71895
G1 X-22.121 Y49.495 E18.76201
G1 X-25.29 Y48.631 E18.98051
G1 X-26.094 Y48.4 E19.03615
G1 X-26.772 Y48.188 E19.08341
G1 X-29.851 Y47.169 E19.29915
G1 X-30.674 Y46.885 E19.35706
G1 X-31.338 Y46.637 E19.40421
G1 X-34.338 Y45.464 E19.61849
G1 X-35.155 Y45.133 E19.67712
G1 X-35.808 Y44.848 E19.72452
G1 X-38.775 Y43.501 E19.94127
G1 X-39.542 Y43.142 E19.99761
G1 X-40.127 Y42.849 E20.04113
G1 X-43.082 Y41.314 E20.26263
G1 X-43.78 Y40.939 E20.31534
G1 X-44.443 Y40.562 E20.36608
G1 X-47.243 Y38.913 E20.58223
G1 X-47.942 Y38.487 E20.63669
G1 X-48.545 Y38.101 E20.68431
G1 X-51.249 Y36.307 E20.90017
G1 X-51.964 Y35.819 E20.95775
G1 X-52.538 Y35.406 E21.00479
G1 X-55.142 Y33.472 E21.22056
G1 X-55.854 Y32.929 E21.28012
G1 X-56.311 Y32.56 E21.3192
G1 X-58.902 Y30.415 E21.54295
G1 X-59.512 Y29.894 E21.59631
G1 X-60.076 Y29.389 E21.64667
G1 X-62.423 Y27.222 E21.85917
G1 X-63.087 Y26.593 E21.92001
G1 X-63.54 Y26.142 E21.96253
G1 X-65.829 Y23.79 E22.18085
G1 X-66.403 Y23.187 E22.23623
G1 X-66.935 Y22.596 E22.28912
G1 X-69.033 Y20.198 E22.50107
G1 X-69.596 Y19.537 E22.55883
G1 X-70.02 Y19.014 E22.60361
G1 X-72.045 Y16.438 E22.82158
G1 X-72.568 Y15.752 E22.87896
G1 X-72.974 Y15.192 E22.92497
G1 X-74.852 Y12.519 E23.14228
G1 X-75.334 Y11.811 E23.19925
G1 X-75.703 Y11.24 E23.24448
G1 X-77.424 Y8.49 E23.46028
G1 X-77.887 Y7.728 E23.51959
G1 X-78.232 Y7.127 E23.56568
G1 X-79.797 Y4.302 E23.78051
G1 X-80.211 Y3.53 E23.83879
G1 X-80.539 Y2.881 E23.88716
G1 X-81.939 Y0.004 E24.09999
G1 X-82.328 Y-.824 E24.16085
G1 X-82.59 Y-1.421 E24.20422
G1 X-83.856 Y-4.42 E24.42076
G1 X-84.191 Y-5.241 E24.47974
G1 X-84.438 Y-5.896 E24.52631
G1 X-85.532 Y-8.928 E24.74072
G1 X-85.828 Y-9.786 E24.8011
G1 X-86.027 Y-10.412 E24.84479
G1 X-86.978 Y-13.563 E25.06374
G1 X-87.213 Y-14.382 E25.12042
G1 X-87.371 Y-14.988 E25.16208
G1 X-88.164 Y-18.232 E25.38422
G1 X-88.35 Y-19.041 E25.43944
G1 X-88.498 Y-19.764 E25.48853
G1 X-89.093 Y-22.921 E25.70223
G1 X-89.242 Y-23.777 E25.76003
G1 X-89.347 Y-24.484 E25.80758
G1 X-89.775 Y-27.672 E26.02155
G1 X-89.879 Y-28.538 E26.07957
G1 X-89.949 Y-29.265 E26.12815
G1 X-90.209 Y-32.507 E26.3445
G1 X-90.263 Y-33.327 E26.39917
G1 X-90.293 Y-34.055 E26.44763
G1 X-90.381 Y-37.31 E26.66424
G1 X-90.401 Y-38.746 E26.75977
G1 X-90.4 Y-45.158 E27.1863
G1 X-90.39 Y-45.866 E27.2334
G1 X-90.294 Y-46.806 E27.29625
G1 X-90.058 Y-47.828 E27.36603
G1 X-89.819 Y-48.44 E27.40973
G1 X-89.567 Y-48.92 E27.44579
G1 X-89.043 Y-49.73 E27.50997
G1 X-88.612 Y-50.226 E27.55368
G1 X-88.152 Y-50.652 E27.59538
G1 X-87.5 Y-51.153 E27.65008
G1 X-86.808 Y-51.557 E27.70338
G1 X-86.202 Y-51.81 E27.74706
G1 X-85.491 Y-52.018 E27.79634
G1 X-84.849 Y-52.154 E27.84
G1 X-84.194 Y-52.211 E27.88373
G1 X-83.249 Y-52.153 E27.94671
G1 X-82.242 Y-51.96 E28.01492
G1 X-81.621 Y-51.746 E28.05861
G1 X-81.11 Y-51.502 E28.09628
G1 X-80.266 Y-50.998 E28.16167
G1 X-79.625 Y-50.462 E28.21725
G1 X-79.044 Y-49.837 E28.27402
G1 X-78.093 Y-48.474 E28.38457
G1 X-76.527 Y-46.253 E28.56534
G1 X-74.951 Y-44.147 E28.74032
G1 X-73.261 Y-42.018 E28.92114
G1 X-71.556 Y-39.989 E29.09743
G1 X-69.763 Y-37.977 E29.2767
G1 X-67.945 Y-36.046 E29.45313
G1 X-66.04 Y-34.136 E29.63257
G1 X-64.102 Y-32.299 E29.8102
G1 X-62.108 Y-30.514 E29.98822
G1 X-60.063 Y-28.784 E30.16641
G1 X-57.985 Y-27.124 E30.34333
G1 X-55.842 Y-25.51 E30.52179
G1 X-53.656 Y-23.96 E30.70004
G1 X-51.433 Y-22.475 E30.87788
G1 X-49.159 Y-21.046 E31.05653
G1 X-46.869 Y-19.698 E31.2333
G1 X-44.518 Y-18.401 E31.41191
G1 X-42.134 Y-17.173 E31.59029
G1 X-39.734 Y-16.021 E31.76738
G1 X-37.277 Y-14.926 E31.94632
G1 X-34.779 Y-13.895 E32.12608
G1 X-32.316 Y-12.963 E32.30126
G1 X-29.778 Y-12.081 E32.47999
G1 X-27.215 Y-11.272 E32.65877
G1 X-24.659 Y-10.544 E32.83556
G1 X-22.076 Y-9.885 E33.01289
G1 X-19.432 Y-9.289 E33.19318
G1 X-16.83 Y-8.783 E33.36951
G1 X-14.179 Y-8.343 E33.54827
G1 X-11.554 Y-7.983 E33.72452
G1 X-8.87 Y-7.692 E33.9041
G1 X-6.203 Y-7.478 E34.08208
G1 X-3.549 Y-7.342 E34.25886
G1 X-1.247 Y-7.287 E34.41203
G0 F2160 X-.847 Y-7.278
G1 F5400 E29.91203
;MESH:prusa_protective_face_shield_cover_rc1 v1.stl
G0 F4800 X-44.533 Y-.894
;TYPE:WALL-OUTER
G1 F5400 E34.41203
G1 F2400 X-46.209 Y-1.757 E34.53743
G1 X-47.843 Y-2.649 E34.66127
G1 X-48.384 Y-2.964 E34.70291
G1 X-49.977 Y-3.894 E34.82561
G1 X-51.974 Y-5.146 E34.9824
G1 X-52.119 Y-5.243 E34.99401
G1 X-53.876 Y-6.417 E35.13457
G1 X-55.659 Y-7.685 E35.28011
G1 X-55.717 Y-7.729 E35.28496
G1 X-57.341 Y-8.952 E35.42019
G1 X-58.928 Y-10.214 E35.55507
G1 X-59.166 Y-10.414 E35.57575
G1 X-60.424 Y-11.469 E35.68496
G1 X-61.845 Y-12.72 E35.8109
G1 X-62.458 Y-13.288 E35.86649
G1 X-63.229 Y-14.002 E35.93639
G1 X-64.57 Y-15.305 E36.06077
G1 X-65.586 Y-16.339 E36.1572
G1 X-65.889 Y-16.647 E36.18594
G1 X-67.165 Y-18.012 E36.31024
G1 X-68.42 Y-19.42 E36.4357
G1 X-68.541 Y-19.562 E36.44811
G1 X-69.633 Y-20.849 E36.56039
G1 X-70.806 Y-22.3 E36.6845
G1 X-71.303 Y-22.947 E36.73878
G1 X-71.947 Y-23.784 E36.80903
G1 X-73.748 Y-26.285 E37.01404
G1 X-73.877 Y-26.48 E37.02959
G1 X-75.448 Y-28.853 E37.2189
G1 X-76.236 Y-30.152 E37.31997
G1 X-77.034 Y-31.467 E37.42229
G1 X-78.405 Y-33.941 E37.61044
G1 X-78.53 Y-34.166 E37.62756
G1 X-79.906 Y-36.897 E37.83099
G1 X-80.343 Y-37.859 E37.90127
G1 X-81.181 Y-39.7 E38.03583
G1 X-82.067 Y-41.869 E38.19168
G1 X-82.336 Y-42.528 E38.23903
G1 X-82.839 Y-43.912 E38.33699
G1 X-83.512 Y-45.76 E38.46781
G1 X-83.647 Y-45.727 E38.47706
G1 X-83.834 Y-45.681 E38.48987
G1 X-84.009 Y-45.638 E38.50186
G1 X-84.114 Y-45.651 E38.50889
G1 X-84.336 Y-45.68 E38.52379
G1 X-84.449 Y-45.695 E38.53137
G1 X-84.449 Y-45.638
G1 X-84.444 Y-38.143 E39.02994
G1 X-84.443 Y-37.197 E39.09287
G1 X-84.433 Y-36.572 E39.13445
G1 X-84.402 Y-35.369 E39.2145
G1 X-84.321 Y-33.657 E39.32851
G1 X-84.288 Y-32.962 E39.37479
G1 X-84.105 Y-30.564 E39.53477
G1 X-83.958 Y-29.157 E39.62887
G1 X-83.854 Y-28.172 E39.69476
G1 X-83.535 Y-25.79 E39.85463
G1 X-83.361 Y-24.722 E39.92661
G1 X-83.148 Y-23.42 E40.01437
G1 X-82.694 Y-21.062 E40.1741
G1 X-82.526 Y-20.306 E40.22562
G1 X-82.173 Y-18.718 E40.33383
G1 X-81.584 Y-16.389 E40.49364
G1 X-81.453 Y-15.926 E40.52564
G1 X-80.93 Y-14.078 E40.6534
G1 X-80.209 Y-11.784 E40.81336
G1 X-80.153 Y-11.622 E40.82476
G1 X-79.422 Y-9.509 E40.97349
G1 X-78.628 Y-7.408 E41.1229
G1 X-78.57 Y-7.256 E41.13372
G1 X-77.652 Y-5.026 E41.29414
G1 X-76.864 Y-3.257 E41.42296
G1 X-76.67 Y-2.823 E41.45458
G1 X-75.627 Y-.653 E41.61474
G1 X-74.891 Y0.775 E41.7216
G1 X-74.524 Y1.486 E41.77483
G1 X-73.36 Y3.59 E41.93478
G1 X-72.702 Y4.704 E42.02084
G1 X-72.138 Y5.657 E42.09451
G1 X-70.858 Y7.69 E42.25431
G1 X-70.314 Y8.502 E42.31933
G1 X-69.52 Y9.685 E42.41411
G1 X-68.126 Y11.64 E42.57383
G1 X-67.731 Y12.162 E42.61737
G1 X-66.676 Y13.555 E42.73361
G1 X-65.171 Y15.43 E42.89355
G1 X-64.937 Y15.705 E42.91756
G1 X-63.613 Y17.262 E43.05352
G1 X-62 Y19.05 E43.2137
G1 X-61.988 Y19.062 E43.21483
G1 X-60.336 Y20.792 E43.37395
G1 X-58.827 Y22.286 E43.51521
G1 X-58.623 Y22.487 E43.53426
G1 X-56.861 Y24.133 E43.69465
G1 X-55.524 Y25.313 E43.81328
G1 X-55.054 Y25.727 E43.85494
G1 X-53.211 Y27.263 E44.01453
G1 X-52.068 Y28.161 E44.11122
G1 X-51.312 Y28.755 E44.17518
G1 X-48.533 Y30.786 E44.40415
G1 X-48.451 Y30.841 E44.41071
G1 X-45.677 Y32.7 E44.63285
G1 X-44.712 Y33.29 E44.70808
G1 X-42.744 Y34.495 E44.86159
G1 X-40.82 Y35.568 E45.00813
G1 X-39.738 Y36.171 E45.09053
G1 X-36.839 Y37.636 E45.30659
G1 X-36.662 Y37.726 E45.3198
G1 X-33.52 Y39.155 E45.54941
G1 X-32.768 Y39.461 E45.60342
G1 X-30.322 Y40.458 E45.77912
G1 X-28.568 Y41.09 E45.90314
G1 X-27.075 Y41.628 E46.00871
G1 X-24.306 Y42.5 E46.20182
G1 X-23.788 Y42.663 E46.23794
G1 X-20.466 Y43.561 E46.46686
G1 X-19.996 Y43.668 E46.49892
G1 X-17.111 Y44.324 E46.69573
G1 X-15.604 Y44.603 E46.79768
G1 X-13.728 Y44.951 E46.9246
G1 X-11.176 Y45.316 E47.09609
G1 X-10.321 Y45.439 E47.15355
G1 X-6.895 Y45.789 E47.38263
G1 X-6.716 Y45.8 E47.39456
G1 X-3.452 Y46 E47.61209
G1 X-2.253 Y46.024 E47.69187
G1 X0.001 Y46.07 E47.84183
G1 X2.251 Y46.019 E47.99154
G1 X3.944 Y45.979 E48.10419
G1 X6.71 Y45.785 E48.28864
G1 X7.872 Y45.703 E48.36613
G1 X11.186 Y45.317 E48.58807
G1 X11.78 Y45.247 E48.62785
G1 X15.614 Y44.618 E48.8863
G1 X15.658 Y44.61 E48.88928
G1 X18.715 Y43.977 E49.09694
G1 X19.987 Y43.665 E49.18406
G1 X21.747 Y43.233 E49.30462
G1 X24.316 Y42.5 E49.48233
G1 X24.75 Y42.376 E49.51235
G1 X27.724 Y41.406 E49.72044
G1 X28.567 Y41.097 E49.78016
G1 X30.663 Y40.326 E49.92872
G1 X32.767 Y39.464 E50.07997
G1 X33.563 Y39.138 E50.13719
G1 X36.414 Y37.844 E50.34546
G1 X36.838 Y37.633 E50.37697
G1 X39.212 Y36.449 E50.55344
G1 X40.823 Y35.57 E50.67551
G1 X41.953 Y34.953 E50.76116
G1 X44.635 Y33.357 E50.96876
G1 X44.712 Y33.308 E50.97483
G1 X47.254 Y31.664 E51.17621
G1 X48.438 Y30.835 E51.27236
G1 X49.812 Y29.873 E51.38393
G1 X52.073 Y28.16 E51.57263
G1 X52.302 Y27.987 E51.59172
G1 X54.724 Y26.009 E51.79973
G1 X55.519 Y25.309 E51.87019
G1 X57.074 Y23.939 E52.00805
G1 X58.825 Y22.278 E52.1686
G1 X59.345 Y21.785 E52.21626
G1 X61.536 Y19.547 E52.4246
G1 X61.976 Y19.062 E52.46816
G1 X63.64 Y17.231 E52.63274
G1 X64.929 Y15.701 E52.76582
G1 X65.654 Y14.842 E52.8406
G1 X67.575 Y12.381 E53.04827
G1 X67.729 Y12.168 E53.06575
G1 X69.403 Y9.852 E53.25585
G1 X70.307 Y8.499 E53.36409
G1 X71.137 Y7.258 E53.4634
G1 X72.708 Y4.705 E53.66281
G1 X72.773 Y4.6 E53.67102
G1 X74.311 Y1.882 E53.87876
G1 X74.884 Y0.773 E53.9618
G1 X75.748 Y-.895 E54.08676
G1 X76.862 Y-3.261 E54.26072
G1 X77.082 Y-3.726 E54.29493
G1 X78.31 Y-6.608 E54.50332
G1 X78.617 Y-7.411 E54.56051
G1 X79.43 Y-9.532 E54.71161
G1 X80.143 Y-11.624 E54.85863
G1 X80.44 Y-12.492 E54.91966
G1 X81.336 Y-15.482 E55.12729
G1 X81.45 Y-15.922 E55.15753
G1 X82.121 Y-18.503 E55.33492
G1 X82.519 Y-20.306 E55.45774
G1 X82.794 Y-21.551 E55.54256
G1 X83.362 Y-24.724 E55.75698
G1 X83.426 Y-25.081 E55.78111
G1 X83.909 Y-28.638 E56.01989
G1 X83.956 Y-29.154 E56.05436
G1 X84.238 Y-32.216 E56.25891
G1 X84.309 Y-33.658 E56.35495
G1 X84.416 Y-35.808 E56.49814
G1 X84.439 Y-36.897 E56.5706
G1 X84.446 Y-37.5 E56.61071
G1 X84.446 Y-38.153 E56.65415
G1 X84.448 Y-41.986 E56.90912
G1 X84.45 Y-45.609 E57.15012
G1 X84.305 Y-45.62 E57.1598
G1 X84.113 Y-45.635 E57.17261
G1 X83.905 Y-45.652 E57.18649
G1 X83.688 Y-45.73 E57.20183
G1 X83.523 Y-45.79 E57.21351
G1 X82.406 Y-42.707 E57.43164
G1 X82.065 Y-41.871 E57.4917
G1 X81.125 Y-39.57 E57.65704
G1 X80.34 Y-37.862 E57.78208
G1 X79.704 Y-36.481 E57.88322
G1 X78.403 Y-33.95 E58.07252
G1 X78.141 Y-33.441 E58.1106
G1 X76.465 Y-30.5 E58.33578
G1 X76.243 Y-30.147 E58.36352
G1 X74.65 Y-27.619 E58.56228
G1 X73.865 Y-26.486 E58.65397
G1 X72.711 Y-24.819 E58.78884
G1 X71.296 Y-22.956 E58.94446
G1 X70.643 Y-22.096 E59.01629
G1 X68.543 Y-19.565 E59.23506
G1 X68.483 Y-19.492 E59.24134
G1 X66.188 Y-16.961 E59.46862
G1 X65.58 Y-16.347 E59.5261
G1 X63.804 Y-14.553 E59.69402
G1 X62.45 Y-13.299 E59.81678
G1 X61.294 Y-12.229 E59.92156
