; generated by PrusaSlicer 2.2.0+ on 2020-04-11 at 04:37:28 UTC

; 

; external perimeters extrusion width = 0.40mm
; perimeters extrusion width = 0.40mm
; infill extrusion width = 0.40mm
; solid infill extrusion width = 0.40mm
; top infill extrusion width = 0.40mm
; first layer extrusion width = 0.40mm

M73 P0 R30
M201 X2000 Y2000 Z150 E10000 ; sets maximum accelerations, mm/sec^2
M203 X450 Y450 Z12 E60 ; sets maximum feedrates, mm/sec
M204 P1250 R2000 T1250 ; sets acceleration (P, T) and retract acceleration (R), mm/sec^2
M205 X12.00 Y12.00 Z0.40 E4.50 ; sets the jerk limits, mm/sec
M205 S0 T0 ; sets the minimum extruding and travel feed rate, mm/sec
M107 ; disable fan
G90 ; use absolute coordinates
M83 ; extruder relative mode
M104 S210 ; set extruder temp
M140 S60 ; set bed temp
M190 S60 ; wait for bed temp
M109 S210 ; wait for extruder temp
G28
G1 Y3.0 F1000.0 ; go outside print area
G92 E0.0
G1 X60.0 E9.0 F1000.0 ; intro line
M73 P0 R30
G1 X100.0 E12.5 F1000.0 ; intro line
G92 E0.0
;M221 S95
G21 ; set units to millimeters
G90 ; use absolute coordinates
M83 ; use relative distances for extrusion
M900 K45 ; Filament gcode
;BEFORE_LAYER_CHANGE
G92 E0.0
;0.2


G1 E-4.00000 F2400.00000 ; retract
G1 Z0.200 F21000.000 ; lift Z
;AFTER_LAYER_CHANGE
;0.2
; printing object Surgical_Mask_Strap_Remix.stl id:0 copy 0
G1 Z0.400 ; lift Z
G1 X146.942 Y24.534 ; move to first perimeter point
G1 Z0.200 ; restore layer Z
G1 E4.00000 F2400.00000 ; unretract
G1 F1200.000
G1 X146.792 Y24.127 E0.01288 ; perimeter
G1 X146.751 Y23.869 E0.00776 ; perimeter
G1 X146.764 Y23.455 E0.01232 ; perimeter
G1 X146.818 Y23.220 E0.00716 ; perimeter
G1 X149.766 Y14.976 E0.25995 ; perimeter
G1 X149.990 Y14.604 E0.01291 ; perimeter
G1 X150.315 Y14.290 E0.01341 ; perimeter
G1 X150.708 Y14.068 E0.01340 ; perimeter
G1 X151.144 Y13.953 E0.01339 ; perimeter
G1 X180.503 Y13.947 E0.87170 ; perimeter
G1 X180.914 Y14.000 E0.01233 ; perimeter
G1 X181.332 Y14.169 E0.01337 ; perimeter
G1 X181.679 Y14.428 E0.01284 ; perimeter
G1 X181.854 Y14.622 E0.00776 ; perimeter
G1 X182.070 Y14.978 E0.01237 ; perimeter
G1 X185.017 Y23.233 E0.26023 ; perimeter
G1 X185.084 Y23.657 E0.01277 ; perimeter
G1 X185.043 Y24.088 E0.01285 ; perimeter
G1 X184.968 Y24.340 E0.00779 ; perimeter
G1 X184.769 Y24.722 E0.01280 ; perimeter
G1 X184.466 Y25.055 E0.01338 ; perimeter
G1 X184.089 Y25.301 E0.01336 ; perimeter
G1 X183.677 Y25.439 E0.01291 ; perimeter
G1 X183.434 Y25.469 E0.00727 ; perimeter
G1 X148.693 Y25.462 E1.03149 ; perimeter
G1 X148.388 Y25.478 E0.00909 ; perimeter
G1 X147.950 Y25.393 E0.01324 ; perimeter
G1 X147.559 Y25.205 E0.01288 ; perimeter
G1 X147.364 Y25.059 E0.00724 ; perimeter
G1 X147.189 Y24.889 E0.00723 ; perimeter
G1 X146.976 Y24.584 E0.01106 ; perimeter
G1 X147.596 Y24.786 F21000.000 ; move to first perimeter point
G1 F1200.000
G1 X147.462 Y24.657 E0.00553 ; perimeter
G1 X147.261 Y24.368 E0.01045 ; perimeter
G1 X147.139 Y24.037 E0.01048 ; perimeter
G1 X147.109 Y23.847 E0.00571 ; perimeter
G1 X147.119 Y23.501 E0.01027 ; perimeter
G1 X147.161 Y23.321 E0.00550 ; perimeter
G1 X150.090 Y15.130 E0.25828 ; perimeter
G1 X150.272 Y14.828 E0.01046 ; perimeter
G1 X150.530 Y14.578 E0.01067 ; perimeter
G1 X150.843 Y14.401 E0.01066 ; perimeter
G1 X151.190 Y14.310 E0.01065 ; perimeter
G1 X180.480 Y14.304 E0.86965 ; perimeter
G1 X180.823 Y14.348 E0.01028 ; perimeter
G1 X181.155 Y14.483 E0.01065 ; perimeter
G1 X181.437 Y14.694 E0.01045 ; perimeter
G1 X181.567 Y14.836 E0.00572 ; perimeter
G1 X181.746 Y15.132 E0.01028 ; perimeter
G1 X184.669 Y23.321 E0.25816 ; perimeter
G1 X184.724 Y23.669 E0.01044 ; perimeter
G1 X184.691 Y24.019 E0.01046 ; perimeter
G1 X184.636 Y24.205 E0.00574 ; perimeter
G1 X184.474 Y24.516 E0.01042 ; perimeter
G1 X184.232 Y24.781 E0.01065 ; perimeter
G1 X183.933 Y24.977 E0.01063 ; perimeter
G1 X183.597 Y25.089 E0.01049 ; perimeter
G1 X183.411 Y25.112 E0.00556 ; perimeter
G1 X148.684 Y25.105 E1.03110 ; perimeter
G1 X148.413 Y25.119 E0.00806 ; perimeter
G1 X148.063 Y25.051 E0.01058 ; perimeter
G1 X147.745 Y24.898 E0.01049 ; perimeter
G1 X147.644 Y24.822 E0.00375 ; perimeter
G1 X147.422 Y24.853 F21000.000 ; move inwards before travel
G1 F16800.000
G1 X147.462 Y24.657 E-0.03336 ; wipe and retract
G1 X147.261 Y24.368 E-0.04777 ; wipe and retract
G1 X147.139 Y24.037 E-0.04792 ; wipe and retract
G1 X147.109 Y23.847 E-0.02610 ; wipe and retract
G1 X147.119 Y23.501 E-0.04692 ; wipe and retract
G1 X147.161 Y23.321 E-0.02513 ; wipe and retract
G1 X150.090 Y15.130 E-1.18056 ; wipe and retract
G1 X150.272 Y14.828 E-0.04783 ; wipe and retract
G1 X150.530 Y14.578 E-0.04876 ; wipe and retract
G1 X150.843 Y14.401 E-0.04875 ; wipe and retract
G1 X151.190 Y14.310 E-0.04870 ; wipe and retract
G1 X167.387 Y14.307 E-2.19820 ; wipe and retract
G1 E-0.20000 F2400.00000 ; retract
G1 Z0.400 F21000.000 ; lift Z
G1 X187.923 Y15.159 ; move to first perimeter point
G1 Z0.200 ; restore layer Z
G1 E4.00000 F2400.00000 ; unretract
G1 F1200.000
G1 X208.688 Y17.885 E0.62186 ; perimeter
G1 X209.024 Y15.336 E0.07634 ; perimeter
G1 X207.723 Y14.989 E0.03999 ; perimeter
G1 X207.216 Y14.696 E0.01735 ; perimeter
G1 X206.804 Y14.284 E0.01734 ; perimeter
G1 X206.512 Y13.778 E0.01732 ; perimeter
G1 X206.361 Y13.214 E0.01736 ; perimeter
G1 X206.361 Y12.630 E0.01732 ; perimeter
G1 X206.512 Y12.066 E0.01733 ; perimeter
G1 X206.804 Y11.561 E0.01733 ; perimeter
G1 X207.216 Y11.148 E0.01734 ; perimeter
G1 X207.723 Y10.856 E0.01735 ; perimeter
G1 X208.286 Y10.705 E0.01732 ; perimeter
G1 X208.870 Y10.705 E0.01735 ; perimeter
G1 X209.435 Y10.856 E0.01734 ; perimeter
G1 X209.940 Y11.148 E0.01732 ; perimeter
G1 X210.353 Y11.561 E0.01735 ; perimeter
G1 X210.644 Y12.066 E0.01733 ; perimeter
G1 X210.796 Y12.630 E0.01733 ; perimeter
G1 X210.796 Y13.264 E0.01881 ; perimeter
G1 X210.162 Y18.078 E0.14418 ; perimeter
G1 X220.586 Y19.447 E0.31215 ; perimeter
G1 X220.922 Y16.904 E0.07617 ; perimeter
G1 X219.620 Y16.555 E0.04003 ; perimeter
G1 X219.114 Y16.262 E0.01735 ; perimeter
G1 X218.702 Y15.850 E0.01732 ; perimeter
G1 X218.410 Y15.344 E0.01734 ; perimeter
G1 X218.259 Y14.780 E0.01734 ; perimeter
G1 X218.259 Y14.197 E0.01732 ; perimeter
G1 X218.410 Y13.632 E0.01736 ; perimeter
G1 X218.702 Y13.127 E0.01732 ; perimeter
G1 X219.114 Y12.714 E0.01733 ; perimeter
G1 X219.620 Y12.423 E0.01732 ; perimeter
G1 X220.184 Y12.271 E0.01736 ; perimeter
G1 X220.768 Y12.271 E0.01732 ; perimeter
G1 X221.332 Y12.423 E0.01734 ; perimeter
G1 X221.838 Y12.714 E0.01734 ; perimeter
G1 X222.250 Y13.127 E0.01732 ; perimeter
G1 X222.542 Y13.633 E0.01735 ; perimeter
G1 X222.694 Y14.197 E0.01734 ; perimeter
G1 X222.694 Y14.831 E0.01881 ; perimeter
G1 X222.060 Y19.640 E0.14404 ; perimeter
G1 X232.484 Y21.009 E0.31217 ; perimeter
G1 X232.819 Y18.470 E0.07605 ; perimeter
G1 X231.518 Y18.121 E0.04000 ; perimeter
G1 X231.012 Y17.829 E0.01733 ; perimeter
G1 X230.599 Y17.416 E0.01734 ; perimeter
G1 X230.307 Y16.911 E0.01732 ; perimeter
G1 X230.157 Y16.347 E0.01734 ; perimeter
G1 X230.157 Y15.763 E0.01735 ; perimeter
G1 X230.307 Y15.198 E0.01734 ; perimeter
G1 X230.599 Y14.693 E0.01732 ; perimeter
G1 X231.012 Y14.280 E0.01734 ; perimeter
G1 X231.518 Y13.989 E0.01733 ; perimeter
G1 X232.081 Y13.837 E0.01733 ; perimeter
G1 X232.666 Y13.837 E0.01735 ; perimeter
G1 X233.229 Y13.989 E0.01733 ; perimeter
G1 X233.735 Y14.280 E0.01733 ; perimeter
G1 X234.148 Y14.693 E0.01735 ; perimeter
G1 X234.440 Y15.198 E0.01732 ; perimeter
G1 X234.591 Y15.763 E0.01734 ; perimeter
G1 X234.591 Y16.397 E0.01883 ; perimeter
G1 X233.958 Y21.202 E0.14392 ; perimeter
G1 X244.384 Y22.571 E0.31220 ; perimeter
G1 X244.717 Y20.036 E0.07592 ; perimeter
G1 X243.416 Y19.687 E0.04000 ; perimeter
G1 X242.909 Y19.395 E0.01735 ; perimeter
G1 X242.497 Y18.983 E0.01733 ; perimeter
G1 X242.205 Y18.477 E0.01732 ; perimeter
G1 X242.054 Y17.913 E0.01736 ; perimeter
G1 X242.054 Y17.329 E0.01732 ; perimeter
G1 X242.205 Y16.765 E0.01733 ; perimeter
G1 X242.497 Y16.260 E0.01733 ; perimeter
G1 X242.909 Y15.847 E0.01734 ; perimeter
G1 X243.416 Y15.555 E0.01735 ; perimeter
G1 X243.979 Y15.404 E0.01732 ; perimeter
G1 X244.563 Y15.404 E0.01735 ; perimeter
G1 X245.128 Y15.555 E0.01734 ; perimeter
G1 X245.633 Y15.847 E0.01732 ; perimeter
G1 X246.046 Y16.260 E0.01734 ; perimeter
G1 X246.337 Y16.765 E0.01733 ; perimeter
G1 X246.489 Y17.329 E0.01733 ; perimeter
G1 X246.489 Y17.963 E0.01881 ; perimeter
G1 X243.756 Y38.714 E0.62144 ; perimeter
G1 X243.593 Y39.325 E0.01879 ; perimeter
G1 X243.301 Y39.830 E0.01733 ; perimeter
G1 X242.888 Y40.244 E0.01736 ; perimeter
G1 X242.383 Y40.536 E0.01732 ; perimeter
G1 X241.818 Y40.686 E0.01734 ; perimeter
G1 X241.234 Y40.686 E0.01735 ; perimeter
G1 X240.671 Y40.536 E0.01732 ; perimeter
G1 X240.165 Y40.244 E0.01734 ; perimeter
G1 X239.752 Y39.831 E0.01733 ; perimeter
G1 X239.460 Y39.325 E0.01735 ; perimeter
G1 X239.309 Y38.761 E0.01732 ; perimeter
G1 X239.309 Y38.177 E0.01735 ; perimeter
G1 X239.460 Y37.614 E0.01732 ; perimeter
G1 X239.752 Y37.108 E0.01735 ; perimeter
G1 X240.165 Y36.695 E0.01733 ; perimeter
G1 X240.671 Y36.403 E0.01734 ; perimeter
G1 X241.234 Y36.252 E0.01732 ; perimeter
G1 X242.581 Y36.252 E0.04000 ; perimeter
G1 X242.961 Y33.374 E0.08620 ; perimeter
G1 X232.536 Y32.006 E0.31220 ; perimeter
G1 X231.859 Y37.146 E0.15393 ; perimeter
G1 X231.695 Y37.759 E0.01883 ; perimeter
G1 X231.403 Y38.264 E0.01734 ; perimeter
G1 X230.990 Y38.677 E0.01735 ; perimeter
G1 X230.484 Y38.969 E0.01733 ; perimeter
G1 X229.921 Y39.120 E0.01733 ; perimeter
G1 X229.337 Y39.120 E0.01732 ; perimeter
G1 X228.773 Y38.969 E0.01736 ; perimeter
G1 X228.267 Y38.677 E0.01732 ; perimeter
G1 X227.854 Y38.264 E0.01735 ; perimeter
G1 X227.562 Y37.759 E0.01732 ; perimeter
G1 X227.412 Y37.195 E0.01734 ; perimeter
G1 X227.412 Y36.611 E0.01735 ; perimeter
G1 X227.562 Y36.047 E0.01732 ; perimeter
G1 X227.854 Y35.541 E0.01734 ; perimeter
G1 X228.267 Y35.129 E0.01733 ; perimeter
G1 X228.773 Y34.837 E0.01735 ; perimeter
G1 X229.337 Y34.685 E0.01734 ; perimeter
G1 X230.684 Y34.685 E0.04000 ; perimeter
G1 X231.063 Y31.812 E0.08605 ; perimeter
G1 X220.638 Y30.444 E0.31220 ; perimeter
G1 X219.962 Y35.580 E0.15381 ; perimeter
G1 X219.797 Y36.192 E0.01882 ; perimeter
G1 X219.506 Y36.698 E0.01734 ; perimeter
G1 X219.093 Y37.110 E0.01732 ; perimeter
G1 X218.587 Y37.403 E0.01735 ; perimeter
G1 X218.023 Y37.554 E0.01734 ; perimeter
G1 X217.439 Y37.554 E0.01732 ; perimeter
G1 X216.875 Y37.403 E0.01734 ; perimeter
G1 X216.369 Y37.110 E0.01735 ; perimeter
G1 X215.957 Y36.698 E0.01732 ; perimeter
G1 X215.665 Y36.192 E0.01734 ; perimeter
G1 X215.514 Y35.628 E0.01734 ; perimeter
G1 X215.514 Y35.045 E0.01732 ; perimeter
G1 X215.665 Y34.480 E0.01736 ; perimeter
G1 X215.957 Y33.975 E0.01732 ; perimeter
G1 X216.369 Y33.562 E0.01733 ; perimeter
G1 X216.875 Y33.271 E0.01732 ; perimeter
G1 X217.439 Y33.119 E0.01736 ; perimeter
G1 X218.787 Y33.119 E0.04000 ; perimeter
G1 X219.164 Y30.250 E0.08592 ; perimeter
G1 X208.740 Y28.882 E0.31216 ; perimeter
G1 X208.063 Y34.014 E0.15370 ; perimeter
G1 X207.900 Y34.626 E0.01880 ; perimeter
G1 X207.608 Y35.131 E0.01733 ; perimeter
G1 X207.195 Y35.545 E0.01736 ; perimeter
G1 X206.690 Y35.837 E0.01732 ; perimeter
G1 X206.125 Y35.987 E0.01734 ; perimeter
G1 X205.541 Y35.987 E0.01735 ; perimeter
G1 X204.978 Y35.837 E0.01732 ; perimeter
G1 X204.472 Y35.545 E0.01734 ; perimeter
G1 X204.059 Y35.132 E0.01733 ; perimeter
G1 X203.767 Y34.626 E0.01735 ; perimeter
G1 X203.616 Y34.062 E0.01732 ; perimeter
G1 X203.616 Y33.479 E0.01732 ; perimeter
G1 X203.767 Y32.915 E0.01734 ; perimeter
G1 X204.059 Y32.409 E0.01735 ; perimeter
G1 X204.472 Y31.996 E0.01733 ; perimeter
G1 X204.978 Y31.704 E0.01734 ; perimeter
G1 X205.541 Y31.553 E0.01732 ; perimeter
G1 X206.888 Y31.553 E0.04001 ; perimeter
G1 X207.266 Y28.688 E0.08581 ; perimeter
G1 X190.194 Y26.447 E0.51126 ; perimeter
G1 X190.151 Y27.574 E0.03350 ; perimeter
G1 X190.111 Y27.770 E0.00594 ; perimeter
G1 X190.023 Y27.972 E0.00654 ; perimeter
G1 X189.918 Y28.102 E0.00495 ; perimeter
G1 X189.744 Y28.225 E0.00633 ; perimeter
G1 X189.423 Y28.350 E0.01023 ; perimeter
G1 X188.967 Y28.428 E0.01373 ; perimeter
G1 X188.585 Y28.444 E0.01137 ; perimeter
G1 X142.707 Y28.439 E1.36216 ; perimeter
G1 X142.369 Y28.409 E0.01008 ; perimeter
G1 X141.948 Y28.310 E0.01283 ; perimeter
G1 X141.767 Y28.231 E0.00588 ; perimeter
G1 X141.615 Y28.131 E0.00540 ; perimeter
G1 X141.478 Y27.972 E0.00621 ; perimeter
G1 X141.390 Y27.770 E0.00654 ; perimeter
G1 X141.350 Y27.574 E0.00594 ; perimeter
G1 X141.308 Y26.447 E0.03350 ; perimeter
G1 X124.235 Y28.688 E0.51126 ; perimeter
G1 X124.613 Y31.553 E0.08581 ; perimeter
G1 X125.960 Y31.553 E0.04001 ; perimeter
G1 X126.524 Y31.704 E0.01732 ; perimeter
G1 X127.029 Y31.996 E0.01734 ; perimeter
G1 X127.442 Y32.409 E0.01733 ; perimeter
G1 X127.734 Y32.915 E0.01735 ; perimeter
G1 X127.886 Y33.479 E0.01734 ; perimeter
G1 X127.886 Y34.062 E0.01732 ; perimeter
G1 X127.734 Y34.626 E0.01732 ; perimeter
G1 X127.442 Y35.132 E0.01735 ; perimeter
G1 X127.029 Y35.545 E0.01733 ; perimeter
G1 X126.524 Y35.837 E0.01734 ; perimeter
G1 X125.960 Y35.987 E0.01732 ; perimeter
G1 X125.376 Y35.987 E0.01735 ; perimeter
G1 X124.812 Y35.837 E0.01734 ; perimeter
G1 X124.307 Y35.545 E0.01732 ; perimeter
G1 X123.893 Y35.131 E0.01736 ; perimeter
G1 X123.601 Y34.626 E0.01733 ; perimeter
G1 X123.438 Y34.014 E0.01880 ; perimeter
G1 X122.761 Y28.882 E0.15370 ; perimeter
G1 X112.337 Y30.250 E0.31216 ; perimeter
G1 X112.715 Y33.119 E0.08592 ; perimeter
G1 X114.062 Y33.119 E0.04000 ; perimeter
G1 X114.627 Y33.271 E0.01736 ; perimeter
G1 X115.132 Y33.562 E0.01732 ; perimeter
G1 X115.545 Y33.975 E0.01733 ; perimeter
G1 X115.836 Y34.480 E0.01732 ; perimeter
G1 X115.988 Y35.045 E0.01736 ; perimeter
G1 X115.988 Y35.628 E0.01732 ; perimeter
G1 X115.836 Y36.192 E0.01734 ; perimeter
G1 X115.545 Y36.698 E0.01734 ; perimeter
G1 X115.132 Y37.110 E0.01732 ; perimeter
G1 X114.626 Y37.403 E0.01735 ; perimeter
G1 X114.062 Y37.554 E0.01734 ; perimeter
G1 X113.478 Y37.554 E0.01732 ; perimeter
G1 X112.914 Y37.403 E0.01734 ; perimeter
G1 X112.408 Y37.110 E0.01735 ; perimeter
G1 X111.996 Y36.698 E0.01732 ; perimeter
G1 X111.704 Y36.192 E0.01734 ; perimeter
G1 X111.540 Y35.580 E0.01882 ; perimeter
G1 X110.863 Y30.444 E0.15381 ; perimeter
G1 X100.440 Y31.812 E0.31215 ; perimeter
G1 X100.816 Y34.685 E0.08604 ; perimeter
G1 X102.164 Y34.685 E0.04001 ; perimeter
G1 X102.728 Y34.837 E0.01734 ; perimeter
G1 X103.234 Y35.129 E0.01735 ; perimeter
G1 X103.647 Y35.541 E0.01733 ; perimeter
G1 X103.939 Y36.047 E0.01734 ; perimeter
G1 X104.090 Y36.611 E0.01732 ; perimeter
G1 X104.090 Y37.195 E0.01735 ; perimeter
G1 X103.939 Y37.759 E0.01734 ; perimeter
G1 X103.647 Y38.264 E0.01732 ; perimeter
G1 X103.234 Y38.677 E0.01735 ; perimeter
G1 X102.729 Y38.969 E0.01732 ; perimeter
G1 X102.164 Y39.120 E0.01736 ; perimeter
G1 X101.580 Y39.120 E0.01732 ; perimeter
G1 X101.017 Y38.969 E0.01733 ; perimeter
G1 X100.511 Y38.677 E0.01733 ; perimeter
G1 X100.098 Y38.264 E0.01735 ; perimeter
G1 X99.806 Y37.759 E0.01734 ; perimeter
G1 X99.642 Y37.146 E0.01883 ; perimeter
G1 X98.966 Y32.006 E0.15393 ; perimeter
G1 X88.540 Y33.374 E0.31221 ; perimeter
G1 X88.920 Y36.252 E0.08620 ; perimeter
G1 X90.267 Y36.252 E0.04000 ; perimeter
G1 X90.831 Y36.403 E0.01732 ; perimeter
G1 X91.336 Y36.695 E0.01734 ; perimeter
G1 X91.749 Y37.108 E0.01733 ; perimeter
G1 X92.041 Y37.614 E0.01735 ; perimeter
G1 X92.193 Y38.177 E0.01732 ; perimeter
G1 X92.193 Y38.761 E0.01735 ; perimeter
G1 X92.041 Y39.325 E0.01732 ; perimeter
G1 X91.749 Y39.831 E0.01735 ; perimeter
G1 X91.336 Y40.244 E0.01733 ; perimeter
G1 X90.831 Y40.536 E0.01734 ; perimeter
G1 X90.267 Y40.686 E0.01732 ; perimeter
G1 X89.683 Y40.686 E0.01735 ; perimeter
G1 X89.119 Y40.536 E0.01734 ; perimeter
G1 X88.614 Y40.244 E0.01732 ; perimeter
G1 X88.200 Y39.830 E0.01736 ; perimeter
G1 X87.908 Y39.325 E0.01733 ; perimeter
G1 X87.745 Y38.714 E0.01879 ; perimeter
G1 X85.013 Y17.963 E0.62144 ; perimeter
G1 X85.013 Y17.329 E0.01881 ; perimeter
G1 X85.164 Y16.765 E0.01733 ; perimeter
