; generated by PrusaSlicer 2.2.0+ on 2020-04-10 at 05:22:26 UTC

; 

; external perimeters extrusion width = 0.40mm
; perimeters extrusion width = 0.40mm
; infill extrusion width = 0.40mm
; solid infill extrusion width = 0.40mm
; top infill extrusion width = 0.40mm
; first layer extrusion width = 0.40mm

M73 P0 R29
M201 X2000 Y2000 Z150 E10000 ; sets maximum accelerations, mm/sec^2
M203 X450 Y450 Z12 E60 ; sets maximum feedrates, mm/sec
M204 P1250 R2000 T1250 ; sets acceleration (P, T) and retract acceleration (R), mm/sec^2
M205 X12.00 Y12.00 Z0.40 E4.50 ; sets the jerk limits, mm/sec
M205 S0 T0 ; sets the minimum extruding and travel feed rate, mm/sec
M107
G90 ; use absolute coordinates
M83 ; extruder relative mode
M104 S210 ; set extruder temp
M140 S40 ; set bed temp
M190 S40 ; wait for bed temp
M109 S210 ; wait for extruder temp
G28
G1 Y3.0 F1000.0 ; go outside print area
G92 E0.0
G1 X60.0 E9.0 F1000.0 ; intro line
M73 P0 R29
G1 X100.0 E12.5 F1000.0 ; intro line
G92 E0.0
;M221 S95
G21 ; set units to millimeters
G90 ; use absolute coordinates
M83 ; use relative distances for extrusion
M900 K45 ; Filament gcode
;BEFORE_LAYER_CHANGE
G92 E0.0
;0.2


G1 E-4.00000 F2400.00000
G1 Z0.200 F21000.000
;AFTER_LAYER_CHANGE
;0.2
G1 Z0.400
G1 X143.489 Y18.503
G1 Z0.200
G1 E4.00000 F2400.00000
G1 F1200.000
G1 X143.339 Y18.096 E0.01288
G1 X143.298 Y17.838 E0.00776
G1 X143.311 Y17.423 E0.01232
G1 X143.366 Y17.188 E0.00716
G1 X146.313 Y8.944 E0.25995
G1 X146.538 Y8.572 E0.01291
G1 X146.862 Y8.258 E0.01341
G1 X147.255 Y8.036 E0.01340
G1 X147.691 Y7.922 E0.01339
G1 X177.050 Y7.915 E0.87170
G1 X177.462 Y7.968 E0.01233
G1 X177.880 Y8.138 E0.01337
G1 X178.226 Y8.396 E0.01284
G1 X178.402 Y8.590 E0.00776
G1 X178.618 Y8.946 E0.01237
G1 X181.564 Y17.201 E0.26023
G1 X181.632 Y17.626 E0.01277
G1 X181.591 Y18.056 E0.01285
G1 X181.515 Y18.308 E0.00779
G1 X181.317 Y18.690 E0.01280
G1 X181.013 Y19.023 E0.01338
G1 X180.637 Y19.270 E0.01336
G1 X180.224 Y19.407 E0.01291
G1 X179.981 Y19.438 E0.00727
G1 X145.241 Y19.431 E1.03149
G1 X144.935 Y19.446 E0.00909
G1 X144.498 Y19.361 E0.01324
G1 X144.107 Y19.173 E0.01288
G1 X143.911 Y19.027 E0.00724
G1 X143.736 Y18.858 E0.00723
G1 X143.524 Y18.552 E0.01106
G1 X144.143 Y18.755 F21000.000
G1 F1200.000
G1 X144.010 Y18.625 E0.00553
G1 X143.809 Y18.336 E0.01045
G1 X143.686 Y18.005 E0.01048
G1 X143.656 Y17.815 E0.00571
G1 X143.667 Y17.469 E0.01027
G1 X143.709 Y17.289 E0.00550
G1 X146.638 Y9.098 E0.25828
G1 X146.819 Y8.796 E0.01046
G1 X147.078 Y8.546 E0.01067
G1 X147.390 Y8.370 E0.01066
G1 X147.738 Y8.279 E0.01065
G1 X177.027 Y8.272 E0.86965
G1 X177.370 Y8.317 E0.01028
G1 X177.703 Y8.451 E0.01065
G1 X177.985 Y8.662 E0.01045
G1 X178.114 Y8.805 E0.00572
G1 X178.294 Y9.101 E0.01028
G1 X181.217 Y17.290 E0.25816
G1 X181.272 Y17.637 E0.01044
G1 X181.239 Y17.988 E0.01046
G1 X181.183 Y18.173 E0.00574
G1 X181.021 Y18.484 E0.01042
G1 X180.780 Y18.749 E0.01065
G1 X180.480 Y18.946 E0.01063
G1 X180.145 Y19.057 E0.01049
G1 X179.959 Y19.080 E0.00556
G1 X145.232 Y19.073 E1.03110
G1 X144.961 Y19.087 E0.00806
G1 X144.611 Y19.019 E0.01058
G1 X144.293 Y18.866 E0.01049
G1 X144.191 Y18.791 E0.00375
G1 X143.969 Y18.821 F21000.000
G1 F16800.000
G1 X144.010 Y18.625 E-0.03336
G1 X143.809 Y18.336 E-0.04777
G1 X143.686 Y18.005 E-0.04792
G1 X143.656 Y17.815 E-0.02610
G1 X143.667 Y17.469 E-0.04692
G1 X143.709 Y17.289 E-0.02513
G1 X146.638 Y9.098 E-1.18056
G1 X146.819 Y8.796 E-0.04783
G1 X147.078 Y8.546 E-0.04876
G1 X147.390 Y8.370 E-0.04875
G1 X147.738 Y8.279 E-0.04870
G1 X163.935 Y8.275 E-2.19820
G1 E-0.20000 F2400.00000
G1 Z0.400 F21000.000
G1 X184.470 Y9.127
G1 Z0.200
G1 E4.00000 F2400.00000
G1 F1200.000
G1 X205.236 Y11.854 E0.62186
G1 X205.571 Y9.305 E0.07634
G1 X204.270 Y8.957 E0.03999
G1 X203.764 Y8.665 E0.01735
G1 X203.351 Y8.252 E0.01734
G1 X203.060 Y7.746 E0.01732
G1 X202.908 Y7.182 E0.01736
G1 X202.908 Y6.598 E0.01732
G1 X203.060 Y6.035 E0.01733
G1 X203.351 Y5.529 E0.01733
G1 X203.764 Y5.116 E0.01734
G1 X204.270 Y4.824 E0.01735
G1 X204.834 Y4.674 E0.01732
G1 X205.418 Y4.674 E0.01735
G1 X205.982 Y4.824 E0.01734
G1 X206.487 Y5.116 E0.01732
G1 X206.900 Y5.529 E0.01735
G1 X207.192 Y6.035 E0.01733
G1 X207.343 Y6.598 E0.01733
G1 X207.343 Y7.232 E0.01881
G1 X206.710 Y12.046 E0.14418
G1 X217.134 Y13.416 E0.31215
G1 X217.470 Y10.872 E0.07617
G1 X216.168 Y10.523 E0.04003
G1 X215.662 Y10.231 E0.01735
G1 X215.249 Y9.819 E0.01732
G1 X214.958 Y9.312 E0.01734
G1 X214.806 Y8.749 E0.01734
G1 X214.806 Y8.165 E0.01732
G1 X214.958 Y7.601 E0.01736
G1 X215.249 Y7.095 E0.01732
G1 X215.662 Y6.682 E0.01733
G1 X216.167 Y6.391 E0.01732
G1 X216.732 Y6.240 E0.01736
G1 X217.315 Y6.240 E0.01732
G1 X217.879 Y6.391 E0.01734
G1 X218.385 Y6.682 E0.01734
G1 X218.797 Y7.095 E0.01732
G1 X219.090 Y7.601 E0.01735
G1 X219.241 Y8.165 E0.01734
G1 X219.241 Y8.799 E0.01881
G1 X218.608 Y13.608 E0.14404
G1 X229.032 Y14.978 E0.31217
G1 X229.366 Y12.438 E0.07605
G1 X228.065 Y12.089 E0.04000
G1 X227.560 Y11.798 E0.01733
G1 X227.147 Y11.384 E0.01734
G1 X226.855 Y10.879 E0.01732
G1 X226.704 Y10.315 E0.01734
G1 X226.704 Y9.731 E0.01735
G1 X226.855 Y9.167 E0.01734
G1 X227.147 Y8.661 E0.01732
G1 X227.560 Y8.248 E0.01734
G1 X228.065 Y7.957 E0.01733
G1 X228.629 Y7.806 E0.01733
G1 X229.213 Y7.806 E0.01735
G1 X229.777 Y7.957 E0.01733
G1 X230.282 Y8.248 E0.01733
G1 X230.696 Y8.661 E0.01735
G1 X230.988 Y9.167 E0.01732
G1 X231.138 Y9.731 E0.01734
G1 X231.138 Y10.365 E0.01883
G1 X230.506 Y15.170 E0.14392
G1 X240.931 Y16.540 E0.31220
G1 X241.264 Y14.004 E0.07592
G1 X239.963 Y13.655 E0.04000
G1 X239.457 Y13.363 E0.01735
G1 X239.044 Y12.951 E0.01733
G1 X238.753 Y12.445 E0.01732
G1 X238.601 Y11.881 E0.01736
G1 X238.601 Y11.297 E0.01732
G1 X238.753 Y10.734 E0.01733
G1 X239.044 Y10.228 E0.01733
G1 X239.457 Y9.815 E0.01734
G1 X239.963 Y9.523 E0.01735
G1 X240.527 Y9.373 E0.01732
G1 X241.111 Y9.373 E0.01735
G1 X241.675 Y9.523 E0.01734
G1 X242.180 Y9.815 E0.01732
G1 X242.593 Y10.228 E0.01734
G1 X242.885 Y10.734 E0.01733
G1 X243.036 Y11.297 E0.01733
G1 X243.036 Y11.931 E0.01881
G1 X240.304 Y32.682 E0.62144
G1 X240.141 Y33.293 E0.01879
G1 X239.849 Y33.798 E0.01733
G1 X239.435 Y34.212 E0.01736
G1 X238.930 Y34.504 E0.01732
G1 X238.366 Y34.654 E0.01734
G1 X237.782 Y34.654 E0.01735
G1 X237.218 Y34.504 E0.01732
G1 X236.712 Y34.212 E0.01734
G1 X236.300 Y33.799 E0.01733
G1 X236.008 Y33.293 E0.01735
G1 X235.856 Y32.730 E0.01732
G1 X235.856 Y32.145 E0.01735
G1 X236.008 Y31.582 E0.01732
G1 X236.300 Y31.076 E0.01735
G1 X236.712 Y30.663 E0.01733
G1 X237.218 Y30.371 E0.01734
G1 X237.782 Y30.221 E0.01732
G1 X239.129 Y30.221 E0.04000
G1 X239.509 Y27.342 E0.08620
G1 X229.083 Y25.974 E0.31220
G1 X228.407 Y31.114 E0.15393
G1 X228.243 Y31.727 E0.01883
G1 X227.951 Y32.232 E0.01734
G1 X227.537 Y32.646 E0.01735
G1 X227.032 Y32.937 E0.01733
G1 X226.468 Y33.088 E0.01733
G1 X225.885 Y33.088 E0.01732
G1 X225.320 Y32.937 E0.01736
G1 X224.815 Y32.646 E0.01732
G1 X224.402 Y32.232 E0.01735
G1 X224.110 Y31.727 E0.01732
G1 X223.959 Y31.163 E0.01734
G1 X223.959 Y30.579 E0.01735
G1 X224.110 Y30.015 E0.01732
G1 X224.402 Y29.510 E0.01734
G1 X224.815 Y29.097 E0.01733
G1 X225.321 Y28.805 E0.01735
G1 X225.885 Y28.654 E0.01734
G1 X227.232 Y28.654 E0.04000
G1 X227.611 Y25.780 E0.08605
G1 X217.185 Y24.412 E0.31220
G1 X216.509 Y29.548 E0.15381
G1 X216.345 Y30.160 E0.01882
G1 X216.053 Y30.667 E0.01734
G1 X215.640 Y31.079 E0.01732
G1 X215.135 Y31.371 E0.01735
G1 X214.570 Y31.522 E0.01734
G1 X213.987 Y31.522 E0.01732
G1 X213.423 Y31.371 E0.01734
G1 X212.917 Y31.079 E0.01735
G1 X212.504 Y30.667 E0.01732
G1 X212.213 Y30.160 E0.01734
G1 X212.061 Y29.597 E0.01734
G1 X212.061 Y29.013 E0.01732
G1 X212.213 Y28.449 E0.01736
G1 X212.504 Y27.943 E0.01732
G1 X212.917 Y27.530 E0.01733
G1 X213.422 Y27.239 E0.01732
G1 X213.987 Y27.088 E0.01736
G1 X215.334 Y27.088 E0.04000
G1 X215.712 Y24.218 E0.08592
G1 X205.287 Y22.850 E0.31216
G1 X204.611 Y27.983 E0.15370
G1 X204.448 Y28.594 E0.01880
G1 X204.156 Y29.099 E0.01733
G1 X203.742 Y29.513 E0.01736
G1 X203.237 Y29.805 E0.01732
G1 X202.673 Y29.955 E0.01734
G1 X202.089 Y29.955 E0.01735
G1 X201.525 Y29.805 E0.01732
G1 X201.019 Y29.513 E0.01734
G1 X200.607 Y29.100 E0.01733
G1 X200.315 Y28.594 E0.01735
G1 X200.163 Y28.031 E0.01732
G1 X200.163 Y27.447 E0.01732
G1 X200.315 Y26.883 E0.01734
G1 X200.607 Y26.377 E0.01735
G1 X201.019 Y25.964 E0.01733
G1 X201.525 Y25.672 E0.01734
G1 X202.089 Y25.522 E0.01732
G1 X203.436 Y25.522 E0.04001
G1 X203.814 Y22.656 E0.08581
G1 X186.741 Y20.415 E0.51126
G1 X186.699 Y21.543 E0.03350
G1 X186.659 Y21.739 E0.00594
G1 X186.570 Y21.940 E0.00654
G1 X186.465 Y22.070 E0.00495
G1 X186.292 Y22.193 E0.00633
G1 X185.970 Y22.318 E0.01023
G1 X185.515 Y22.396 E0.01373
G1 X185.132 Y22.412 E0.01137
G1 X139.255 Y22.408 E1.36216
G1 X138.917 Y22.377 E0.01008
G1 X138.496 Y22.278 E0.01283
G1 X138.314 Y22.199 E0.00588
G1 X138.163 Y22.099 E0.00540
G1 X138.026 Y21.940 E0.00621
G1 X137.938 Y21.739 E0.00654
G1 X137.898 Y21.543 E0.00594
G1 X137.855 Y20.415 E0.03350
G1 X120.783 Y22.656 E0.51126
G1 X121.160 Y25.522 E0.08581
G1 X122.508 Y25.522 E0.04001
G1 X123.071 Y25.672 E0.01732
G1 X123.577 Y25.964 E0.01734
G1 X123.989 Y26.377 E0.01733
G1 X124.282 Y26.883 E0.01735
G1 X124.433 Y27.447 E0.01734
G1 X124.433 Y28.031 E0.01732
G1 X124.282 Y28.594 E0.01732
G1 X123.989 Y29.100 E0.01735
G1 X123.577 Y29.513 E0.01733
G1 X123.071 Y29.805 E0.01734
G1 X122.508 Y29.955 E0.01732
G1 X121.923 Y29.955 E0.01735
G1 X121.359 Y29.805 E0.01734
G1 X120.854 Y29.513 E0.01732
G1 X120.441 Y29.099 E0.01736
G1 X120.149 Y28.594 E0.01733
G1 X119.985 Y27.983 E0.01880
G1 X119.309 Y22.850 E0.15370
G1 X108.885 Y24.218 E0.31216
G1 X109.262 Y27.088 E0.08592
G1 X110.609 Y27.088 E0.04000
G1 X111.174 Y27.239 E0.01736
G1 X111.679 Y27.530 E0.01732
G1 X112.092 Y27.943 E0.01733
G1 X112.384 Y28.449 E0.01732
G1 X112.535 Y29.013 E0.01736
G1 X112.535 Y29.597 E0.01732
G1 X112.384 Y30.160 E0.01734
G1 X112.092 Y30.667 E0.01734
G1 X111.679 Y31.079 E0.01732
G1 X111.174 Y31.371 E0.01735
G1 X110.609 Y31.522 E0.01734
G1 X110.026 Y31.522 E0.01732
G1 X109.462 Y31.371 E0.01734
G1 X108.956 Y31.079 E0.01735
G1 X108.543 Y30.667 E0.01732
G1 X108.252 Y30.160 E0.01734
G1 X108.087 Y29.548 E0.01882
G1 X107.411 Y24.412 E0.15381
G1 X96.987 Y25.780 E0.31215
G1 X97.364 Y28.654 E0.08604
G1 X98.711 Y28.654 E0.04001
G1 X99.276 Y28.805 E0.01734
G1 X99.781 Y29.097 E0.01735
G1 X100.195 Y29.510 E0.01733
G1 X100.487 Y30.015 E0.01734
G1 X100.637 Y30.579 E0.01732
G1 X100.637 Y31.163 E0.01735
G1 X100.487 Y31.727 E0.01734
G1 X100.195 Y32.232 E0.01732
G1 X99.781 Y32.646 E0.01735
G1 X99.276 Y32.937 E0.01732
G1 X98.711 Y33.088 E0.01736
G1 X98.128 Y33.088 E0.01732
G1 X97.564 Y32.937 E0.01733
G1 X97.059 Y32.646 E0.01733
G1 X96.646 Y32.232 E0.01735
G1 X96.354 Y31.727 E0.01734
G1 X96.189 Y31.114 E0.01883
G1 X95.513 Y25.974 E0.15393
G1 X85.087 Y27.342 E0.31221
G1 X85.468 Y30.221 E0.08620
G1 X86.815 Y30.221 E0.04000
G1 X87.378 Y30.371 E0.01732
G1 X87.884 Y30.663 E0.01734
G1 X88.296 Y31.076 E0.01733
G1 X88.589 Y31.582 E0.01735
G1 X88.740 Y32.145 E0.01732
G1 X88.740 Y32.730 E0.01735
G1 X88.589 Y33.293 E0.01732
G1 X88.296 Y33.799 E0.01735
G1 X87.884 Y34.212 E0.01733
G1 X87.378 Y34.504 E0.01734
G1 X86.815 Y34.654 E0.01732
G1 X86.230 Y34.654 E0.01735
G1 X85.666 Y34.504 E0.01734
G1 X85.161 Y34.212 E0.01732
G1 X84.748 Y33.798 E0.01736
G1 X84.456 Y33.293 E0.01733
G1 X84.292 Y32.682 E0.01879
G1 X81.560 Y11.931 E0.62144
G1 X81.560 Y11.297 E0.01881
G1 X81.712 Y10.734 E0.01733
G1 X82.003 Y10.228 E0.01733
G1 X82.416 Y9.815 E0.01735
G1 X82.921 Y9.523 E0.01732
G1 X83.485 Y9.373 E0.01734
G1 X84.070 Y9.373 E0.01735
G1 X84.633 Y9.523 E0.01732
G1 X85.139 Y9.815 E0.01735
G1 X85.552 Y10.228 E0.01734
G1 X85.844 Y10.734 E0.01733
G1 X85.995 Y11.297 E0.01733
G1 X85.995 Y11.881 E0.01732
G1 X85.844 Y12.445 E0.01736
G1 X85.552 Y12.951 E0.01732
G1 X85.140 Y13.363 E0.01733
G1 X84.633 Y13.655 E0.01735
G1 X83.332 Y14.004 E0.04000
G1 X83.665 Y16.540 E0.07592
G1 X94.091 Y15.170 E0.31220
G1 X93.458 Y10.365 E0.14391
G1 X93.458 Y9.731 E0.01883
G1 X93.609 Y9.167 E0.01734
G1 X93.901 Y8.661 E0.01732
G1 X94.314 Y8.248 E0.01735
G1 X94.819 Y7.957 E0.01733
G1 X95.383 Y7.806 E0.01733
G1 X95.967 Y7.806 E0.01735
G1 X96.531 Y7.957 E0.01733
G1 X97.036 Y8.248 E0.01733
G1 X97.450 Y8.661 E0.01734
G1 X97.742 Y9.167 E0.01732
G1 X97.892 Y9.731 E0.01734
G1 X97.892 Y10.315 E0.01735
G1 X97.742 Y10.879 E0.01734
G1 X97.450 Y11.384 E0.01732
G1 X97.036 Y11.798 E0.01734
G1 X96.531 Y12.089 E0.01733
G1 X95.230 Y12.438 E0.04000
G1 X95.564 Y14.978 E0.07605
G1 X105.989 Y13.608 E0.31217
G1 X105.355 Y8.799 E0.14404
G1 X105.355 Y8.165 E0.01881
G1 X105.507 Y7.601 E0.01734
G1 X105.799 Y7.095 E0.01735
G1 X106.211 Y6.682 E0.01732
G1 X106.717 Y6.391 E0.01734
G1 X107.281 Y6.240 E0.01734
G1 X107.864 Y6.240 E0.01732
G1 X108.429 Y6.391 E0.01736
G1 X108.934 Y6.682 E0.01732
G1 X109.347 Y7.095 E0.01733
G1 X109.639 Y7.601 E0.01732
G1 X109.790 Y8.165 E0.01736
G1 X109.790 Y8.749 E0.01732
G1 X109.639 Y9.312 E0.01734
G1 X109.347 Y9.819 E0.01734
G1 X108.934 Y10.231 E0.01732
G1 X108.429 Y10.523 E0.01735
G1 X107.127 Y10.872 E0.04003
G1 X107.463 Y13.416 E0.07617
G1 X117.887 Y12.046 E0.31215
G1 X117.253 Y7.232 E0.14418
G1 X117.253 Y6.598 E0.01881
G1 X117.405 Y6.035 E0.01733
G1 X117.696 Y5.529 E0.01733
G1 X118.109 Y5.116 E0.01735
G1 X118.614 Y4.824 E0.01732
G1 X119.178 Y4.674 E0.01734
G1 X119.763 Y4.674 E0.01735
G1 X120.326 Y4.824 E0.01732
G1 X120.832 Y5.116 E0.01735
G1 X121.245 Y5.529 E0.01734
G1 X121.537 Y6.035 E0.01733
G1 X121.688 Y6.598 E0.01733
G1 X121.688 Y7.182 E0.01732
G1 X121.537 Y7.746 E0.01736
G1 X121.245 Y8.252 E0.01732
G1 X120.832 Y8.665 E0.01734
G1 X120.326 Y8.957 E0.01735
G1 X119.025 Y9.305 E0.03999
G1 X119.360 Y11.854 E0.07634
G1 X140.126 Y9.127 E0.62186
G1 X141.526 Y5.749 E0.10857
G1 X141.880 Y5.286 E0.01732
G1 X142.344 Y4.931 E0.01733
G1 X142.883 Y4.707 E0.01733
G1 X143.512 Y4.625 E0.01883
G1 X181.085 Y4.625 E1.11559
G1 X181.713 Y4.707 E0.01883
G1 X182.253 Y4.931 E0.01733
G1 X182.716 Y5.286 E0.01733
G1 X183.071 Y5.749 E0.01732
G1 X184.447 Y9.072 E0.10679
G1 X184.721 Y8.800 F21000.000
G1 F1200.000
G1 X204.929 Y11.453 E0.60514
G1 X205.177 Y9.569 E0.05644
G1 X204.132 Y9.290 E0.03209
G1 X203.545 Y8.950 E0.02015
G1 X203.065 Y8.471 E0.02013
G1 X202.727 Y7.884 E0.02011
G1 X202.551 Y7.229 E0.02015
G1 X202.551 Y6.551 E0.02012
G1 X202.727 Y5.897 E0.02012
G1 X203.065 Y5.310 E0.02011
G1 X203.545 Y4.831 E0.02013
G1 X204.132 Y4.491 E0.02015
G1 X204.787 Y4.316 E0.02011
G1 X205.465 Y4.316 E0.02013
G1 X206.120 Y4.491 E0.02013
G1 X206.706 Y4.830 E0.02012
G1 X207.186 Y5.310 E0.02014
G1 X207.524 Y5.897 E0.02011
G1 X207.700 Y6.551 E0.02012
G1 X207.700 Y7.255 E0.02090
G1 X207.110 Y11.739 E0.13427
G1 X216.826 Y13.015 E0.29096
G1 X217.075 Y11.136 E0.05628
G1 X216.030 Y10.856 E0.03212
G1 X215.443 Y10.516 E0.02013
G1 X214.963 Y10.038 E0.02011
G1 X214.625 Y9.450 E0.02013
G1 X214.449 Y8.796 E0.02012
G1 X214.449 Y8.118 E0.02012
G1 X214.625 Y7.463 E0.02015
G1 X214.963 Y6.876 E0.02011
G1 X215.443 Y6.397 E0.02013
G1 X216.030 Y6.058 E0.02011
G1 X216.685 Y5.882 E0.02015
G1 X217.362 Y5.882 E0.02012
G1 X218.017 Y6.058 E0.02012
G1 X218.605 Y6.397 E0.02013
G1 X219.083 Y6.876 E0.02011
G1 X219.423 Y7.463 E0.02013
G1 X219.598 Y8.118 E0.02014
G1 X219.598 Y8.822 E0.02090
G1 X219.008 Y13.301 E0.13413
G1 X228.725 Y14.577 E0.29096
G1 X228.972 Y12.702 E0.05615
G1 X227.928 Y12.422 E0.03210
G1 X227.341 Y12.083 E0.02011
G1 X226.861 Y11.604 E0.02014
G1 X226.522 Y11.017 E0.02012
G1 X226.347 Y10.362 E0.02013
G1 X226.347 Y9.684 E0.02013
G1 X226.522 Y9.029 E0.02013
G1 X226.861 Y8.442 E0.02012
G1 X227.341 Y7.963 E0.02014
G1 X227.928 Y7.624 E0.02011
G1 X228.582 Y7.448 E0.02012
G1 X229.260 Y7.448 E0.02014
G1 X229.915 Y7.624 E0.02012
G1 X230.502 Y7.963 E0.02011
G1 X230.981 Y8.442 E0.02014
G1 X231.320 Y9.029 E0.02012
G1 X231.495 Y9.684 E0.02013
G1 X231.495 Y10.388 E0.02091
G1 X230.906 Y14.863 E0.13400
G1 X240.624 Y16.139 E0.29100
G1 X240.869 Y14.268 E0.05603
G1 X239.825 Y13.988 E0.03209
G1 X239.238 Y13.649 E0.02014
G1 X238.758 Y13.170 E0.02013
G1 X238.420 Y12.583 E0.02011
G1 X238.244 Y11.928 E0.02015
