; generated by PrusaSlicer 2.2.0+ on 2020-04-06 at 03:11:42 UTC

; 

; external perimeters extrusion width = 0.40mm
; perimeters extrusion width = 0.40mm
; infill extrusion width = 0.40mm
; solid infill extrusion width = 0.40mm
; top infill extrusion width = 0.40mm
; first layer extrusion width = 0.40mm

M73 P0 R38
M201 X2000 Y2000 Z150 E10000 ; sets maximum accelerations, mm/sec^2
M203 X450 Y450 Z12 E60 ; sets maximum feedrates, mm/sec
M204 P1250 R2000 T1250 ; sets acceleration (P, T) and retract acceleration (R), mm/sec^2
M205 X12.00 Y12.00 Z0.40 E4.50 ; sets the jerk limits, mm/sec
M205 S0 T0 ; sets the minimum extruding and travel feed rate, mm/sec
M107
G90 ; use absolute coordinates
M83 ; extruder relative mode
M104 S210 ; set extruder temp
M140 S40 ; set bed temp
M190 S40 ; wait for bed temp
M109 S210 ; wait for extruder temp
G28
G1 Y-3.0 F1000.0 ; go outside print area
G92 E0.0
G1 X60.0 E9.0 F1000.0 ; intro line
M73 P0 R38
G1 X100.0 E12.5 F1000.0 ; intro line
G92 E0.0
;M221 S95
G21 ; set units to millimeters
G90 ; use absolute coordinates
M83 ; use relative distances for extrusion
M900 K45 ; Filament gcode
;BEFORE_LAYER_CHANGE
G92 E0.0
;0.1


G1 E-4.00000 F2400.00000
G1 Z0.200 F21000.000
;AFTER_LAYER_CHANGE
;0.1
G1 X140.779 Y100.779
G1 Z0.100
G1 E4.00000 F2400.00000
G1 F1200.000
G1 X159.221 Y100.779 E0.29025
G1 X159.221 Y119.221 E0.29025
G1 X140.779 Y119.221 E0.29025
G1 X140.779 Y100.839 E0.28931
G1 X140.400 Y100.400 F21000.000
G1 F1200.000
G1 X159.600 Y100.400 E0.30217
G1 X159.600 Y119.600 E0.30217
G1 X140.400 Y119.600 E0.30217
G1 X140.400 Y100.460 E0.30122
G1 X140.786 Y100.504 F21000.000
G1 F16800.000
G1 X159.600 Y100.400 E-2.60573
G1 X159.600 Y109.200 E-1.19427
G1 E-0.20000 F2400.00000
G1 Z0.300 F21000.000
G1 X159.108 Y101.660
G1 Z0.100
G1 E4.00000 F2400.00000
G1 F1200.000
G1 X158.511 Y101.062 E0.01333
G1 X157.974 Y101.062 E0.00847
G1 X158.938 Y102.026 E0.02151
G1 X158.938 Y102.563 E0.00847
G1 X157.437 Y101.062 E0.03349
G1 X156.900 Y101.062 E0.00847
G1 X158.938 Y103.100 E0.04548
G1 X158.938 Y103.637 E0.00847
G1 X156.363 Y101.062 E0.05746
G1 X155.826 Y101.062 E0.00847
G1 X158.938 Y104.174 E0.06944
G1 X158.938 Y104.711 E0.00847
G1 X155.289 Y101.062 E0.08143
G1 X154.753 Y101.062 E0.00847
G1 X158.938 Y105.247 E0.09341
G1 X158.938 Y105.784 E0.00847
G1 X154.216 Y101.062 E0.10539
G1 X153.679 Y101.062 E0.00847
G1 X158.938 Y106.321 E0.11738
G1 X158.938 Y106.858 E0.00847
G1 X153.142 Y101.062 E0.12936
G1 X152.605 Y101.062 E0.00847
G1 X158.938 Y107.395 E0.14134
G1 X158.938 Y107.932 E0.00847
G1 X152.068 Y101.062 E0.15333
G1 X151.531 Y101.062 E0.00847
G1 X158.938 Y108.469 E0.16531
G1 X158.938 Y109.005 E0.00847
G1 X150.995 Y101.062 E0.17729
G1 X150.458 Y101.062 E0.00847
G1 X158.938 Y109.542 E0.18928
G1 X158.938 Y110.079 E0.00847
G1 X149.921 Y101.062 E0.20126
G1 X149.384 Y101.062 E0.00847
G1 X158.938 Y110.616 E0.21324
G1 X158.938 Y111.153 E0.00847
G1 X148.847 Y101.062 E0.22523
G1 X148.310 Y101.062 E0.00847
G1 X158.938 Y111.690 E0.23721
G1 X158.938 Y112.227 E0.00847
G1 X147.773 Y101.062 E0.24919
G1 X147.236 Y101.062 E0.00847
G1 X158.938 Y112.764 E0.26118
G1 X158.938 Y113.300 E0.00847
G1 X146.700 Y101.062 E0.27316
G1 X146.163 Y101.062 E0.00847
G1 X158.938 Y113.837 E0.28514
G1 X158.938 Y114.374 E0.00847
G1 X145.626 Y101.062 E0.29713
G1 X145.089 Y101.062 E0.00847
G1 X158.938 Y114.911 E0.30911
G1 X158.938 Y115.448 E0.00847
G1 X144.552 Y101.062 E0.32109
G1 X144.015 Y101.062 E0.00847
G1 X158.938 Y115.985 E0.33308
G1 X158.938 Y116.522 E0.00847
G1 X143.478 Y101.062 E0.34506
G1 X142.941 Y101.062 E0.00847
G1 X158.938 Y117.059 E0.35704
G1 X158.938 Y117.595 E0.00847
G1 X142.405 Y101.062 E0.36903
G1 X141.868 Y101.062 E0.00847
G1 X158.938 Y118.132 E0.38101
G1 X158.938 Y118.669 E0.00847
G1 X141.331 Y101.062 E0.39299
G1 X141.062 Y101.062 E0.00424
G1 X141.062 Y101.331 E0.00424
G1 X158.669 Y118.938 E0.39299
G1 X158.132 Y118.938 E0.00847
G1 X141.062 Y101.868 E0.38101
G1 X141.062 Y102.405 E0.00847
G1 X157.595 Y118.938 E0.36902
G1 X157.058 Y118.938 E0.00847
G1 X141.062 Y102.942 E0.35704
G1 X141.062 Y103.478 E0.00847
G1 X156.522 Y118.938 E0.34506
G1 X155.985 Y118.938 E0.00847
G1 X141.062 Y104.015 E0.33307
G1 X141.062 Y104.552 E0.00847
G1 X155.448 Y118.938 E0.32109
G1 X154.911 Y118.938 E0.00847
G1 X141.062 Y105.089 E0.30911
G1 X141.062 Y105.626 E0.00847
G1 X154.374 Y118.938 E0.29712
G1 X153.837 Y118.938 E0.00847
G1 X141.062 Y106.163 E0.28514
G1 X141.062 Y106.700 E0.00847
G1 X153.300 Y118.938 E0.27316
G1 X152.763 Y118.938 E0.00847
G1 X141.062 Y107.237 E0.26117
G1 X141.062 Y107.773 E0.00847
G1 X152.227 Y118.938 E0.24919
G1 X151.690 Y118.938 E0.00847
G1 X141.062 Y108.310 E0.23721
G1 X141.062 Y108.847 E0.00847
G1 X151.153 Y118.938 E0.22522
G1 X150.616 Y118.938 E0.00847
G1 X141.062 Y109.384 E0.21324
G1 X141.062 Y109.921 E0.00847
G1 X150.079 Y118.938 E0.20126
G1 X149.542 Y118.938 E0.00847
G1 X141.062 Y110.458 E0.18927
G1 X141.062 Y110.995 E0.00847
G1 X149.005 Y118.938 E0.17729
G1 X148.469 Y118.938 E0.00847
G1 X141.062 Y111.531 E0.16531
G1 X141.062 Y112.068 E0.00847
G1 X147.932 Y118.938 E0.15332
G1 X147.395 Y118.938 E0.00847
G1 X141.062 Y112.605 E0.14134
G1 X141.062 Y113.142 E0.00847
G1 X146.858 Y118.938 E0.12936
G1 X146.321 Y118.938 E0.00847
G1 X141.062 Y113.679 E0.11737
G1 X141.062 Y114.216 E0.00847
G1 X145.784 Y118.938 E0.10539
G1 X145.247 Y118.938 E0.00847
G1 X141.062 Y114.753 E0.09341
G1 X141.062 Y115.290 E0.00847
G1 X144.710 Y118.938 E0.08142
G1 X144.174 Y118.938 E0.00847
G1 X141.062 Y115.826 E0.06944
G1 X141.062 Y116.363 E0.00847
G1 X143.637 Y118.938 E0.05746
G1 X143.100 Y118.938 E0.00847
G1 X141.062 Y116.900 E0.04547
G1 X141.062 Y117.437 E0.00847
G1 X142.563 Y118.938 E0.03349
G1 X142.026 Y118.938 E0.00847
G1 X141.062 Y117.974 E0.02151
G1 X141.062 Y118.511 E0.00847
G1 X141.660 Y119.108 E0.01333
;BEFORE_LAYER_CHANGE
G92 E0.0
;0.3


G1 F16800.000
G1 X141.062 Y118.511 E-0.11460
G1 X141.062 Y117.974 E-0.07286
G1 X142.026 Y118.938 E-0.18494
G1 X142.563 Y118.938 E-0.07286
G1 X141.062 Y117.437 E-0.28798
G1 X141.062 Y116.900 E-0.07286
G1 X143.100 Y118.938 E-0.39103
G1 X143.637 Y118.938 E-0.07286
G1 X141.062 Y116.363 E-0.49407
G1 X141.062 Y115.826 E-0.07286
G1 X144.174 Y118.938 E-0.59711
G1 X144.710 Y118.938 E-0.07286
G1 X141.062 Y115.290 E-0.70015
G1 X141.062 Y114.753 E-0.07286
G1 X143.772 Y117.463 E-0.52009
G1 E-0.20000 F2400.00000
G1 Z0.300 F21000.000
;AFTER_LAYER_CHANGE
;0.3
G1 X140.557 Y100.557
G1 E4.00000 F2400.00000
G1 F1800.000
G1 X159.443 Y100.557 E0.56075
G1 X159.443 Y119.443 E0.56075
G1 X140.557 Y119.443 E0.56075
G1 X140.557 Y100.617 E0.55896
G1 X140.200 Y100.200 F21000.000
G1 F1800.000
G1 X159.800 Y100.200 E0.58195
M73 P2 R37
G1 X159.800 Y119.800 E0.58195
G1 X140.200 Y119.800 E0.58195
G1 X140.200 Y100.260 E0.58017
G1 X140.586 Y100.304 F21000.000
G1 X158.613 Y119.336
G1 F2400.000
G1 X159.175 Y118.774 E0.02363
G1 X159.175 Y118.268 E0.01503
G1 X158.268 Y119.175 E0.03813
G1 X157.763 Y119.175 E0.01503
G1 X159.175 Y117.763 E0.05939
G1 X159.175 Y117.257 E0.01503
G1 X157.257 Y119.175 E0.08064
G1 X156.751 Y119.175 E0.01503
G1 X159.175 Y116.751 E0.10190
G1 X159.175 Y116.246 E0.01503
G1 X156.246 Y119.175 E0.12316
G1 X155.740 Y119.175 E0.01503
G1 X159.175 Y115.740 E0.14441
G1 X159.175 Y115.235 E0.01503
G1 X155.235 Y119.175 E0.16567
G1 X154.729 Y119.175 E0.01503
G1 X159.175 Y114.729 E0.18692
G1 X159.175 Y114.223 E0.01503
G1 X154.223 Y119.175 E0.20818
G1 X153.718 Y119.175 E0.01503
G1 X159.175 Y113.718 E0.22944
G1 X159.175 Y113.212 E0.01503
G1 X153.212 Y119.175 E0.25069
G1 X152.706 Y119.175 E0.01503
G1 X159.175 Y112.706 E0.27195
G1 X159.175 Y112.201 E0.01503
G1 X152.201 Y119.175 E0.29320
G1 X151.695 Y119.175 E0.01503
G1 X159.175 Y111.695 E0.31446
G1 X159.175 Y111.190 E0.01503
G1 X151.190 Y119.175 E0.33572
G1 X150.684 Y119.175 E0.01503
G1 X159.175 Y110.684 E0.35697
G1 X159.175 Y110.178 E0.01503
G1 X150.178 Y119.175 E0.37823
G1 X149.673 Y119.175 E0.01503
G1 X159.175 Y109.673 E0.39948
G1 X159.175 Y109.167 E0.01503
G1 X149.167 Y119.175 E0.42074
G1 X148.662 Y119.175 E0.01503
G1 X159.175 Y108.662 E0.44200
G1 X159.175 Y108.156 E0.01503
G1 X148.156 Y119.175 E0.46325
G1 X147.650 Y119.175 E0.01503
G1 X159.175 Y107.650 E0.48451
G1 X159.175 Y107.145 E0.01503
G1 X147.145 Y119.175 E0.50576
G1 X146.639 Y119.175 E0.01503
G1 X159.175 Y106.639 E0.52702
G1 X159.175 Y106.134 E0.01503
G1 X146.134 Y119.175 E0.54828
G1 X145.628 Y119.175 E0.01503
G1 X159.175 Y105.628 E0.56953
G1 X159.175 Y105.122 E0.01503
G1 X145.122 Y119.175 E0.59079
G1 X144.617 Y119.175 E0.01503
G1 X159.175 Y104.617 E0.61204
G1 X159.175 Y104.111 E0.01503
G1 X144.111 Y119.175 E0.63330
G1 X143.606 Y119.175 E0.01503
G1 X159.175 Y103.606 E0.65456
G1 X159.175 Y103.100 E0.01503
G1 X143.100 Y119.175 E0.67581
G1 X142.594 Y119.175 E0.01503
G1 X159.175 Y102.594 E0.69707
G1 X159.175 Y102.089 E0.01503
G1 X142.089 Y119.175 E0.71832
G1 X141.583 Y119.175 E0.01503
G1 X159.175 Y101.583 E0.73958
G1 X159.175 Y101.078 E0.01503
G1 X141.078 Y119.175 E0.76084
G1 X140.825 Y119.175 E0.00751
G1 X140.825 Y118.922 E0.00752
G1 X158.922 Y100.825 E0.76083
G1 X158.417 Y100.825 E0.01503
G1 X140.825 Y118.417 E0.73958
G1 X140.825 Y117.911 E0.01503
G1 X157.911 Y100.825 E0.71832
G1 X157.405 Y100.825 E0.01503
G1 X140.825 Y117.405 E0.69707
G1 X140.825 Y116.900 E0.01503
G1 X156.900 Y100.825 E0.67581
G1 X156.394 Y100.825 E0.01503
G1 X140.825 Y116.394 E0.65455
G1 X140.825 Y115.889 E0.01503
G1 X155.889 Y100.825 E0.63330
G1 X155.383 Y100.825 E0.01503
G1 X140.825 Y115.383 E0.61204
G1 X140.825 Y114.877 E0.01503
G1 X154.877 Y100.825 E0.59078
G1 X154.372 Y100.825 E0.01503
G1 X140.825 Y114.372 E0.56953
G1 X140.825 Y113.866 E0.01503
G1 X153.866 Y100.825 E0.54827
G1 X153.361 Y100.825 E0.01503
G1 X140.825 Y113.361 E0.52702
G1 X140.825 Y112.855 E0.01503
G1 X152.855 Y100.825 E0.50576
G1 X152.349 Y100.825 E0.01503
G1 X140.825 Y112.349 E0.48450
G1 X140.825 Y111.844 E0.01503
G1 X151.844 Y100.825 E0.46325
G1 X151.338 Y100.825 E0.01503
G1 X140.825 Y111.338 E0.44199
G1 X140.825 Y110.833 E0.01503
G1 X150.833 Y100.825 E0.42074
G1 X150.327 Y100.825 E0.01503
G1 X140.825 Y110.327 E0.39948
G1 X140.825 Y109.821 E0.01503
G1 X149.821 Y100.825 E0.37822
G1 X149.316 Y100.825 E0.01503
G1 X140.825 Y109.316 E0.35697
G1 X140.825 Y108.810 E0.01503
G1 X148.810 Y100.825 E0.33571
G1 X148.305 Y100.825 E0.01503
G1 X140.825 Y108.305 E0.31446
G1 X140.825 Y107.799 E0.01503
G1 X147.799 Y100.825 E0.29320
G1 X147.293 Y100.825 E0.01503
G1 X140.825 Y107.293 E0.27194
G1 X140.825 Y106.788 E0.01503
G1 X146.788 Y100.825 E0.25069
G1 X146.282 Y100.825 E0.01503
G1 X140.825 Y106.282 E0.22943
G1 X140.825 Y105.777 E0.01503
G1 X145.777 Y100.825 E0.20818
G1 X145.271 Y100.825 E0.01503
G1 X140.825 Y105.271 E0.18692
G1 X140.825 Y104.765 E0.01503
G1 X144.765 Y100.825 E0.16566
G1 X144.260 Y100.825 E0.01503
G1 X140.825 Y104.260 E0.14441
G1 X140.825 Y103.754 E0.01503
G1 X143.754 Y100.825 E0.12315
G1 X143.249 Y100.825 E0.01503
G1 X140.825 Y103.249 E0.10190
G1 X140.825 Y102.743 E0.01503
G1 X142.743 Y100.825 E0.08064
G1 X142.237 Y100.825 E0.01503
G1 X140.825 Y102.237 E0.05938
G1 X140.825 Y101.732 E0.01503
G1 X141.732 Y100.825 E0.03813
G1 X141.226 Y100.825 E0.01503
G1 X140.664 Y101.387 E0.02363
;BEFORE_LAYER_CHANGE
G92 E0.0
;0.5


G1 F16800.000
G1 X141.226 Y100.825 E-0.10786
G1 X141.732 Y100.825 E-0.06862
G1 X140.825 Y101.732 E-0.17406
G1 X140.825 Y102.237 E-0.06862
G1 X142.237 Y100.825 E-0.27110
G1 X142.743 Y100.825 E-0.06862
G1 X140.825 Y102.743 E-0.36814
G1 X140.825 Y103.249 E-0.06862
G1 X143.249 Y100.825 E-0.46518
G1 X143.754 Y100.825 E-0.06862
G1 X140.825 Y103.754 E-0.56222
G1 X140.825 Y104.260 E-0.06862
G1 X144.260 Y100.825 E-0.65926
G1 X144.765 Y100.825 E-0.06862
G1 X141.057 Y104.534 E-0.71184
G1 E-0.20000 F2400.00000
G1 Z0.500 F21000.000
;AFTER_LAYER_CHANGE
;0.5
G1 X140.557 Y100.557
G1 E4.00000 F2400.00000
G1 F1800.000
G1 X159.443 Y100.557 E0.56075
G1 X159.443 Y119.443 E0.56075
G1 X140.557 Y119.443 E0.56075
G1 X140.557 Y100.617 E0.55896
G1 X140.200 Y100.200 F21000.000
G1 F1800.000
G1 X159.800 Y100.200 E0.58195
G1 X159.800 Y119.800 E0.58195
G1 X140.200 Y119.800 E0.58195
G1 X140.200 Y100.260 E0.58017
G1 X140.586 Y100.304 F21000.000
G1 X159.336 Y101.387
G1 F2400.000
G1 X158.774 Y100.825 E0.02363
G1 X158.268 Y100.825 E0.01503
G1 X159.175 Y101.732 E0.03813
G1 X159.175 Y102.237 E0.01503
G1 X157.763 Y100.825 E0.05939
G1 X157.257 Y100.825 E0.01503
G1 X159.175 Y102.743 E0.08064
G1 X159.175 Y103.249 E0.01503
G1 X156.751 Y100.825 E0.10190
G1 X156.246 Y100.825 E0.01503
G1 X159.175 Y103.754 E0.12316
G1 X159.175 Y104.260 E0.01503
G1 X155.740 Y100.825 E0.14441
G1 X155.235 Y100.825 E0.01503
G1 X159.175 Y104.765 E0.16567
G1 X159.175 Y105.271 E0.01503
G1 X154.729 Y100.825 E0.18692
G1 X154.223 Y100.825 E0.01503
G1 X159.175 Y105.777 E0.20818
G1 X159.175 Y106.282 E0.01503
G1 X153.718 Y100.825 E0.22944
G1 X153.212 Y100.825 E0.01503
G1 X159.175 Y106.788 E0.25069
G1 X159.175 Y107.294 E0.01503
G1 X152.706 Y100.825 E0.27195
G1 X152.201 Y100.825 E0.01503
G1 X159.175 Y107.799 E0.29320
G1 X159.175 Y108.305 E0.01503
G1 X151.695 Y100.825 E0.31446
G1 X151.190 Y100.825 E0.01503
G1 X159.175 Y108.810 E0.33572
G1 X159.175 Y109.316 E0.01503
G1 X150.684 Y100.825 E0.35697
G1 X150.178 Y100.825 E0.01503
G1 X159.175 Y109.822 E0.37823
G1 X159.175 Y110.327 E0.01503
G1 X149.673 Y100.825 E0.39948
G1 X149.167 Y100.825 E0.01503
G1 X159.175 Y110.833 E0.42074
G1 X159.175 Y111.338 E0.01503
G1 X148.662 Y100.825 E0.44200
G1 X148.156 Y100.825 E0.01503
G1 X159.175 Y111.844 E0.46325
G1 X159.175 Y112.350 E0.01503
G1 X147.650 Y100.825 E0.48451
G1 X147.145 Y100.825 E0.01503
G1 X159.175 Y112.855 E0.50576
G1 X159.175 Y113.361 E0.01503
G1 X146.639 Y100.825 E0.52702
G1 X146.134 Y100.825 E0.01503
G1 X159.175 Y113.866 E0.54828
G1 X159.175 Y114.372 E0.01503
G1 X145.628 Y100.825 E0.56953
G1 X145.122 Y100.825 E0.01503
G1 X159.175 Y114.878 E0.59079
G1 X159.175 Y115.383 E0.01503
G1 X144.617 Y100.825 E0.61204
G1 X144.111 Y100.825 E0.01503
G1 X159.175 Y115.889 E0.63330
G1 X159.175 Y116.394 E0.01503
G1 X143.606 Y100.825 E0.65456
G1 X143.100 Y100.825 E0.01503
G1 X159.175 Y116.900 E0.67581
G1 X159.175 Y117.406 E0.01503
G1 X142.594 Y100.825 E0.69707
G1 X142.089 Y100.825 E0.01503
G1 X159.175 Y117.911 E0.71832
G1 X159.175 Y118.417 E0.01503
G1 X141.583 Y100.825 E0.73958
G1 X141.078 Y100.825 E0.01503
G1 X159.175 Y118.922 E0.76084
G1 X159.175 Y119.175 E0.00751
G1 X158.922 Y119.175 E0.00752
G1 X140.825 Y101.078 E0.76083
G1 X140.825 Y101.583 E0.01503
G1 X158.417 Y119.175 E0.73958
G1 X157.911 Y119.175 E0.01503
G1 X140.825 Y102.089 E0.71832
G1 X140.825 Y102.595 E0.01503
G1 X157.405 Y119.175 E0.69707
G1 X156.900 Y119.175 E0.01503
G1 X140.825 Y103.100 E0.67581
G1 X140.825 Y103.606 E0.01503
G1 X156.394 Y119.175 E0.65455
G1 X155.889 Y119.175 E0.01503
G1 X140.825 Y104.111 E0.63330
G1 X140.825 Y104.617 E0.01503
G1 X155.383 Y119.175 E0.61204
G1 X154.877 Y119.175 E0.01503
G1 X140.825 Y105.123 E0.59078
G1 X140.825 Y105.628 E0.01503
G1 X154.372 Y119.175 E0.56953
G1 X153.866 Y119.175 E0.01503
G1 X140.825 Y106.134 E0.54827
G1 X140.825 Y106.639 E0.01503
G1 X153.361 Y119.175 E0.52702
G1 X152.855 Y119.175 E0.01503
G1 X140.825 Y107.145 E0.50576
G1 X140.825 Y107.651 E0.01503
G1 X152.349 Y119.175 E0.48450
G1 X151.844 Y119.175 E0.01503
G1 X140.825 Y108.156 E0.46325
G1 X140.825 Y108.662 E0.01503
G1 X151.338 Y119.175 E0.44199
G1 X150.833 Y119.175 E0.01503
G1 X140.825 Y109.167 E0.42074
G1 X140.825 Y109.673 E0.01503
G1 X150.327 Y119.175 E0.39948
G1 X149.821 Y119.175 E0.01503
G1 X140.825 Y110.179 E0.37822
G1 X140.825 Y110.684 E0.01503
G1 X149.316 Y119.175 E0.35697
G1 X148.810 Y119.175 E0.01503
G1 X140.825 Y111.190 E0.33571
G1 X140.825 Y111.695 E0.01503
G1 X148.305 Y119.175 E0.31446
G1 X147.799 Y119.175 E0.01503
G1 X140.825 Y112.201 E0.29320
G1 X140.825 Y112.707 E0.01503
G1 X147.293 Y119.175 E0.27194
G1 X146.788 Y119.175 E0.01503
G1 X140.825 Y113.212 E0.25069
G1 X140.825 Y113.718 E0.01503
G1 X146.282 Y119.175 E0.22943
G1 X145.777 Y119.175 E0.01503
G1 X140.825 Y114.223 E0.20818
G1 X140.825 Y114.729 E0.01503
G1 X145.271 Y119.175 E0.18692
M73 P5 R36
G1 X144.765 Y119.175 E0.01503
