; generated by PrusaSlicer 2.2.0+ on 2020-03-28 at 02:15:03 UTC

; 

; external perimeters extrusion width = 0.45mm
; perimeters extrusion width = 0.45mm
; infill extrusion width = 0.45mm
; solid infill extrusion width = 0.45mm
; top infill extrusion width = 0.45mm
; first layer extrusion width = 0.42mm

M201 X500 Y500 Z100 E5000 ; sets maximum accelerations, mm/sec^2
M203 X500 Y500 Z10 E60 ; sets maximum feedrates, mm/sec
M204 P500 R1000 T500 ; sets acceleration (P, T) and retract acceleration (R), mm/sec^2
M205 X8.00 Y8.00 Z0.40 E5.00 ; sets the jerk limits, mm/sec
M205 S0 T0 ; sets the minimum extruding and travel feed rate, mm/sec
M107
G90 ; use absolute coordinates
M83 ; extruder relative mode
M104 S240 ; set extruder temp
M140 S70 ; set bed temp
M190 S70 ; wait for bed temp
M109 S240 ; wait for extruder temp
G28 ; home all
G1 Z2 F240
G1 X2 Y10 F3000
G1 Z0.28 F240
G92 E0.0
G1 Y190 E15.0 F1500.0 ; intro line
G1 X2.3 F5000
G1 Y10 E30 F1200.0 ; intro line
G92 E0.0
G21 ; set units to millimeters
G90 ; use absolute coordinates
M83 ; use relative distances for extrusion
; Filament gcode
;BEFORE_LAYER_CHANGE
;0.2


G1 E-5.00000 F3600.00000
G1 Z0.200 F9000.000
;AFTER_LAYER_CHANGE
;0.2
G1 X97.439 Y98.987
G1 E5.00000 F2400.00000
G1 F1200.000
G1 X97.930 Y98.183 E0.02955
G1 X98.338 Y97.804 E0.01745
G1 X98.810 Y97.516 E0.01733
G1 X99.334 Y97.328 E0.01745
G1 X99.885 Y97.248 E0.01745
G1 X120.004 Y97.246 E0.63084
G1 X121.005 Y97.436 E0.03195
G1 X121.866 Y97.974 E0.03183
G1 X122.473 Y98.788 E0.03183
G1 X122.745 Y99.770 E0.03195
G1 X122.753 Y120.086 E0.63700
G1 X122.561 Y121.013 E0.02968
G1 X122.070 Y121.817 E0.02955
G1 X121.646 Y122.208 E0.01809
G1 X121.149 Y122.503 E0.01809
G1 X120.603 Y122.687 E0.01809
G1 X120.029 Y122.754 E0.01809
G1 X99.914 Y122.753 E0.63071
G1 X98.987 Y122.561 E0.02968
G1 X98.183 Y122.070 E0.02955
G1 X97.792 Y121.646 E0.01809
G1 X97.497 Y121.149 E0.01809
G1 X97.313 Y120.603 E0.01809
G1 X97.246 Y120.029 E0.01809
G1 X97.247 Y99.914 E0.63071
G1 X97.427 Y99.046 E0.02779
G1 X98.992 Y97.847 F9000.000
G1 F1200.000
G1 X99.915 Y97.624 E0.02977
G1 X120.004 Y97.623 E0.62987
G1 X120.871 Y97.788 E0.02767
G1 X121.620 Y98.261 E0.02778
G1 X122.143 Y98.971 E0.02767
G1 X122.371 Y99.824 E0.02767
G1 X122.376 Y120.065 E0.63464
G1 X122.209 Y120.878 E0.02602
G1 X121.773 Y121.584 E0.02602
G1 X121.407 Y121.916 E0.01550
G1 X120.980 Y122.166 E0.01550
G1 X120.511 Y122.321 E0.01550
G1 X120.020 Y122.377 E0.01550
G1 X99.931 Y122.376 E0.62987
G1 X99.122 Y122.209 E0.02590
G1 X98.416 Y121.773 E0.02602
G1 X98.084 Y121.407 E0.01550
G1 X97.834 Y120.980 E0.01550
G1 X97.679 Y120.511 E0.01550
G1 X97.623 Y120.020 E0.01550
G1 X97.624 Y99.931 E0.62987
G1 X97.791 Y99.122 E0.02590
G1 X98.227 Y98.416 E0.02602
G1 X98.944 Y97.883 E0.02801
G1 E-3.50000 F3600.00000
G1 F7200.000
G1 X99.915 Y97.624 E-0.47742
G1 X101.910 Y97.624 E-0.94758
G1 E-0.07500 F3600.00000
G1 X100.587 Y100.587 F9000.000
G1 E5.00000 F2400.00000
G1 F1200.000
G1 X119.413 Y100.587 E0.59027
G1 X119.413 Y119.413 E0.59027
G1 X100.587 Y119.413 E0.59027
G1 X100.587 Y100.647 E0.58839
G1 X100.210 Y100.210 F9000.000
G1 F1200.000
G1 X119.790 Y100.210 E0.61392
G1 X119.790 Y119.790 E0.61392
G1 X100.210 Y119.790 E0.61392
G1 X100.210 Y100.270 E0.61204
G1 X100.596 Y100.314 F9000.000
G1 E-3.50000 F3600.00000
G1 F7200.000
G1 X103.210 Y100.261 E-1.42500
G1 E-0.07500 F3600.00000
G1 X119.300 Y101.473 F9000.000
G1 E5.00000 F2400.00000
G1 F1200.000
G1 X118.697 Y100.870 E0.02709
G1 X118.157 Y100.870 E0.01716
G1 X119.130 Y101.843 E0.04373
G1 X119.130 Y102.384 E0.01716
G1 X117.616 Y100.870 E0.06800
G1 X117.076 Y100.870 E0.01716
G1 X119.130 Y102.924 E0.09226
G1 X119.130 Y103.464 E0.01716
G1 X116.536 Y100.870 E0.11653
G1 X115.996 Y100.870 E0.01716
G1 X119.130 Y104.004 E0.14079
G1 X119.130 Y104.544 E0.01716
G1 X115.456 Y100.870 E0.16506
G1 X114.915 Y100.870 E0.01716
G1 X119.130 Y105.085 E0.18932
G1 X119.130 Y105.625 E0.01716
G1 X114.375 Y100.870 E0.21359
G1 X113.835 Y100.870 E0.01716
G1 X119.130 Y106.165 E0.23785
G1 X119.130 Y106.705 E0.01716
G1 X113.295 Y100.870 E0.26212
G1 X112.754 Y100.870 E0.01716
G1 X119.130 Y107.246 E0.28639
G1 X119.130 Y107.786 E0.01716
G1 X112.214 Y100.870 E0.31065
G1 X111.674 Y100.870 E0.01716
G1 X119.130 Y108.326 E0.33492
G1 X119.130 Y108.866 E0.01716
G1 X111.134 Y100.870 E0.35918
G1 X110.594 Y100.870 E0.01716
G1 X119.130 Y109.406 E0.38345
G1 X119.130 Y109.947 E0.01716
G1 X110.053 Y100.870 E0.40771
G1 X109.513 Y100.870 E0.01716
G1 X119.130 Y110.487 E0.43198
G1 X119.130 Y111.027 E0.01716
G1 X108.973 Y100.870 E0.45624
G1 X108.433 Y100.870 E0.01716
G1 X119.130 Y111.567 E0.48051
G1 X119.130 Y112.107 E0.01716
G1 X107.893 Y100.870 E0.50478
G1 X107.352 Y100.870 E0.01716
G1 X119.130 Y112.648 E0.52904
G1 X119.130 Y113.188 E0.01716
G1 X106.812 Y100.870 E0.55331
G1 X106.272 Y100.870 E0.01716
G1 X119.130 Y113.728 E0.57757
G1 X119.130 Y114.268 E0.01716
G1 X105.732 Y100.870 E0.60184
G1 X105.192 Y100.870 E0.01716
G1 X119.130 Y114.808 E0.62610
G1 X119.130 Y115.349 E0.01716
G1 X104.651 Y100.870 E0.65037
G1 X104.111 Y100.870 E0.01716
G1 X119.130 Y115.889 E0.67464
G1 X119.130 Y116.429 E0.01716
G1 X103.571 Y100.870 E0.69890
G1 X103.031 Y100.870 E0.01716
G1 X119.130 Y116.969 E0.72317
G1 X119.130 Y117.510 E0.01716
G1 X102.490 Y100.870 E0.74743
G1 X101.950 Y100.870 E0.01716
G1 X119.130 Y118.050 E0.77170
G1 X119.130 Y118.590 E0.01716
G1 X101.410 Y100.870 E0.79596
G1 X100.870 Y100.870 E0.01716
G1 X119.130 Y119.130 E0.82023
G1 X118.590 Y119.130 E0.01716
G1 X100.870 Y101.410 E0.79596
G1 X100.870 Y101.950 E0.01716
G1 X118.050 Y119.130 E0.77169
G1 X117.509 Y119.130 E0.01716
G1 X100.870 Y102.491 E0.74743
G1 X100.870 Y103.031 E0.01716
G1 X116.969 Y119.130 E0.72316
G1 X116.429 Y119.130 E0.01716
G1 X100.870 Y103.571 E0.69890
G1 X100.870 Y104.111 E0.01716
G1 X115.889 Y119.130 E0.67463
G1 X115.349 Y119.130 E0.01716
G1 X100.870 Y104.651 E0.65037
G1 X100.870 Y105.192 E0.01716
G1 X114.808 Y119.130 E0.62610
G1 X114.268 Y119.130 E0.01716
G1 X100.870 Y105.732 E0.60184
G1 X100.870 Y106.272 E0.01716
G1 X113.728 Y119.130 E0.57757
G1 X113.188 Y119.130 E0.01716
G1 X100.870 Y106.812 E0.55330
G1 X100.870 Y107.352 E0.01716
G1 X112.648 Y119.130 E0.52904
G1 X112.107 Y119.130 E0.01716
G1 X100.870 Y107.893 E0.50477
G1 X100.870 Y108.433 E0.01716
G1 X111.567 Y119.130 E0.48051
G1 X111.027 Y119.130 E0.01716
G1 X100.870 Y108.973 E0.45624
G1 X100.870 Y109.513 E0.01716
G1 X110.487 Y119.130 E0.43198
G1 X109.946 Y119.130 E0.01716
G1 X100.870 Y110.054 E0.40771
G1 X100.870 Y110.594 E0.01716
G1 X109.406 Y119.130 E0.38344
G1 X108.866 Y119.130 E0.01716
G1 X100.870 Y111.134 E0.35918
G1 X100.870 Y111.674 E0.01716
G1 X108.326 Y119.130 E0.33491
G1 X107.786 Y119.130 E0.01716
G1 X100.870 Y112.214 E0.31065
G1 X100.870 Y112.755 E0.01716
G1 X107.245 Y119.130 E0.28638
G1 X106.705 Y119.130 E0.01716
G1 X100.870 Y113.295 E0.26212
G1 X100.870 Y113.835 E0.01716
G1 X106.165 Y119.130 E0.23785
G1 X105.625 Y119.130 E0.01716
G1 X100.870 Y114.375 E0.21359
G1 X100.870 Y114.915 E0.01716
G1 X105.085 Y119.130 E0.18932
G1 X104.544 Y119.130 E0.01716
G1 X100.870 Y115.456 E0.16505
G1 X100.870 Y115.996 E0.01716
G1 X104.004 Y119.130 E0.14079
G1 X103.464 Y119.130 E0.01716
G1 X100.870 Y116.536 E0.11652
G1 X100.870 Y117.076 E0.01716
G1 X102.924 Y119.130 E0.09226
G1 X102.384 Y119.130 E0.01716
G1 X100.870 Y117.616 E0.06799
G1 X100.870 Y118.157 E0.01716
G1 X101.843 Y119.130 E0.04373
G1 X101.303 Y119.130 E0.01716
G1 X100.700 Y118.527 E0.02708
;BEFORE_LAYER_CHANGE
;0.4


G1 E-3.50000 F3600.00000
G1 F7200.000
G1 X101.303 Y119.130 E-0.40502
G1 X101.843 Y119.130 E-0.25660
G1 X100.870 Y118.157 E-0.65392
G1 X100.870 Y117.926 E-0.10947
G1 E-0.07500 F3600.00000
G1 Z0.400 F9000.000
;AFTER_LAYER_CHANGE
;0.4
G1 X98.987 Y122.561
G1 E5.00000 F2400.00000
G1 X98.183 Y122.070 E0.02955
G1 X97.792 Y121.646 E0.01809
G1 X97.497 Y121.149 E0.01809
G1 X97.313 Y120.603 E0.01809
G1 X97.246 Y120.029 E0.01809
G1 X97.247 Y99.914 E0.63071
G1 X97.439 Y98.987 E0.02968
G1 X97.930 Y98.183 E0.02955
G1 X98.338 Y97.804 E0.01745
G1 X98.810 Y97.516 E0.01733
G1 X99.334 Y97.328 E0.01745
G1 X99.885 Y97.248 E0.01745
G1 X120.004 Y97.246 E0.63084
G1 X121.005 Y97.436 E0.03195
G1 X121.866 Y97.974 E0.03183
G1 X122.473 Y98.788 E0.03183
G1 X122.745 Y99.770 E0.03195
G1 X122.753 Y120.086 E0.63700
G1 X122.561 Y121.013 E0.02968
G1 X122.070 Y121.817 E0.02955
G1 X121.646 Y122.208 E0.01809
G1 X121.149 Y122.503 E0.01809
G1 X120.603 Y122.687 E0.01809
G1 X120.029 Y122.754 E0.01809
G1 X99.914 Y122.753 E0.63071
G1 X99.046 Y122.573 E0.02780
G1 X99.122 Y122.209 F9000.000
G1 F2400.000
G1 X98.416 Y121.773 E0.02602
G1 X98.084 Y121.407 E0.01550
G1 X97.834 Y120.980 E0.01550
G1 X97.679 Y120.511 E0.01550
G1 X97.623 Y120.020 E0.01550
G1 X97.624 Y99.931 E0.62987
G1 X97.791 Y99.122 E0.02590
G1 X98.227 Y98.416 E0.02602
G1 X98.992 Y97.847 E0.02989
G1 X99.915 Y97.624 E0.02977
G1 X120.004 Y97.623 E0.62987
G1 X120.871 Y97.788 E0.02767
G1 X121.620 Y98.261 E0.02778
G1 X122.143 Y98.971 E0.02767
G1 X122.371 Y99.824 E0.02767
G1 X122.376 Y120.065 E0.63464
G1 X122.209 Y120.878 E0.02602
G1 X121.773 Y121.584 E0.02602
G1 X121.407 Y121.916 E0.01550
G1 X120.980 Y122.166 E0.01550
G1 X120.511 Y122.321 E0.01550
G1 X120.020 Y122.377 E0.01550
G1 X99.931 Y122.376 E0.62987
G1 X99.181 Y122.221 E0.02402
G1 E-3.50000 F3600.00000
G1 F7200.000
G1 X98.416 Y121.773 E-0.42109
G1 X98.084 Y121.407 E-0.23478
G1 X97.834 Y120.980 E-0.23478
G1 X97.679 Y120.511 E-0.23478
G1 X97.623 Y120.020 E-0.23478
G1 X97.623 Y119.884 E-0.06479
G1 E-0.07500 F3600.00000
G1 X100.632 Y119.368 F9000.000
G1 E5.00000 F2400.00000
G1 X100.632 Y100.632 E0.63419
G1 X119.368 Y100.632 E0.63419
G1 X119.368 Y119.368 E0.63419
G1 X100.692 Y119.368 E0.63216
G1 X100.225 Y119.775 F9000.000
G1 F1500.000
G1 X100.225 Y100.225 E0.66174
G1 X119.775 Y100.225 E0.66174
G1 X119.775 Y119.775 E0.66174
G1 X100.285 Y119.775 E0.65971
G1 X100.329 Y119.389 F9000.000
G1 E-3.50000 F3600.00000
G1 F7200.000
G1 X100.276 Y116.775 E-1.42500
G1 E-0.07500 F3600.00000
G1 X100.754 Y101.582 F9000.000
G1 E5.00000 F2400.00000
G1 X101.399 Y100.937 E0.03105
G1 X101.978 Y100.937 E0.01972
G1 X100.937 Y101.978 E0.05012
G1 X100.937 Y102.557 E0.01972
G1 X102.557 Y100.937 E0.07801
G1 X103.136 Y100.937 E0.01972
G1 X100.937 Y103.136 E0.10589
G1 X100.937 Y103.716 E0.01972
G1 X103.716 Y100.937 E0.13378
G1 X104.295 Y100.937 E0.01972
G1 X100.937 Y104.295 E0.16167
G1 X100.937 Y104.874 E0.01972
G1 X104.874 Y100.937 E0.18956
G1 X105.453 Y100.937 E0.01972
G1 X100.937 Y105.453 E0.21745
G1 X100.937 Y106.032 E0.01972
G1 X106.032 Y100.937 E0.24534
G1 X106.611 Y100.937 E0.01972
G1 X100.937 Y106.611 E0.27322
G1 X100.937 Y107.190 E0.01972
G1 X107.190 Y100.937 E0.30111
G1 X107.769 Y100.937 E0.01972
G1 X100.937 Y107.769 E0.32900
G1 X100.937 Y108.349 E0.01972
G1 X108.349 Y100.937 E0.35689
G1 X108.928 Y100.937 E0.01972
G1 X100.937 Y108.928 E0.38478
G1 X100.937 Y109.507 E0.01972
G1 X109.507 Y100.937 E0.41267
G1 X110.086 Y100.937 E0.01972
G1 X100.937 Y110.086 E0.44055
G1 X100.937 Y110.665 E0.01972
G1 X110.665 Y100.937 E0.46844
G1 X111.244 Y100.937 E0.01972
G1 X100.937 Y111.244 E0.49633
G1 X100.937 Y111.823 E0.01972
G1 X111.823 Y100.937 E0.52422
G1 X112.403 Y100.937 E0.01972
G1 X100.937 Y112.403 E0.55211
G1 X100.937 Y112.982 E0.01972
G1 X112.982 Y100.937 E0.57999
G1 X113.561 Y100.937 E0.01972
G1 X100.937 Y113.561 E0.60788
G1 X100.937 Y114.140 E0.01972
G1 X114.140 Y100.937 E0.63577
G1 X114.719 Y100.937 E0.01972
G1 X100.937 Y114.719 E0.66366
G1 X100.937 Y115.298 E0.01972
G1 X115.298 Y100.937 E0.69155
G1 X115.877 Y100.937 E0.01972
G1 X100.937 Y115.877 E0.71944
G1 X100.937 Y116.456 E0.01972
G1 X116.456 Y100.937 E0.74732
G1 X117.036 Y100.937 E0.01972
G1 X100.937 Y117.036 E0.77521
G1 X100.937 Y117.615 E0.01972
G1 X117.615 Y100.937 E0.80310
G1 X118.194 Y100.937 E0.01972
G1 X100.937 Y118.194 E0.83099
G1 X100.937 Y118.773 E0.01972
G1 X118.773 Y100.937 E0.85888
G1 X119.063 Y100.937 E0.00986
G1 X119.063 Y101.227 E0.00986
G1 X101.227 Y119.063 E0.85888
G1 X101.806 Y119.063 E0.01972
G1 X119.063 Y101.806 E0.83099
G1 X119.063 Y102.385 E0.01972
G1 X102.385 Y119.063 E0.80310
G1 X102.964 Y119.063 E0.01972
G1 X119.063 Y102.964 E0.77522
G1 X119.063 Y103.543 E0.01972
G1 X103.543 Y119.063 E0.74733
G1 X104.123 Y119.063 E0.01972
G1 X119.063 Y104.123 E0.71944
G1 X119.063 Y104.702 E0.01972
G1 X104.702 Y119.063 E0.69155
G1 X105.281 Y119.063 E0.01972
G1 X119.063 Y105.281 E0.66366
G1 X119.063 Y105.860 E0.01972
G1 X105.860 Y119.063 E0.63577
G1 X106.439 Y119.063 E0.01972
G1 X119.063 Y106.439 E0.60789
G1 X119.063 Y107.018 E0.01972
G1 X107.018 Y119.063 E0.58000
G1 X107.597 Y119.063 E0.01972
G1 X119.063 Y107.597 E0.55211
G1 X119.063 Y108.177 E0.01972
G1 X108.177 Y119.063 E0.52422
G1 X108.756 Y119.063 E0.01972
G1 X119.063 Y108.756 E0.49633
G1 X119.063 Y109.335 E0.01972
G1 X109.335 Y119.063 E0.46844
G1 X109.914 Y119.063 E0.01972
G1 X119.063 Y109.914 E0.44056
G1 X119.063 Y110.493 E0.01972
G1 X110.493 Y119.063 E0.41267
G1 X111.072 Y119.063 E0.01972
G1 X119.063 Y111.072 E0.38478
G1 X119.063 Y111.651 E0.01972
G1 X111.651 Y119.063 E0.35689
G1 X112.230 Y119.063 E0.01972
G1 X119.063 Y112.230 E0.32900
G1 X119.063 Y112.810 E0.01972
G1 X112.810 Y119.063 E0.30112
G1 X113.389 Y119.063 E0.01972
G1 X119.063 Y113.389 E0.27323
G1 X119.063 Y113.968 E0.01972
G1 X113.968 Y119.063 E0.24534
G1 X114.547 Y119.063 E0.01972
G1 X119.063 Y114.547 E0.21745
G1 X119.063 Y115.126 E0.01972
G1 X115.126 Y119.063 E0.18956
G1 X115.705 Y119.063 E0.01972
G1 X119.063 Y115.705 E0.16167
G1 X119.063 Y116.284 E0.01972
G1 X116.284 Y119.063 E0.13379
G1 X116.864 Y119.063 E0.01972
G1 X119.063 Y116.864 E0.10590
G1 X119.063 Y117.443 E0.01972
G1 X117.443 Y119.063 E0.07801
G1 X118.022 Y119.063 E0.01972
G1 X119.063 Y118.022 E0.05012
G1 X119.063 Y118.601 E0.01972
G1 X118.418 Y119.246 E0.03105
;BEFORE_LAYER_CHANGE
;0.6


G1 E-3.50000 F3600.00000
G1 F7200.000
G1 X119.063 Y118.601 E-0.43320
G1 X119.063 Y118.022 E-0.27509
G1 X118.022 Y119.063 E-0.69918
G1 X117.985 Y119.063 E-0.01754
G1 E-0.07500 F3600.00000
G1 Z0.600 F9000.000
;AFTER_LAYER_CHANGE
;0.6
G1 X119.368 Y119.368
G1 E5.00000 F2400.00000
G1 X100.632 Y119.368 E0.63419
G1 X100.632 Y100.632 E0.63419
G1 X119.368 Y100.632 E0.63419
G1 X119.368 Y119.308 E0.63216
G1 X119.775 Y119.775 F9000.000
G1 F1500.000
G1 X100.225 Y119.775 E0.66174
G1 X100.225 Y100.225 E0.66174
G1 X119.775 Y100.225 E0.66174
G1 X119.775 Y119.715 E0.65971
G1 X119.389 Y119.671 F9000.000
G1 E-3.50000 F3600.00000
G1 F7200.000
G1 X116.775 Y119.724 E-1.42500
G1 E-0.07500 F3600.00000
G1 X101.582 Y119.246 F9000.000
G1 E5.00000 F2400.00000
G1 X100.937 Y118.601 E0.03105
G1 X100.937 Y118.022 E0.01972
G1 X101.978 Y119.063 E0.05012
G1 X102.557 Y119.063 E0.01972
G1 X100.937 Y117.443 E0.07801
G1 X100.937 Y116.864 E0.01972
G1 X103.136 Y119.063 E0.10589
G1 X103.716 Y119.063 E0.01972
G1 X100.937 Y116.284 E0.13378
G1 X100.937 Y115.705 E0.01972
G1 X104.295 Y119.063 E0.16167
G1 X104.874 Y119.063 E0.01972
G1 X100.937 Y115.126 E0.18956
G1 X100.937 Y114.547 E0.01972
G1 X105.453 Y119.063 E0.21745
G1 X106.032 Y119.063 E0.01972
G1 X100.937 Y113.968 E0.24534
G1 X100.937 Y113.389 E0.01972
G1 X106.611 Y119.063 E0.27322
G1 X107.190 Y119.063 E0.01972
G1 X100.937 Y112.810 E0.30111
G1 X100.937 Y112.231 E0.01972
G1 X107.769 Y119.063 E0.32900
G1 X108.349 Y119.063 E0.01972
G1 X100.937 Y111.651 E0.35689
G1 X100.937 Y111.072 E0.01972
G1 X108.928 Y119.063 E0.38478
G1 X109.507 Y119.063 E0.01972
G1 X100.937 Y110.493 E0.41267
G1 X100.937 Y109.914 E0.01972
G1 X110.086 Y119.063 E0.44055
G1 X110.665 Y119.063 E0.01972
G1 X100.937 Y109.335 E0.46844
G1 X100.937 Y108.756 E0.01972
G1 X111.244 Y119.063 E0.49633
G1 X111.823 Y119.063 E0.01972
G1 X100.937 Y108.177 E0.52422
G1 X100.937 Y107.597 E0.01972
G1 X112.403 Y119.063 E0.55211
G1 X112.982 Y119.063 E0.01972
G1 X100.937 Y107.018 E0.57999
G1 X100.937 Y106.439 E0.01972
G1 X113.561 Y119.063 E0.60788
G1 X114.140 Y119.063 E0.01972
G1 X100.937 Y105.860 E0.63577
G1 X100.937 Y105.281 E0.01972
G1 X114.719 Y119.063 E0.66366
G1 X115.298 Y119.063 E0.01972
G1 X100.937 Y104.702 E0.69155
G1 X100.937 Y104.123 E0.01972
G1 X115.877 Y119.063 E0.71944
