;FLAVOR:Marlin
;TIME:2569
;Filament used: 2.11621m
;Layer height: 0.2
;MINX:98.55
;MINY:98.55
;MINZ:0.2
;MAXX:121.449
;MAXY:121.45
;MAXZ:20
;Generated with Cura_SteamEngine 4.5.0
M140 S80
M105
M190 S80
M104 S235
M105
M109 S235
M82 ;absolute extrusion mode
; Ender 3 Custom Start G-code
G92 E0 ; Reset Extruder
G28 ; Home all axes
G1 Z2.0 F3000 ; Move Z Axis up little to prevent scratching of Heat Bed
G1 X0.1 Y20 Z0.3 F5000.0 ; Move to start position
G1 X0.1 Y200.0 Z0.3 F1500.0 E15 ; Draw the first line
G1 X0.4 Y200.0 Z0.3 F5000.0 ; Move to side a little
G1 X0.4 Y20 Z0.3 F1500.0 E30 ; Draw the second line
G92 E0 ; Reset Extruder
G1 Z2.0 F3000 ; Move Z Axis up little to prevent scratching of Heat Bed
G1 X5 Y20 Z0.3 F5000.0 ; Move over to prevent blob squish
G92 E0
G92 E0
G1 F2700 E-5
;LAYER_COUNT:100
;LAYER:0
M107
G0 F6000 X98.92 Y99.053 Z0.2
;TYPE:SKIRT
G1 F2700 E0
G1 F900 X99.173 Y98.825 E0.01416
G1 X99.471 Y98.663 E0.02826
G1 X99.969 Y98.56 E0.0494
G1 X100.289 Y98.551 E0.06271
G1 X119.277 Y98.55 E0.85214
G1 X119.963 Y98.56 E0.88067
G1 X120.3 Y98.605 E0.8948
G1 X120.618 Y98.727 E0.90896
G1 X120.898 Y98.92 E0.9231
G1 X121.125 Y99.172 E0.9372
G1 X121.288 Y99.471 E0.95136
G1 X121.377 Y99.799 E0.96549
G1 X121.392 Y99.976 E0.97287
G1 X121.415 Y100.967 E1.01409
G1 X121.449 Y119.271 E1.77508
G1 X121.441 Y119.987 E1.80485
G1 X121.397 Y120.324 E1.81898
G1 X121.276 Y120.642 E1.83312
G1 X121.084 Y120.922 E1.84724
G1 X120.833 Y121.151 E1.86137
G1 X120.534 Y121.314 E1.87552
G1 X120.16 Y121.41 E1.89158
G1 X119.921 Y121.438 E1.90158
G1 X119.766 Y121.448 E1.90804
G1 X119.554 Y121.45 E1.91685
G1 X100.688 Y121.45 E2.70121
G1 X99.99 Y121.441 E2.73023
G1 X99.653 Y121.397 E2.74436
G1 X99.336 Y121.275 E2.75848
G1 X99.055 Y121.083 E2.77263
G1 X98.827 Y120.831 E2.78676
G1 X98.664 Y120.533 E2.80088
G1 X98.575 Y120.204 E2.81505
G1 X98.56 Y120.03 E2.82231
G1 X98.551 Y119.697 E2.83616
G1 X98.55 Y100.652 E3.62796
G1 X98.56 Y99.987 E3.65561
G1 X98.605 Y99.65 E3.66975
G1 X98.62 Y99.613 E3.67141
G0 F810 X98.727 Y99.333
G0 X98.92 Y99.053
G0 F6000 X99.224 Y99.476
G1 F900 X99.409 Y99.273 E3.68283
G1 X99.645 Y99.132 E3.69426
G1 X99.983 Y99.059 E3.70863
G1 X100.303 Y99.05 E3.72194
G1 X119.27 Y99.05 E4.5105
G1 X119.956 Y99.06 E4.53902
G1 X120.227 Y99.104 E4.55044
G1 X120.475 Y99.224 E4.56189
G1 X120.678 Y99.409 E4.57331
G1 X120.819 Y99.645 E4.58474
G1 X120.892 Y99.988 E4.59932
G1 X120.915 Y100.979 E4.64053
G1 X120.949 Y119.272 E5.40107
G1 X120.941 Y119.981 E5.43055
G1 X120.898 Y120.253 E5.44199
G1 X120.779 Y120.5 E5.45339
G1 X120.594 Y120.704 E5.46484
G1 X120.359 Y120.846 E5.47626
G1 X120.102 Y120.914 E5.48731
G1 X119.863 Y120.942 E5.49731
G1 X119.761 Y120.948 E5.50156
G1 X119.549 Y120.95 E5.51038
G1 X100.695 Y120.95 E6.29424
G1 X99.997 Y120.941 E6.32326
G1 X99.725 Y120.898 E6.33471
G1 X99.477 Y120.778 E6.34616
G1 X99.274 Y120.593 E6.35758
G1 X99.133 Y120.358 E6.36897
G1 X99.059 Y120.017 E6.38348
G1 X99.05 Y119.684 E6.39733
G1 X99.05 Y100.66 E7.18826
G1 X99.059 Y100.086 E7.21212
G0 F810 X99.06 Y99.995
G0 X99.104 Y99.723
G0 X99.224 Y99.476
G0 F6000 X99.716 Y99.668
G1 F900 X99.882 Y99.578 E7.21997
G1 X99.997 Y99.559 E7.22482
G1 X100.317 Y99.55 E7.23813
G1 X119.263 Y99.55 E8.02581
G1 X119.949 Y99.56 E8.05434
G1 X120.132 Y99.602 E8.06214
G1 X120.283 Y99.716 E8.07001
G1 X120.373 Y99.882 E8.07786
G1 X120.392 Y100 E8.08283
G1 X120.415 Y100.991 E8.12404
G1 X120.449 Y119.273 E8.88412
G1 X120.441 Y119.975 E8.91331
G1 X120.399 Y120.159 E8.92115
G1 X120.286 Y120.31 E8.92899
G1 X120.043 Y120.417 E8.94003
G1 X119.804 Y120.445 E8.95004
G1 X119.544 Y120.45 E8.96085
G1 X100.701 Y120.45 E9.74425
G1 X100.003 Y120.441 E9.77327
G1 X99.819 Y120.399 E9.78112
G1 X99.669 Y120.285 E9.78895
G1 X99.578 Y120.12 E9.79678
G1 X99.559 Y120.003 E9.80171
G1 X99.55 Y119.67 E9.81556
G1 X99.55 Y100.667 E10.60561
G1 X99.557 Y100.266 E10.62229
G0 F810 X99.56 Y100.002
G0 X99.602 Y99.818
G0 X99.716 Y99.668
G1 F2700 E5.62229
;MESH:xyzCalibration_cube.stl
G0 F6000 X99.335 Y99.668
G0 X99.335 Y119.25
G0 X100.75 Y119.25
;TYPE:WALL-INNER
G1 F2700 E10.62229
G1 F900 X100.75 Y100.75 E11.39143
G1 X119.25 Y100.75 E12.16057
G1 X119.25 Y119.25 E12.92971
G1 X101.39 Y119.25 E13.67224
G0 F810 X100.75 Y119.25
G0 F6000 X100.25 Y119.75
;TYPE:WALL-OUTER
G1 F900 X100.25 Y100.25 E14.48296
G1 X119.75 Y100.25 E15.29367
G1 X119.75 Y119.75 E16.10439
G1 X100.89 Y119.75 E16.8885
G0 F810 X100.25 Y119.75
G0 F6000 X101.24 Y118.76
;TYPE:SKIN
G1 F900 X101.24 Y101.24 E17.6169
G1 X118.76 Y101.24 E18.34529
G1 X118.76 Y118.76 E19.07369
G1 X101.88 Y118.76 E19.77548
G0 F810 X101.24 Y118.76
G0 F6000 X101.689 Y118.309
G1 F900 X102.046 Y118.309 E19.79032
G1 X102.753 Y118.309 E19.81971
G1 X101.689 Y117.246 E19.88224
G1 X101.689 Y116.538 E19.91168
G1 X103.46 Y118.309 E20.01581
G1 X104.167 Y118.309 E20.0452
G1 X101.689 Y115.831 E20.1909
G1 X101.689 Y115.124 E20.22029
G1 X104.874 Y118.309 E20.40756
G1 X105.581 Y118.309 E20.43695
G1 X101.689 Y114.417 E20.66579
G1 X101.689 Y113.71 E20.69518
G1 X106.288 Y118.309 E20.96558
G1 X106.995 Y118.309 E20.99498
G1 X101.689 Y113.003 E21.30695
G1 X101.689 Y112.296 E21.33634
G1 X107.702 Y118.309 E21.68988
G1 X108.41 Y118.309 E21.71932
G1 X101.689 Y111.589 E22.11446
G1 X101.689 Y110.882 E22.14385
G1 X109.117 Y118.309 E22.58056
G1 X109.824 Y118.309 E22.60995
G1 X101.689 Y110.175 E23.08823
G1 X101.689 Y109.467 E23.11767
G1 X110.531 Y118.309 E23.63754
G1 X111.238 Y118.309 E23.66694
G1 X101.689 Y108.76 E24.22838
G1 X101.689 Y108.053 E24.25777
G1 X111.945 Y118.309 E24.86079
G1 X112.652 Y118.309 E24.89018
G1 X101.689 Y107.346 E25.53476
G1 X101.689 Y106.639 E25.56416
G1 X113.359 Y118.309 E26.25031
G1 X114.066 Y118.309 E26.2797
G1 X101.689 Y105.932 E27.00742
G1 X101.689 Y105.225 E27.03682
G1 X114.774 Y118.309 E27.80614
G1 X115.481 Y118.309 E27.83553
G1 X101.689 Y104.518 E28.64642
G1 X101.689 Y103.811 E28.67581
G1 X116.188 Y118.309 E29.52827
G1 X116.895 Y118.309 E29.55766
G1 X101.689 Y103.103 E30.45171
G1 X101.689 Y102.396 E30.48111
G1 X117.602 Y118.309 E31.41673
G1 X118.309 Y118.309 E31.44612
G1 X101.689 Y101.689 E32.42332
G1 X102.396 Y101.689 E32.45271
G1 X118.309 Y117.602 E33.38833
G1 X118.309 Y116.895 E33.41773
G1 X103.103 Y101.689 E34.31178
G1 X103.811 Y101.689 E34.34122
G1 X118.309 Y116.188 E35.19367
G1 X118.309 Y115.481 E35.22307
G1 X104.518 Y101.689 E36.03395
G1 X105.225 Y101.689 E36.06335
G1 X118.309 Y114.774 E36.83267
G1 X118.309 Y114.066 E36.8621
G1 X105.932 Y101.689 E37.58982
G1 X106.639 Y101.689 E37.61922
G1 X118.309 Y113.359 E38.30537
G1 X118.309 Y112.652 E38.33476
G1 X107.346 Y101.689 E38.97934
G1 X108.053 Y101.689 E39.00874
G1 X118.309 Y111.945 E39.61175
G1 X118.309 Y111.238 E39.64114
G1 X108.76 Y101.689 E40.20259
G1 X109.467 Y101.689 E40.23198
G1 X118.309 Y110.531 E40.75186
G1 X118.309 Y109.824 E40.78125
G1 X110.175 Y101.689 E41.25953
G1 X110.882 Y101.689 E41.28892
G1 X118.309 Y109.117 E41.72563
G1 X118.309 Y108.41 E41.75502
G1 X111.589 Y101.689 E42.15016
G1 X112.296 Y101.689 E42.17956
G1 X118.309 Y107.702 E42.5331
G1 X118.309 Y106.995 E42.56249
G1 X113.003 Y101.689 E42.87447
G1 X113.71 Y101.689 E42.90386
G1 X118.309 Y106.288 E43.17426
G1 X118.309 Y105.581 E43.20366
G1 X114.417 Y101.689 E43.43249
G1 X115.124 Y101.689 E43.46188
G1 X118.309 Y104.874 E43.64915
G1 X118.309 Y104.167 E43.67854
G1 X115.831 Y101.689 E43.82424
G1 X116.538 Y101.689 E43.85363
G1 X118.309 Y103.46 E43.95776
G1 X118.309 Y102.753 E43.98716
G1 X117.246 Y101.689 E44.04969
G1 X117.953 Y101.689 E44.07908
G1 X118.309 Y101.689 E44.09388
G0 F6000 X118.309 Y102.046
G1 F900 X117.953 Y101.689 E44.11484
G1 F2700 E39.11484
G0 F6000 X117.953 Y99.335
G0 X99.347 Y99.347
G0 X99.335 Y117.953
G0 X101.689 Y117.953
G1 F2700 E44.11484
G1 F900 X102.046 Y118.309 E44.1358
G1 F2700 E39.1358
;MESH:NONMESH
G0 F300 X102.046 Y118.309 Z0.4
G0 F6000 X100.75 Y119.25
;TIME_ELAPSED:79.086429
;LAYER:1
M140 S80
M106 S42.5
;TYPE:WALL-INNER
;MESH:xyzCalibration_cube.stl
G1 F2700 E44.1358
G1 F1200 X100.75 Y100.75 E44.90494
G1 X119.25 Y100.75 E45.67408
G1 X119.25 Y119.25 E46.44322
G1 X101.39 Y119.25 E47.18576
G0 F1080 X100.75 Y119.25
G0 F7500 X100.25 Y119.75
;TYPE:WALL-OUTER
G1 F1200 X100.25 Y100.25 E47.99647
G1 X119.75 Y100.25 E48.80719
G1 X119.75 Y119.75 E49.6179
G1 X100.89 Y119.75 E50.40201
G0 F1080 X100.25 Y119.75
G0 F7500 X101.24 Y118.76
;TYPE:SKIN
G1 F1200 X101.24 Y101.24 E51.13041
G1 X118.76 Y101.24 E51.85881
G1 X118.76 Y118.76 E52.5872
G1 X101.88 Y118.76 E53.28899
G0 F1080 X101.24 Y118.76
G1 F2700 E48.28899
G0 F7500 X99.335 Y118.76
G0 X99.335 Y101.689
G0 X101.689 Y101.689
G1 F2700 E53.28899
G1 F1200 X101.689 Y101.957 E53.30013
G1 X101.957 Y101.689 E53.31589
G1 X102.664 Y101.689 E53.34528
G1 X101.689 Y102.664 E53.40261
G1 X101.689 Y103.371 E53.432
G1 X103.371 Y101.689 E53.5309
G1 X104.078 Y101.689 E53.56029
G1 X101.689 Y104.078 E53.70076
G1 X101.689 Y104.785 E53.73015
G1 X104.785 Y101.689 E53.91218
G1 X105.492 Y101.689 E53.94158
G1 X101.689 Y105.492 E54.16518
G1 X101.689 Y106.199 E54.19457
G1 X106.199 Y101.689 E54.45974
G1 X106.906 Y101.689 E54.48914
G1 X101.689 Y106.906 E54.79588
G1 X101.689 Y107.613 E54.82527
G1 X107.613 Y101.689 E55.17358
G1 X108.32 Y101.689 E55.20297
G1 X101.689 Y108.32 E55.59285
G1 X101.689 Y109.028 E55.62229
G1 X109.028 Y101.689 E56.05379
G1 X109.735 Y101.689 E56.08318
G1 X101.689 Y109.735 E56.55626
G1 X101.689 Y110.442 E56.58565
G1 X110.442 Y101.689 E57.10029
G1 X111.149 Y101.689 E57.12969
G1 X101.689 Y111.149 E57.6859
G1 X101.689 Y111.856 E57.71529
G1 X111.856 Y101.689 E58.31307
G1 X112.563 Y101.689 E58.34247
G1 X101.689 Y112.563 E58.98182
G1 X101.689 Y113.27 E59.01121
G1 X113.27 Y101.689 E59.69213
G1 X113.977 Y101.689 E59.72152
G1 X101.689 Y113.977 E60.44401
G1 X101.689 Y114.684 E60.4734
G1 X114.684 Y101.689 E61.23746
G1 X115.392 Y101.689 E61.2669
G1 X101.689 Y115.392 E62.07258
G1 X101.689 Y116.099 E62.10197
G1 X116.099 Y101.689 E62.94923
G1 X116.806 Y101.689 E62.97862
G1 X101.689 Y116.806 E63.86744
G1 X101.689 Y117.513 E63.89683
G1 X117.513 Y101.689 E64.82723
G1 X118.22 Y101.689 E64.85662
G1 X101.689 Y118.22 E65.82858
G1 X101.689 Y118.309 E65.83228
G1 X102.307 Y118.309 E65.85797
G1 X118.309 Y102.307 E66.79883
G1 X118.309 Y103.014 E66.82822
G1 X103.014 Y118.309 E67.72751
G1 X103.721 Y118.309 E67.7569
G1 X118.309 Y103.721 E68.61462
G1 X118.309 Y104.429 E68.64406
G1 X104.429 Y118.309 E69.46015
G1 X105.136 Y118.309 E69.48954
G1 X118.309 Y105.136 E70.26406
G1 X118.309 Y105.843 E70.29346
G1 X105.843 Y118.309 E71.02641
G1 X106.55 Y118.309 E71.0558
G1 X118.309 Y106.55 E71.74719
G1 X118.309 Y107.257 E71.77658
G1 X107.257 Y118.309 E72.4264
G1 X107.964 Y118.309 E72.45579
G1 X118.309 Y107.964 E73.06404
G1 X118.309 Y108.671 E73.09343
G1 X108.671 Y118.309 E73.66011
G1 X109.378 Y118.309 E73.6895
G1 X118.309 Y109.378 E74.21461
G1 X118.309 Y110.085 E74.244
G1 X110.085 Y118.309 E74.72754
G1 X110.793 Y118.309 E74.75698
G1 X118.309 Y110.793 E75.19889
G1 X118.309 Y111.5 E75.22828
G1 X111.5 Y118.309 E75.62863
G1 X112.207 Y118.309 E75.65802
G1 X118.309 Y112.207 E76.01679
G1 X118.309 Y112.914 E76.04619
G1 X112.914 Y118.309 E76.36339
G1 X113.621 Y118.309 E76.39279
G1 X118.309 Y113.621 E76.66842
G1 X118.309 Y114.328 E76.69782
G1 X114.328 Y118.309 E76.93189
G1 X115.035 Y118.309 E76.96128
G1 X118.309 Y115.035 E77.15378
G1 X118.309 Y115.742 E77.18317
G1 X115.742 Y118.309 E77.3341
G1 X116.449 Y118.309 E77.36349
G1 X118.309 Y116.449 E77.47286
G1 X118.309 Y117.156 E77.50225
G1 X117.156 Y118.309 E77.57004
G1 X117.864 Y118.309 E77.59948
G1 X118.309 Y117.864 E77.62564
G1 X118.309 Y118.309 E77.64414
G1 F2700 E72.64414
;MESH:NONMESH
G0 F300 X118.309 Y118.309 Z0.6
G0 F7500 X118.309 Y120.665
G0 X100.75 Y120.665
G0 X100.75 Y119.25
;TIME_ELAPSED:123.025425
;LAYER:2
M106 S85
;TYPE:WALL-INNER
;MESH:xyzCalibration_cube.stl
G1 F2700 E77.64414
G1 F1500 X100.75 Y100.75 E78.41328
G1 X119.25 Y100.75 E79.18242
G1 X119.25 Y119.25 E79.95156
G1 X101.39 Y119.25 E80.6941
G0 F1350 X100.75 Y119.25
G0 F9000 X100.25 Y119.75
;TYPE:WALL-OUTER
G1 F1500 X100.25 Y100.25 E81.50481
G1 X119.75 Y100.25 E82.31553
G1 X119.75 Y119.75 E83.12624
G1 X100.89 Y119.75 E83.91035
G0 F1350 X100.25 Y119.75
G0 F9000 X101.24 Y118.76
;TYPE:SKIN
G1 F1500 X101.24 Y101.24 E84.63875
G1 X118.76 Y101.24 E85.36714
G1 X118.76 Y118.76 E86.09554
G1 X101.88 Y118.76 E86.79733
G0 F1350 X101.24 Y118.76
G0 F9000 X101.689 Y118.309
G1 F1500 X102.046 Y118.309 E86.81217
G1 X102.753 Y118.309 E86.84157
G1 X101.689 Y117.246 E86.9041
G1 X101.689 Y116.538 E86.93353
G1 X103.46 Y118.309 E87.03766
G1 X104.167 Y118.309 E87.06705
G1 X101.689 Y115.831 E87.21275
G1 X101.689 Y115.124 E87.24214
G1 X104.874 Y118.309 E87.42941
G1 X105.581 Y118.309 E87.4588
G1 X101.689 Y114.417 E87.68764
G1 X101.689 Y113.71 E87.71703
G1 X106.288 Y118.309 E87.98744
G1 X106.995 Y118.309 E88.01683
G1 X101.689 Y113.003 E88.3288
G1 X101.689 Y112.296 E88.35819
G1 X107.702 Y118.309 E88.71174
G1 X108.41 Y118.309 E88.74117
G1 X101.689 Y111.589 E89.13631
G1 X101.689 Y110.882 E89.1657
G1 X109.117 Y118.309 E89.60241
G1 X109.824 Y118.309 E89.63181
G1 X101.689 Y110.175 E90.11008
G1 X101.689 Y109.467 E90.13952
G1 X110.531 Y118.309 E90.6594
G1 X111.238 Y118.309 E90.68879
G1 X101.689 Y108.76 E91.25023
G1 X101.689 Y108.053 E91.27963
G1 X111.945 Y118.309 E91.88264
G1 X112.652 Y118.309 E91.91203
G1 X101.689 Y107.346 E92.55662
G1 X101.689 Y106.639 E92.58601
G1 X113.359 Y118.309 E93.27216
G1 X114.066 Y118.309 E93.30156
G1 X101.689 Y105.932 E94.02928
G1 X101.689 Y105.225 E94.05867
G1 X114.774 Y118.309 E94.82799
G1 X115.481 Y118.309 E94.85738
G1 X101.689 Y104.518 E95.66827
G1 X101.689 Y103.811 E95.69766
G1 X116.188 Y118.309 E96.55012
G1 X116.895 Y118.309 E96.57951
G1 X101.689 Y103.103 E97.47357
G1 X101.689 Y102.396 E97.50296
G1 X117.602 Y118.309 E98.43858
G1 X118.309 Y118.309 E98.46798
G1 X101.689 Y101.689 E99.44517
G1 X102.396 Y101.689 E99.47456
G1 X118.309 Y117.602 E100.41019
G1 X118.309 Y116.895 E100.43958
G1 X103.103 Y101.689 E101.33363
G1 X103.811 Y101.689 E101.36307
G1 X118.309 Y116.188 E102.21553
G1 X118.309 Y115.481 E102.24492
G1 X104.518 Y101.689 E103.05581
G1 X105.225 Y101.689 E103.0852
G1 X118.309 Y114.774 E103.85452
G1 X118.309 Y114.066 E103.88395
G1 X105.932 Y101.689 E104.61167
G1 X106.639 Y101.689 E104.64107
G1 X118.309 Y113.359 E105.32722
G1 X118.309 Y112.652 E105.35661
G1 X107.346 Y101.689 E106.0012
G1 X108.053 Y101.689 E106.03059
G1 X118.309 Y111.945 E106.6336
G1 X118.309 Y111.238 E106.663
G1 X108.76 Y101.689 E107.22444
G1 X109.467 Y101.689 E107.25383
G1 X118.309 Y110.531 E107.77371
G1 X118.309 Y109.824 E107.8031
G1 X110.175 Y101.689 E108.28138
G1 X110.882 Y101.689 E108.31078
G1 X118.309 Y109.117 E108.74748
G1 X118.309 Y108.41 E108.77688
G1 X111.589 Y101.689 E109.17202
G1 X112.296 Y101.689 E109.20141
G1 X118.309 Y107.702 E109.55495
G1 X118.309 Y106.995 E109.58435
G1 X113.003 Y101.689 E109.89632
G1 X113.71 Y101.689 E109.92571
G1 X118.309 Y106.288 E110.19612
G1 X118.309 Y105.581 E110.22551
G1 X114.417 Y101.689 E110.45434
G1 X115.124 Y101.689 E110.48374
G1 X118.309 Y104.874 E110.671
G1 X118.309 Y104.167 E110.7004
G1 X115.831 Y101.689 E110.84609
G1 X116.538 Y101.689 E110.87549
G1 X118.309 Y103.46 E110.97962
G1 X118.309 Y102.753 E111.00901
G1 X117.246 Y101.689 E111.07154
G1 X117.953 Y101.689 E111.10093
G1 X118.309 Y101.689 E111.11573
G0 F9000 X118.309 Y102.046
G1 F1500 X117.953 Y101.689 E111.13669
G1 F2700 E106.13669
G0 F9000 X117.953 Y99.335
G0 X99.347 Y99.347
G0 X99.335 Y117.953
G0 X101.689 Y117.953
G1 F2700 E111.13669
G1 F1500 X102.046 Y118.309 E111.15765
G1 F2700 E106.15765
;MESH:NONMESH
G0 F300 X102.046 Y118.309 Z0.8
G0 F9000 X100.75 Y119.25
;TIME_ELAPSED:159.716461
;LAYER:3
M106 S127.5
;TYPE:WALL-INNER
;MESH:xyzCalibration_cube.stl
G1 F2700 E111.15765
G1 F1500 X100.75 Y100.75 E111.9268
G1 X119.25 Y100.75 E112.69594
G1 X119.25 Y119.25 E113.46508
G1 X101.39 Y119.25 E114.20761
G0 F1350 X100.75 Y119.25
G0 F9000 X100.25 Y119.75
;TYPE:WALL-OUTER
G1 F1500 X100.25 Y100.25 E115.01832
G1 X119.75 Y100.25 E115.82904
G1 X119.75 Y119.75 E116.63976
G1 X100.89 Y119.75 E117.42386
G0 F1350 X100.25 Y119.75
G0 F9000 X101.24 Y118.76
;TYPE:SKIN
